<?xml version="1.0" encoding="UTF-8"?>
<map version="1.11" tiledversion="1.11.2" orientation="orthogonal" renderorder="right-down" width="32" height="37" tilewidth="32" tileheight="32" infinite="0" nextlayerid="9" nextobjectid="30">
 <tileset firstgid="1" source="[Base]BaseChip_pipo.tsx"/>
 <tileset firstgid="1001" source="[A]Wall-Up_pipo.tsx"/>
 <tileset firstgid="1097" source="[Town]MageCity_cc0.tsx"/>
 <tileset firstgid="1449" source="Assorted_LPC/wooden_stairs/[LPC]WoodenStairs.tsx"/>
 <tileset firstgid="3045" source="[Town]VictorianStreets_LPC.tsx"/>
 <tileset firstgid="4581" source="Assorted_LPC/lpc-bricks-v6/bricks.tsx"/>
 <tileset firstgid="6629" source="[A]LightShadow_pipo.tsx"/>
 <tileset firstgid="6717" source="custom_tilesets/[Somewhere]Walls.tsx"/>
 <tileset firstgid="6877" source="[Town]VictorianMansion_LPC.tsx"/>
 <tileset firstgid="8925" source="roofs.tsx"/>
 <tileset firstgid="13021" source="custom_tilesets/[Somewhere]Ground.tsx"/>
 <tileset firstgid="13109" source="custom_tilesets/[A]BouncingArrows.tsx"/>
 <imagelayer id="2" name="Image Layer 1" visible="0" offsetx="0" offsety="128">
  <image source="vtt-maps/district-3.webp" width="1056" height="1056"/>
 </imagelayer>
 <layer id="1" name="bg" width="32" height="37">
  <data encoding="csv">
6806,6806,6806,6806,6806,6806,6806,6806,6806,6806,6806,6806,6806,6806,6806,0,0,0,0,6806,6806,6806,6806,6806,6806,6806,6806,6806,6806,6806,6806,6806,
6806,6806,6806,6806,6806,6806,6806,6806,6806,6806,6806,6806,6806,6806,6806,0,0,0,0,6806,6806,6806,6806,6806,6806,6806,6806,6806,6806,6806,6806,6806,
6806,6806,6806,6806,6806,6806,6806,6806,6806,6806,6806,6806,6806,6806,6806,0,0,0,0,6806,6806,6806,6806,6806,6806,6806,6806,6806,6806,6806,6806,6806,
6806,6806,6806,6806,6806,6806,6806,6806,6806,6806,6806,6806,1055,1055,1056,13062,13061,13063,13061,6798,1055,1055,1055,1055,1055,1055,1055,6806,6806,6806,6806,6806,
6806,6806,6806,6806,6806,6806,6806,6806,6806,6806,6806,6806,1063,1063,1064,13062,13061,13064,13061,1062,1063,1063,1063,1063,1063,1063,1063,6806,6806,6806,6806,6806,
6814,6814,6814,6814,6814,6814,6814,6814,6814,6814,6814,6814,1063,1063,1064,13061,13063,13061,13064,1062,6814,6814,1063,1063,1063,1063,1063,6814,6814,6814,6814,6814,
1063,1063,1063,1063,1063,1063,1063,1063,1063,1063,1063,1063,1063,1063,1064,13061,13061,13062,13063,1062,1063,1063,1063,1063,1063,1063,1063,1063,1063,1063,1063,1063,
1063,1063,1063,1063,1063,1063,1063,1063,1063,1063,1063,1063,1063,1063,1064,13062,13062,13064,13061,9142,9142,9142,9142,9593,9593,9593,9146,1063,1063,1063,1063,1063,
1063,1063,1063,1063,1063,1063,1063,1063,1063,1063,1063,1063,1063,1063,1064,13061,13061,13063,13063,9142,9142,9142,9142,9593,9593,9593,9146,1063,1063,1063,1063,1063,
1063,1063,1063,1063,1063,1063,1063,1063,1063,1063,1063,1063,1063,1063,1064,13061,13061,13064,13061,9142,9142,9142,9142,9593,9593,9593,9146,1063,1063,1063,1063,1063,
1063,1063,1063,1063,1063,1063,1063,1063,1063,1063,1063,1063,1063,1063,1064,13061,13061,13061,13061,9142,9142,9142,9143,9145,9081,9081,9146,1063,1063,1063,1063,1063,
1063,1063,1063,1063,1063,1063,1063,1063,1063,1063,1063,1063,1063,1063,1064,13061,13061,13061,13063,9142,9656,9656,9656,9656,9656,9656,9146,1063,1063,1063,1063,1063,
1063,1063,1063,1077,1071,1071,1071,1071,1071,1071,1071,1071,1071,1071,1072,13061,13062,13063,13063,9142,9656,9656,9656,9656,9656,9656,9146,1063,1063,1063,1063,1063,
1063,1063,1071,1072,437,434,434,434,434,434,434,434,434,434,435,13061,13061,13063,13062,9974,9656,9656,9656,9656,9656,9656,9978,1063,1063,1063,1063,1063,
1063,1063,1016,438,437,434,434,434,434,434,434,434,434,434,435,13061,13063,13061,13063,13062,0,0,0,0,0,0,0,1063,1063,1063,1063,1063,
1063,1063,1016,438,437,434,434,434,434,434,434,434,434,434,443,13061,13061,13061,13064,13062,0,0,0,0,0,0,0,1063,1063,1063,1063,1063,
1063,1063,1016,438,437,434,434,434,434,434,434,434,434,434,13064,13061,13061,13061,13064,13061,0,0,0,0,0,0,0,1063,1063,1063,1063,1063,
1063,1063,1064,438,437,434,434,434,434,434,434,434,306,306,13063,13064,13062,13061,13061,13062,0,0,0,0,0,0,0,1063,1063,1063,1063,1063,
1063,1063,1064,438,445,442,442,442,442,434,306,306,306,306,13061,13061,13061,13061,13061,13061,0,0,0,0,0,0,0,1071,1071,1071,1071,1078,
1063,1063,1064,446,13069,13069,13069,4380,306,306,306,0,306,450,4443,4443,4443,4443,4444,433,434,434,434,434,434,434,434,434,434,434,434,1062,
1063,1063,1064,13069,13069,13069,13069,4380,306,306,450,0,4443,4443,4443,4443,4443,4443,4444,433,434,434,434,434,434,434,434,434,434,434,434,1062,
1071,1071,1083,1051,1052,13069,13069,4380,458,458,4459,4459,4459,4459,4459,4459,4459,4459,4460,441,442,442,442,442,442,442,442,442,442,442,442,1062,
434,434,434,434,435,13069,13069,13069,13069,13069,13069,13069,13069,13069,13069,13069,13069,13069,13069,13069,13069,13069,13069,13069,13069,13069,13069,13069,13069,13069,13069,1062,
434,434,434,434,435,13069,13069,13069,13069,13069,13069,13069,13069,13069,13069,13069,13069,13069,1054,1055,1055,1055,1055,1055,1055,1055,1055,1055,1055,1055,1055,1086,
442,442,442,442,443,13069,13069,13069,13069,13069,13069,13069,13069,13069,13069,13069,289,289,1062,1063,1063,1063,1063,1063,1063,1063,1063,1063,1063,1063,1063,1063,
13069,13069,13069,13069,13069,13069,13069,13069,13069,13069,13069,13069,13069,13069,13069,13069,289,289,1062,1063,1063,1063,1063,1063,1063,1063,1063,1063,1063,1063,1063,1063,
13069,13069,13069,13069,13069,13069,13069,13069,13069,13069,13069,13069,13069,13069,13069,13069,289,289,1062,1063,1063,1063,1063,1063,1063,1063,1063,1063,1063,1063,1063,1063,
13069,13069,13069,13069,13069,13069,13069,13069,13069,13069,13069,13069,13069,13069,13069,13069,289,289,1062,1063,1063,1063,1063,1063,1063,1063,1063,1063,1063,1063,1063,1063,
1055,1055,1075,1051,1051,1052,13069,13069,13069,13069,13069,13069,13069,13069,13069,13069,289,289,1062,1063,1063,1063,1063,1063,1063,1063,1063,1063,1063,1063,1063,1063,
0,0,1064,437,434,435,13069,13069,13069,13069,13069,13069,13069,13069,13069,13069,289,289,1062,1063,1063,1063,1063,1063,1063,1063,1063,1063,1063,1063,1063,1063,
0,0,1064,437,434,435,13069,13069,13069,13069,13069,13069,13069,13069,13069,13069,289,289,1062,1063,1063,1063,1063,1063,1063,1063,1063,1063,1063,1063,1063,1063,
0,0,1064,445,442,443,13069,13069,13069,13069,13069,13069,13069,13069,13069,13069,289,289,1062,1063,1063,1063,1063,1063,1063,1063,1063,1063,1063,1063,1063,1063,
0,0,1064,13069,13069,13069,13069,13069,13069,13069,13069,13069,13069,13069,13069,13069,289,289,1062,1063,1063,1063,1063,1063,1063,1063,1063,1063,1063,1063,1063,1063,
0,0,1064,13069,13069,13069,13069,13069,13069,13069,13069,13069,13069,13069,13069,13069,289,289,1062,1063,1063,1063,1063,1063,1063,1063,1063,1063,1063,1063,1063,1063,
0,0,1064,13069,13069,13069,289,289,289,289,289,289,289,289,289,289,289,289,1062,1063,1063,1063,1063,1063,1063,1063,1063,1063,1063,1063,1063,1063,
0,0,1085,1056,13069,13069,289,289,289,289,289,289,289,289,289,289,289,289,1062,1063,1063,1063,1063,1063,1063,1063,1063,1063,1063,1063,1063,1063,
0,0,0,1085,1055,1055,1055,1055,1055,1055,1055,1055,1055,1055,1055,1055,1055,1055,1086,1063,1063,1063,1063,1063,1063,1063,1063,1063,1063,1063,1063,1063
</data>
 </layer>
 <layer id="3" name="mid-ground" width="32" height="37">
  <data encoding="csv">
0,0,0,0,0,0,0,0,0,0,0,0,0,0,0,0,0,0,0,0,0,0,0,0,0,0,0,0,0,0,0,0,
0,0,0,0,0,0,0,0,0,0,0,0,0,0,0,0,0,0,0,0,0,0,0,0,0,0,0,0,0,0,0,0,
0,0,0,0,0,0,0,0,0,0,0,0,0,0,0,0,0,0,0,0,0,0,0,0,0,0,0,0,0,0,0,0,
0,0,0,0,0,0,0,0,0,0,0,0,0,0,0,0,0,0,0,1054,0,0,0,0,0,0,0,0,0,0,0,0,
0,0,0,0,0,0,0,0,0,0,0,0,0,0,0,6848,6854,6854,6849,1062,9654,9526,9527,9529,9530,9658,0,0,0,0,0,0,
0,0,0,0,0,0,0,0,0,0,0,0,0,0,0,6848,6854,6854,6849,9782,9718,9590,9591,9593,9594,9722,9786,0,0,0,0,0,
0,0,0,0,0,0,0,0,0,0,0,0,0,0,0,0,0,0,0,9846,9142,9142,9142,9593,9593,9593,9850,0,0,0,0,0,
0,0,0,0,0,0,0,0,0,0,0,0,0,0,0,0,0,0,0,9142,9142,9142,9142,9593,9593,9593,9146,0,0,0,0,0,
0,0,0,0,0,0,0,0,0,0,0,0,0,0,0,0,0,0,0,9142,9142,9142,9142,9593,9593,9593,9146,0,0,0,0,0,
0,0,0,0,0,0,0,0,0,0,0,0,0,0,0,0,0,0,0,9142,9142,9142,9142,9593,9593,9593,9146,0,0,0,0,0,
0,0,0,0,0,0,0,0,0,0,0,0,0,0,0,0,0,0,0,9142,9142,9142,9143,9145,9081,9081,9146,0,0,0,0,0,
0,0,0,0,0,0,0,0,0,0,0,0,0,0,0,0,0,0,0,9142,9402,9398,9399,9337,9338,9334,9146,0,0,0,0,0,
0,0,0,0,0,0,0,0,0,0,0,0,0,0,0,0,0,0,0,9910,9400,9656,9656,9656,9656,9336,9914,0,0,0,0,0,
0,0,0,0,0,0,0,0,0,0,0,0,0,0,0,0,0,0,0,9974,9656,9656,9656,9656,9656,9656,9978,0,0,0,0,0,
0,0,0,0,0,0,0,0,0,0,0,0,0,0,0,0,0,0,0,8477,8478,8478,8478,8478,8478,8478,8479,0,0,0,0,0,
0,0,0,0,0,0,0,0,0,0,0,0,0,0,0,0,0,0,0,8509,8510,8510,8510,8510,8510,8510,8511,0,0,0,0,0,
0,0,0,0,0,0,0,0,0,0,0,0,4299,4300,0,0,0,0,0,8445,8446,8446,8446,8446,8446,8446,8447,0,0,0,0,0,
0,0,0,0,0,0,0,0,0,0,4299,4300,4379,4379,0,0,0,0,0,8509,8510,8510,8510,8510,8510,8510,8511,0,0,0,0,0,
0,0,0,0,0,0,0,0,4299,4300,4379,4379,4379,4379,3715,3778,3778,3778,3778,8541,8542,8542,8542,8542,8542,8542,8543,1071,1071,1071,1071,1078,
0,0,0,0,0,0,0,0,4379,4379,4379,4379,4315,4316,0,0,0,0,0,0,0,0,0,0,0,0,0,0,0,0,0,1062,
0,0,0,0,0,0,0,0,4379,4379,4315,4316,0,0,0,0,0,0,0,0,0,0,0,0,0,0,0,0,0,0,0,1062,
0,0,0,0,0,0,0,3515,4347,4348,0,0,0,0,0,0,0,0,0,0,0,0,0,0,0,0,0,0,0,0,0,1062,
0,0,0,0,0,0,0,0,0,0,0,0,0,0,0,0,0,0,0,0,0,0,0,0,0,0,0,0,0,0,0,1062,
0,0,0,0,0,0,0,0,0,0,0,0,0,0,0,0,0,0,1054,1055,1055,1055,1055,1055,1055,1055,1055,1055,1055,1055,1055,1086,
0,0,0,0,0,0,0,0,0,0,0,0,0,0,0,0,0,0,1062,0,0,0,0,0,0,0,0,0,0,0,0,0,
0,0,0,0,0,0,0,0,0,0,0,0,0,0,0,0,0,0,0,0,0,0,0,0,0,0,0,0,0,0,0,0,
0,0,0,0,0,0,0,0,0,0,0,0,0,0,0,0,0,0,0,0,0,0,0,0,0,0,0,0,0,0,0,0,
0,0,0,0,0,0,0,0,0,0,0,0,0,0,0,0,0,0,0,0,0,0,0,0,0,0,0,0,0,0,0,0,
0,0,0,0,0,0,0,0,0,0,0,0,0,0,0,0,0,0,0,0,0,0,0,0,0,0,0,0,0,0,0,0,
0,0,0,0,0,0,0,0,0,0,0,0,0,0,0,0,0,0,0,0,0,0,0,0,0,0,0,0,0,0,0,0,
0,0,0,0,0,0,0,0,0,0,0,0,0,0,0,0,0,0,0,0,0,0,0,0,0,0,0,0,0,0,0,0,
0,0,0,0,0,0,0,0,0,0,0,0,0,0,0,0,0,0,0,0,0,0,0,0,0,0,0,0,0,0,0,0,
0,0,0,0,0,0,0,0,0,0,0,0,0,0,0,0,0,0,0,0,0,0,0,0,0,0,0,0,0,0,0,0,
0,0,0,0,0,0,0,0,0,0,0,0,0,0,0,0,0,0,0,0,0,0,0,0,0,0,0,0,0,0,0,0,
0,0,0,0,0,0,0,0,0,0,0,0,0,0,0,0,0,0,0,0,0,0,0,0,0,0,0,0,0,0,0,0,
0,0,0,0,0,0,0,0,0,0,0,0,0,0,0,0,0,0,0,0,0,0,0,0,0,0,0,0,0,0,0,0,
0,0,0,0,0,0,0,0,0,0,0,0,0,0,0,0,0,0,0,0,0,0,0,0,0,0,0,0,0,0,0,0
</data>
 </layer>
 <layer id="6" name="Shadows" width="32" height="37">
  <data encoding="csv">
0,0,0,0,0,0,0,0,0,0,0,0,0,0,0,0,0,0,0,0,0,0,0,0,0,0,0,0,0,0,0,0,
0,0,0,0,0,0,0,0,0,0,0,0,0,0,0,0,0,0,0,0,0,0,0,0,0,0,0,0,0,0,0,0,
0,0,0,0,0,0,0,0,0,0,0,0,0,0,0,0,0,0,0,0,0,0,0,0,0,0,0,0,0,0,0,0,
0,0,0,0,0,0,0,0,0,0,0,0,0,0,0,6638,0,0,0,0,0,0,0,0,0,0,0,0,0,0,0,0,
0,0,0,0,0,0,0,0,0,0,0,0,0,0,0,6638,0,0,0,0,0,0,0,0,0,0,0,0,0,0,0,0,
0,0,0,0,0,0,0,0,0,0,0,0,0,0,0,6638,0,0,0,0,0,0,0,0,0,0,0,0,0,0,0,0,
0,0,0,0,0,0,0,0,0,0,0,0,0,0,0,6638,0,0,0,0,0,0,0,0,0,0,0,0,0,0,0,0,
0,0,0,0,0,0,0,0,0,0,0,0,0,0,0,6638,0,0,0,0,0,0,0,0,0,0,0,0,0,0,0,0,
0,0,0,0,0,0,0,0,0,0,0,0,0,0,0,6638,0,0,0,0,0,0,0,0,0,0,0,0,0,0,0,0,
0,0,0,0,0,0,0,0,0,0,0,0,0,0,0,6638,0,0,0,0,0,0,0,0,0,0,0,0,0,0,0,0,
0,0,0,0,0,0,0,0,0,0,0,0,0,0,0,6638,0,0,0,0,0,0,0,0,0,0,0,0,0,0,0,0,
0,0,0,0,0,0,0,0,0,0,0,0,0,0,0,6638,0,0,0,0,0,0,0,0,0,0,0,0,0,0,0,0,
0,0,0,0,0,0,0,0,0,0,0,0,0,0,0,6638,0,0,0,0,0,0,0,0,0,0,0,0,0,0,0,0,
0,0,0,0,0,0,0,0,0,0,0,0,0,0,0,6638,0,0,0,0,0,0,0,0,0,0,0,0,0,0,0,0,
0,0,0,0,0,0,0,0,0,0,0,0,0,0,0,6638,0,0,0,0,0,0,0,0,0,0,0,0,0,0,0,0,
0,0,0,0,0,0,0,0,0,0,0,0,0,0,0,6647,0,0,0,0,0,0,0,0,0,0,0,0,0,0,0,0,
0,0,0,0,0,0,0,0,0,0,0,0,0,0,0,0,0,0,0,0,0,0,0,0,0,0,0,0,0,0,0,0,
0,0,0,0,0,0,0,0,0,0,0,0,0,0,0,0,0,0,0,0,0,0,0,0,0,0,0,0,0,0,0,0,
0,0,0,0,0,0,0,0,0,0,0,0,0,0,0,0,0,0,0,0,0,0,0,0,0,0,0,0,0,0,0,0,
0,0,0,0,6647,0,0,0,0,0,0,0,0,0,0,0,0,0,0,0,0,0,0,0,0,0,0,0,0,0,0,0,
0,0,0,6638,0,0,0,0,0,0,0,0,0,0,0,0,0,0,0,0,0,0,0,0,0,0,0,0,0,0,0,0,
0,0,0,0,0,0,0,0,0,0,0,0,0,0,0,0,0,0,0,0,0,0,0,0,0,0,0,0,0,0,0,0,
0,0,0,0,0,0,0,0,0,0,0,0,0,0,0,0,0,0,0,0,0,0,0,0,0,0,0,0,0,0,0,0,
0,0,0,0,0,6630,0,0,0,0,0,0,0,0,0,0,0,0,0,0,0,0,0,0,0,0,0,0,0,0,0,0,
0,0,0,0,0,6647,0,0,0,0,0,0,0,0,0,0,6671,0,0,0,0,0,0,0,0,0,0,0,0,0,0,0,
0,0,0,0,0,0,0,0,0,0,0,0,0,0,0,0,6666,0,0,0,0,0,0,0,0,0,0,0,0,0,0,0,
0,0,0,0,0,0,0,0,0,0,0,0,0,0,0,0,6666,0,0,0,0,0,0,0,0,0,0,0,0,0,0,0,
0,0,0,0,0,0,0,0,0,0,0,0,0,0,0,0,6666,0,0,0,0,0,0,0,0,0,0,0,0,0,0,0,
0,0,0,0,0,0,0,0,0,0,0,0,0,0,0,0,6666,0,0,0,0,0,0,0,0,0,0,0,0,0,0,0,
0,0,0,0,0,0,0,0,0,0,0,0,0,0,0,0,6666,0,0,0,0,0,0,0,0,0,0,0,0,0,0,0,
0,0,0,0,0,0,6630,0,0,0,0,0,0,0,0,0,6666,0,0,0,0,0,0,0,0,0,0,0,0,0,0,0,
0,0,0,0,0,0,6647,0,0,0,0,0,0,0,0,0,6666,0,0,0,0,0,0,0,0,0,0,0,0,0,0,0,
0,0,0,6638,0,0,0,0,0,0,0,0,0,0,0,0,6666,0,0,0,0,0,0,0,0,0,0,0,0,0,0,0,
0,0,0,6638,0,0,0,0,0,0,0,0,0,0,0,0,6666,0,0,0,0,0,0,0,0,0,0,0,0,0,0,0,
0,0,0,6638,0,0,6661,6659,6659,6659,6659,6659,6659,6659,6659,6659,6665,0,0,0,0,0,0,0,0,0,0,0,0,0,0,0,
0,0,0,0,0,0,0,0,0,0,0,0,0,0,0,0,0,0,0,0,0,0,0,0,0,0,0,0,0,0,0,0,
0,0,0,0,0,0,0,0,0,0,0,0,0,0,0,0,0,0,0,0,0,0,0,0,0,0,0,0,0,0,0,0
</data>
 </layer>
 <layer id="4" name="Tile Layer 3" width="32" height="37">
  <properties>
   <property name="z" type="int" value="0"/>
  </properties>
  <data encoding="csv">
0,0,0,0,0,0,0,0,0,0,0,0,0,0,0,0,0,0,0,0,0,0,0,0,0,0,0,0,0,0,0,0,
0,0,0,0,0,0,0,0,0,0,0,0,0,0,0,0,0,0,0,0,0,0,0,0,0,0,0,0,0,0,0,0,
0,0,0,0,0,0,0,0,0,0,0,0,0,0,0,0,0,0,0,0,0,0,0,0,0,0,0,0,0,0,0,0,
0,0,0,0,0,0,0,0,0,0,0,0,0,0,0,13124,13124,13124,13124,0,0,0,0,0,0,0,0,0,0,0,0,0,
0,0,0,0,0,0,0,0,0,0,0,0,0,0,0,0,0,0,0,0,0,0,0,0,0,0,0,0,0,0,0,0,
0,0,0,0,0,0,0,0,0,0,0,0,0,0,0,0,0,0,0,0,0,0,0,0,0,0,0,0,0,0,0,0,
0,0,0,0,0,0,0,0,0,0,0,0,0,0,0,0,0,0,0,0,0,0,0,0,0,0,0,0,0,0,0,0,
0,0,0,0,0,0,0,0,0,0,0,0,0,0,0,0,0,0,0,0,0,0,0,0,0,0,0,0,0,0,0,0,
0,0,0,0,0,0,0,0,0,0,0,0,0,0,0,0,0,0,0,0,0,0,0,0,0,0,0,0,0,0,0,0,
0,0,0,0,0,0,0,0,0,0,0,0,0,0,0,0,0,0,0,0,0,0,0,0,0,0,0,0,0,0,0,0,
0,0,0,0,0,0,0,0,0,0,0,0,0,0,0,0,0,0,0,0,0,0,0,0,0,0,0,0,0,0,0,0,
0,0,0,0,0,0,0,0,0,0,0,0,0,0,0,0,0,0,0,0,0,0,0,0,0,0,0,0,0,0,0,0,
0,0,0,0,0,0,0,0,0,0,0,0,0,0,0,0,0,0,0,0,0,0,0,0,0,0,0,0,0,0,0,0,
0,0,0,0,0,0,0,0,0,0,0,0,0,0,0,0,0,0,0,0,0,0,0,0,0,0,0,0,0,0,0,0,
0,0,0,0,0,0,0,0,0,0,0,0,0,0,0,0,0,0,0,0,0,0,0,0,0,0,0,0,0,0,0,0,
0,0,0,0,0,0,0,0,0,0,0,0,0,0,0,0,0,0,0,0,0,0,0,0,0,0,0,0,0,0,0,0,
0,0,0,0,0,0,0,0,0,0,0,0,0,0,0,0,0,0,0,0,0,0,0,0,0,0,0,0,0,0,0,0,
0,0,0,0,0,0,0,0,0,0,0,0,0,0,0,0,0,0,0,0,0,0,0,0,0,0,0,0,0,0,0,0,
0,0,0,0,0,0,0,0,0,0,0,0,3657,3658,4261,0,0,0,4261,3716,0,0,0,0,0,0,0,0,0,0,0,0,
0,0,0,0,0,0,0,0,0,0,3657,3658,3673,3674,0,0,0,0,0,0,0,0,0,0,0,0,0,0,0,0,0,0,
0,0,0,0,0,0,0,0,3657,3658,3673,3674,0,0,0,0,0,0,0,0,0,0,0,0,0,0,0,0,0,0,0,0,
0,0,0,0,0,0,0,4261,3673,3674,0,0,0,0,0,0,0,0,0,0,0,0,0,0,0,0,0,0,0,0,0,0,
0,0,0,0,0,0,0,0,0,0,0,0,0,0,0,0,0,0,0,0,0,0,0,0,0,0,0,0,0,0,0,0,
0,0,0,0,0,0,0,0,0,0,0,0,0,0,0,0,0,0,0,0,0,0,0,0,0,0,0,0,0,0,0,0,
0,0,0,0,0,0,0,0,0,0,0,0,0,0,0,0,0,0,0,0,0,0,0,0,0,0,0,0,0,0,0,0,
0,0,0,0,0,0,0,0,0,0,0,0,0,0,0,0,0,0,0,0,0,0,0,0,0,0,0,0,0,0,0,0,
0,0,0,0,0,0,0,0,0,0,0,0,0,0,0,0,0,0,0,0,0,0,0,0,0,0,0,0,0,0,0,0,
0,0,0,0,0,0,0,0,0,0,0,0,0,0,0,0,0,0,0,0,0,0,0,0,0,0,0,0,0,0,0,0,
0,0,0,0,0,0,0,0,0,0,0,0,0,0,0,0,0,0,0,0,0,0,0,0,0,0,0,0,0,0,0,0,
0,0,0,0,0,0,0,0,0,0,0,0,0,0,0,0,0,0,0,0,0,0,0,0,0,0,0,0,0,0,0,0,
0,0,0,0,0,0,0,0,0,0,0,0,0,0,0,0,0,0,0,0,0,0,0,0,0,0,0,0,0,0,0,0,
0,0,0,0,0,0,0,0,0,0,0,0,0,0,0,0,0,0,0,0,0,0,0,0,0,0,0,0,0,0,0,0,
0,0,0,0,0,0,0,0,0,0,0,0,0,0,0,0,0,0,0,0,0,0,0,0,0,0,0,0,0,0,0,0,
0,0,0,0,0,0,0,0,0,0,0,0,0,0,0,0,0,0,0,0,0,0,0,0,0,0,0,0,0,0,0,0,
0,0,0,0,0,0,0,0,0,0,0,0,0,0,0,0,0,0,0,0,0,0,0,0,0,0,0,0,0,0,0,0,
0,0,0,0,0,0,0,0,0,0,0,0,0,0,0,0,0,0,0,0,0,0,0,0,0,0,0,0,0,0,0,0,
0,0,0,0,0,0,0,0,0,0,0,0,0,0,0,0,0,0,0,0,0,0,0,0,0,0,0,0,0,0,0,0
</data>
 </layer>
 <layer id="8" name="foreground" width="32" height="37">
  <properties>
   <property name="z" type="int" value="3"/>
  </properties>
  <data encoding="csv">
0,0,0,0,0,0,0,0,0,0,0,0,0,0,0,6806,6806,6806,6806,0,0,0,0,0,0,0,0,0,0,0,0,0,
0,0,0,0,0,0,0,0,0,0,0,0,0,0,0,6806,6806,6806,6806,0,0,0,0,0,0,0,0,0,0,0,0,0,
0,0,0,0,0,0,0,0,0,0,0,0,0,0,0,6806,6806,6806,6806,0,0,0,0,0,0,0,0,0,0,0,0,0,
0,0,0,0,0,0,0,0,0,0,0,0,0,0,0,6845,6846,6846,6847,0,0,0,0,0,0,0,0,0,0,0,0,0,
0,0,0,0,0,0,0,0,0,0,0,0,0,0,0,0,0,0,0,0,0,0,0,0,0,0,0,0,0,0,0,0,
0,0,0,0,0,0,0,0,0,0,0,0,0,0,0,0,0,0,0,0,0,0,0,0,0,0,0,0,0,0,0,0,
0,0,0,0,0,0,0,0,0,0,0,0,0,0,0,0,0,0,0,0,0,0,0,0,0,0,0,0,0,0,0,0,
0,0,0,0,0,0,0,0,0,0,0,0,0,0,0,0,0,0,0,0,0,0,0,0,0,0,0,0,0,0,0,0,
0,0,0,0,0,0,0,0,0,0,0,0,0,0,0,0,0,0,0,0,0,0,0,0,0,0,0,0,0,0,0,0,
0,0,0,0,0,0,0,0,0,0,0,0,0,0,0,0,0,0,0,0,0,0,0,0,0,0,0,0,0,0,0,0,
0,0,0,0,0,0,0,0,0,0,0,0,0,0,0,0,0,0,0,0,0,0,0,0,0,0,0,0,0,0,0,0,
0,0,0,0,0,0,0,0,0,0,0,0,0,0,0,0,0,0,0,0,0,0,0,0,0,0,0,0,0,0,0,0,
0,0,0,0,0,0,0,0,0,0,0,0,0,0,0,0,0,0,0,0,0,0,0,0,0,0,0,0,0,0,0,0,
0,0,0,0,0,0,0,0,0,0,0,0,0,0,0,0,0,0,0,0,0,0,0,0,0,0,0,0,0,0,0,0,
0,0,0,0,0,0,0,0,0,0,0,0,0,0,0,0,0,0,0,0,0,0,0,0,0,0,0,0,0,0,0,0,
0,0,0,0,0,0,0,0,0,0,0,0,0,0,0,0,0,0,0,0,0,0,0,0,0,0,0,0,0,0,0,0,
0,0,0,0,0,0,0,0,0,0,0,0,0,0,0,0,0,0,0,0,0,0,0,0,0,0,0,0,0,0,0,0,
0,0,0,0,0,0,0,0,0,0,0,0,0,0,0,0,0,0,0,0,0,0,0,0,0,0,0,0,0,0,0,0,
0,0,0,0,0,0,0,0,0,0,0,0,0,0,0,0,0,0,0,0,0,0,0,0,0,0,0,0,0,0,0,0,
0,0,0,0,0,0,0,0,0,0,0,0,0,0,0,0,0,0,0,0,0,0,0,0,0,0,0,0,0,0,0,0,
0,0,0,0,0,0,0,0,0,0,0,0,0,0,0,0,0,0,0,0,0,0,0,0,0,0,0,0,0,0,0,0,
0,0,0,0,0,0,0,0,0,0,0,0,0,0,0,0,0,0,0,0,0,0,0,0,0,0,0,0,0,0,0,0,
0,0,0,0,0,0,0,0,0,0,0,0,0,0,0,0,0,0,0,0,0,0,0,0,0,0,0,0,0,0,0,0,
0,0,0,0,0,0,0,0,0,0,0,0,0,0,0,0,0,0,0,0,0,0,0,0,0,0,0,0,0,0,0,0,
0,0,0,0,0,0,0,0,0,0,0,0,0,0,0,0,0,0,0,1063,1063,1063,1063,1063,1063,1063,1063,1063,1063,1063,1063,1063,
13114,0,0,0,0,0,0,0,0,0,0,0,0,0,0,0,0,0,0,1063,1063,1063,1063,1063,1063,1063,1063,1063,1063,1063,1063,1063,
13114,0,0,0,0,0,0,0,0,0,0,0,0,0,0,0,0,0,0,0,0,0,0,0,0,0,0,0,0,0,0,0,
13114,0,0,0,0,0,0,0,0,0,0,0,0,0,0,0,0,0,0,0,0,0,0,0,0,0,0,0,0,0,0,0,
0,0,0,0,0,0,0,0,0,0,0,0,0,0,0,0,0,0,0,0,0,0,0,0,0,0,0,0,0,0,0,0,
1063,1063,0,0,0,0,0,0,0,0,0,0,0,0,0,0,0,0,0,0,0,0,0,0,0,0,0,0,0,0,0,0,
1063,1063,0,0,0,0,0,0,0,0,0,0,0,0,0,0,0,0,0,0,0,0,0,0,0,0,0,0,0,0,0,0,
1063,1063,0,0,0,0,0,0,0,0,0,0,0,0,0,0,0,0,0,0,0,0,0,0,0,0,0,0,0,0,0,0,
1063,1063,0,0,0,0,0,0,0,0,0,0,0,0,0,0,0,0,0,0,0,0,0,0,0,0,0,0,0,0,0,0,
1063,1063,0,0,0,0,0,0,0,0,0,0,0,0,0,0,0,0,0,0,0,0,0,0,0,0,0,0,0,0,0,0,
1063,1063,0,0,0,0,0,0,0,0,0,0,0,0,0,0,0,0,0,0,0,0,0,0,0,0,0,0,0,0,0,0,
1063,1063,0,0,0,0,0,0,0,0,0,0,0,0,0,0,0,0,0,0,0,0,0,0,0,0,0,0,0,0,0,0,
1063,1063,1063,0,0,0,0,0,0,0,0,0,0,0,0,0,0,0,0,0,0,0,0,0,0,0,0,0,0,0,0,0
</data>
 </layer>
 <objectgroup id="5" name="Object Layer 1">
  <object id="1" name="to-district-1" x="0" y="800" width="32" height="96">
   <properties>
    <property name="dest" value="somewhere-district-1"/>
    <property name="destDir" value="l"/>
    <property name="destPoint" value="to-district-3"/>
    <property name="destZ" type="float" value="0"/>
   </properties>
  </object>
  <object id="22" name="start" x="80" y="848">
   <point/>
  </object>
  <object id="23" name="to-east-park" x="480" y="64" width="128" height="62">
   <properties>
    <property name="dest" value="somewhere-east-park"/>
    <property name="destDir" value="u"/>
    <property name="destX" type="float" value="9"/>
    <property name="destY" type="float" value="31"/>
    <property name="destZ" type="float" value="0"/>
   </properties>
  </object>
 </objectgroup>
 <objectgroup id="7" name="collisions">
  <properties>
   <property name="collision" type="bool" value="true"/>
  </properties>
  <object id="2" x="0" y="768" width="160" height="32">
   <properties>
    <property name="collision" type="bool" value="true"/>
   </properties>
  </object>
  <object id="3" x="64" y="640" width="32" height="128">
   <properties>
    <property name="collision" type="bool" value="true"/>
   </properties>
  </object>
  <object id="4" x="96" y="608" width="32" height="32">
   <properties>
    <property name="collision" type="bool" value="true"/>
   </properties>
  </object>
  <object id="5" x="128" y="576" width="128" height="32">
   <properties>
    <property name="collision" type="bool" value="true"/>
   </properties>
  </object>
  <object id="7" x="384" y="480" width="64" height="32">
   <properties>
    <property name="collision" type="bool" value="true"/>
   </properties>
  </object>
  <object id="9" x="448" y="0" width="32" height="512">
   <properties>
    <property name="collision" type="bool" value="true"/>
   </properties>
  </object>
  <object id="10" x="608" y="0" width="32" height="480">
   <properties>
    <property name="collision" type="bool" value="true"/>
   </properties>
  </object>
  <object id="11" x="224" y="700" width="768" height="4">
   <properties>
    <property name="collision" type="bool" value="true"/>
   </properties>
  </object>
  <object id="16" x="608" y="800" width="416" height="32">
   <properties>
    <property name="collision" type="bool" value="true"/>
   </properties>
  </object>
  <object id="17" x="992" y="736" width="32" height="64">
   <properties>
    <property name="collision" type="bool" value="true"/>
   </properties>
  </object>
  <object id="18" x="0" y="992" width="192" height="32">
   <properties>
    <property name="collision" type="bool" value="true"/>
   </properties>
  </object>
  <object id="19" x="64" y="1024" width="32" height="160">
   <properties>
    <property name="collision" type="bool" value="true"/>
   </properties>
  </object>
  <object id="20" x="96" y="1152" width="512" height="32">
   <properties>
    <property name="collision" type="bool" value="true"/>
   </properties>
  </object>
  <object id="21" x="576" y="800" width="32" height="352">
   <properties>
    <property name="collision" type="bool" value="true"/>
   </properties>
  </object>
  <object id="24" x="448" y="604" width="160" height="4">
   <properties>
    <property name="collision" type="bool" value="true"/>
   </properties>
  </object>
  <object id="25" x="256" y="608">
   <properties>
    <property name="collision" type="bool" value="true"/>
   </properties>
   <polygon points="0,0 192,-96 0,-96"/>
  </object>
  <object id="26" x="256" y="704">
   <properties>
    <property name="collision" type="bool" value="true"/>
   </properties>
   <polygon points="0,0 192,-96 192,0"/>
  </object>
  <object id="27" x="608" y="544" width="32" height="64">
   <properties>
    <property name="collision" type="bool" value="true"/>
   </properties>
  </object>
  <object id="28" name="to-house" x="624" y="480" width="32" height="64">
   <properties>
    <property name="collision" type="bool" value="true"/>
   </properties>
  </object>
  <object id="29" name="to-secret-tunnel" x="992" y="672" width="32" height="64">
   <properties>
    <property name="collision" type="bool" value="true"/>
   </properties>
  </object>
 </objectgroup>
</map>
