<?xml version="1.0" encoding="UTF-8"?>
<map version="1.11" tiledversion="1.11.2" orientation="orthogonal" renderorder="right-down" width="30" height="20" tilewidth="32" tileheight="32" infinite="0" nextlayerid="5" nextobjectid="2">
 <tileset firstgid="1" source="custom_tilesets/[Overworld]Voidspace.tsx"/>
 <layer id="3" name="parallax-bg1" width="30" height="20" parallaxx="0.5" parallaxy="0.5">
  <data encoding="csv">
2,1,2,2,9,1,1,10,2,9,9,2,9,10,1,1,2,9,2,10,9,1,1,9,9,9,2,2,9,10,
2,9,1,9,9,2,9,2,1,9,9,9,1,10,1,9,9,1,1,2,9,9,1,9,9,9,1,9,2,2,
9,1,10,2,1,9,10,2,1,1,10,10,9,2,1,1,9,2,9,9,9,1,1,1,1,1,1,9,9,9,
9,9,1,1,9,1,1,9,9,10,10,2,2,10,1,9,9,1,10,2,1,1,1,1,1,2,1,2,2,9,
1,2,9,9,2,1,9,9,2,1,9,9,1,2,9,2,9,9,1,2,9,9,9,1,9,1,9,9,10,1,
9,9,2,2,9,2,2,1,1,2,10,2,2,9,1,2,2,9,9,9,9,9,9,9,1,10,9,9,9,2,
1,10,2,10,9,10,10,2,9,2,1,9,10,9,9,1,9,10,1,10,1,9,2,2,10,9,2,1,9,9,
9,2,1,9,10,9,2,1,9,1,1,9,2,2,9,2,2,1,1,9,9,1,9,1,1,9,2,9,1,1,
9,1,10,1,1,9,2,1,9,2,1,1,9,9,2,9,1,10,9,9,1,9,9,9,2,9,9,9,2,2,
2,10,2,1,9,9,2,9,2,1,1,1,10,1,1,10,10,9,2,1,2,1,2,2,1,9,9,1,1,1,
1,1,1,2,9,1,9,1,2,1,1,2,1,9,9,1,2,2,1,9,9,9,9,9,1,2,9,2,9,9,
9,9,2,1,10,2,2,2,9,2,2,1,1,1,2,1,1,1,2,2,1,9,2,9,2,9,1,9,10,1,
2,2,9,2,2,9,1,9,9,1,1,9,9,9,1,2,2,9,1,9,9,2,9,1,1,10,1,1,9,9,
9,9,9,9,9,2,9,10,9,9,1,1,2,1,10,1,9,9,9,9,9,9,2,9,1,1,9,1,9,9,
9,1,2,1,1,1,2,1,10,2,9,10,1,1,1,2,1,9,9,2,2,2,10,2,9,1,2,9,9,1,
1,2,10,9,1,10,1,9,1,2,10,1,9,9,2,2,9,9,9,9,9,9,2,9,9,1,9,2,2,9,
1,9,1,10,1,9,9,10,2,2,10,10,2,9,9,1,9,10,2,9,9,1,1,2,2,1,2,1,9,1,
9,2,1,2,2,2,9,2,2,10,9,9,9,9,1,2,2,1,2,9,9,1,9,9,1,9,1,9,9,1,
9,10,9,2,9,2,1,9,1,1,9,9,1,9,2,9,2,10,2,9,1,2,2,1,2,9,2,9,2,2,
9,1,1,1,9,2,9,10,9,2,1,2,1,2,10,2,10,9,9,1,1,1,1,2,2,2,2,2,10,1
</data>
 </layer>
 <layer id="4" name="parallax-bg2" width="30" height="20" parallaxx="0.8" parallaxy="0.8">
  <data encoding="csv">
12,11,12,12,11,12,11,4,11,3,4,12,3,11,4,4,12,3,11,4,3,4,11,11,11,4,12,11,12,11,
4,12,3,11,11,3,12,12,4,3,12,3,3,4,3,4,12,3,4,3,3,11,3,12,4,3,4,3,4,11,
4,12,3,11,11,12,12,4,12,4,11,3,12,11,4,3,3,4,11,3,3,12,3,11,4,12,12,11,12,11,
4,3,12,4,12,3,12,11,12,3,11,11,12,3,12,11,11,12,3,3,11,4,4,11,3,11,12,11,4,4,
12,4,4,12,11,11,11,3,4,12,12,3,12,4,3,12,4,11,12,11,3,4,11,11,11,4,4,12,3,11,
4,4,11,4,12,11,4,12,4,11,12,3,3,12,3,11,12,12,3,4,4,3,11,12,3,3,4,3,12,12,
3,4,4,3,11,12,4,11,11,3,4,12,11,4,3,3,11,12,12,11,3,12,4,11,11,4,11,3,12,12,
11,12,4,3,12,4,3,3,12,4,3,12,4,12,11,12,3,11,3,11,11,3,4,4,4,11,12,3,12,3,
12,11,4,3,11,11,11,4,3,12,3,4,3,11,4,4,4,3,12,11,12,3,11,3,4,12,3,12,11,4,
4,3,4,11,12,12,3,3,11,3,3,12,4,12,3,12,4,3,4,11,4,12,12,12,11,11,11,3,3,12,
12,12,12,11,3,4,12,11,3,11,3,12,3,11,12,12,4,3,4,4,3,11,11,4,4,4,3,11,11,12,
11,12,11,4,4,3,12,11,11,12,12,3,12,4,3,11,11,4,12,4,12,4,11,12,11,12,11,4,3,12,
11,11,11,4,12,3,4,4,11,12,4,4,12,12,3,4,3,12,12,4,11,12,11,11,4,3,4,4,11,4,
4,11,11,12,4,3,11,3,12,4,4,11,4,4,12,11,3,3,4,3,4,11,11,3,12,3,11,4,11,4,
12,3,12,11,3,4,12,12,4,11,11,12,12,4,4,11,3,4,11,11,12,11,3,12,4,3,12,3,4,4,
11,11,11,4,3,4,3,12,3,3,4,11,12,12,11,12,4,12,12,12,12,11,4,3,4,11,3,11,11,4,
3,4,4,12,12,4,4,11,4,12,3,12,11,12,4,4,3,3,11,11,3,3,11,12,4,3,12,3,4,12,
11,3,12,12,3,4,4,11,3,11,3,3,12,12,4,3,3,3,3,12,12,12,3,12,3,12,11,4,11,4,
3,12,11,3,12,4,4,4,12,3,3,4,4,11,4,4,11,3,11,3,3,3,11,12,4,12,3,3,11,3,
11,3,4,12,11,11,4,3,4,11,4,11,3,3,3,12,3,3,3,12,11,3,3,3,12,4,12,11,12,3
</data>
 </layer>
 <layer id="1" name="bg" width="30" height="20">
  <data encoding="csv">
0,0,0,0,0,0,0,0,0,0,0,0,0,0,0,0,0,0,0,0,0,0,0,0,0,0,0,0,0,0,
0,0,0,0,0,0,0,0,0,0,0,0,0,0,0,0,0,0,0,0,0,0,0,0,0,0,0,0,0,0,
0,0,0,0,0,0,0,0,0,0,0,0,0,0,0,0,0,0,0,0,0,0,0,0,0,0,0,0,0,0,
0,0,0,0,0,0,0,0,0,0,0,0,0,0,0,0,0,0,0,0,0,0,0,0,0,0,0,0,0,0,
0,0,0,0,0,0,0,0,0,0,0,0,0,0,0,0,0,0,0,0,0,0,0,0,0,0,0,0,0,0,
0,0,0,0,0,0,0,0,0,0,0,0,0,0,0,0,0,0,0,0,0,0,0,0,0,0,0,0,0,0,
0,0,0,0,0,0,0,0,0,0,0,0,0,0,0,0,0,0,0,0,0,0,0,0,0,0,0,0,0,0,
0,0,0,0,0,0,0,0,0,0,0,0,0,0,0,0,0,0,0,0,0,0,0,0,0,0,0,0,0,0,
0,0,0,0,0,0,0,0,0,0,0,0,0,0,0,0,0,0,0,0,0,0,0,0,0,0,0,0,0,0,
0,0,0,0,0,5,6,0,0,7,8,0,0,0,0,0,0,0,0,0,0,0,0,0,0,0,0,0,0,0,
0,0,0,0,0,0,0,0,0,0,0,0,0,0,0,0,0,0,0,0,0,0,0,0,0,0,0,0,0,0,
0,0,0,0,0,0,0,0,0,0,0,0,0,0,0,0,0,0,0,0,0,0,0,0,0,0,0,0,0,0,
0,0,0,0,0,0,0,0,0,0,0,0,0,0,0,0,0,0,0,0,0,0,0,0,0,0,0,0,0,0,
0,0,0,0,0,0,0,0,0,0,0,0,0,0,0,0,0,0,0,0,0,0,0,0,0,0,0,0,0,0,
0,0,0,0,0,0,0,0,0,0,0,0,0,0,0,0,0,0,0,0,0,0,0,0,0,0,0,0,0,0,
0,0,0,0,0,0,0,0,0,0,0,0,0,0,0,0,0,0,0,0,0,0,0,0,0,0,0,0,0,0,
0,0,0,0,0,0,0,0,0,0,0,0,0,0,0,0,0,0,0,0,0,0,0,0,0,0,0,0,0,0,
0,0,0,0,0,0,0,0,0,0,0,0,0,0,0,0,0,0,0,0,0,0,0,0,0,0,0,0,0,0,
0,0,0,0,0,0,0,0,0,0,0,0,0,0,0,0,0,0,0,0,0,0,0,0,0,0,0,0,0,0,
0,0,0,0,0,0,0,0,0,0,0,0,0,0,0,0,0,0,0,0,0,0,0,0,0,0,0,0,0,0
</data>
 </layer>
 <objectgroup id="2" name="Object Layer 1">
  <object id="1" name="start" x="128" y="320">
   <point/>
  </object>
 </objectgroup>
</map>
