<?xml version="1.0" encoding="UTF-8"?>
<map version="1.11" tiledversion="1.11.2" orientation="orthogonal" renderorder="right-down" width="26" height="36" tilewidth="32" tileheight="32" infinite="0" nextlayerid="10" nextobjectid="8">
 <tileset firstgid="1" source="../../Assorted_LPC/lpc-floors/floors.tsx"/>
 <tileset firstgid="2049" source="../../Assorted_LPC/lpc-walls/walls.tsx"/>
 <tileset firstgid="8193" source="../../custom_tilesets/scene_specific/happy-turtle-gift-shop.tsx"/>
 <tileset firstgid="8385" source="../../[A]LightShadow_pipo.tsx"/>
 <tileset firstgid="8473" source="../../custom_tilesets/[A]BouncingArrows.tsx"/>
 <tileset firstgid="8593" source="../../Assorted_LPC/lpc_objectspack/Objects/Furniture/[LPC]Bar_Stools.tsx"/>
 <tileset firstgid="8601" source="../../Assorted_LPC/[LPC]tavern-furniture.tsx"/>
 <tileset firstgid="9625" source="../../Assorted_LPC/lpc_objectspack/Objects/Furniture/Countertops.tsx"/>
 <layer id="1" name="Ground &amp; BG" width="26" height="36">
  <data encoding="csv">
8195,8195,8195,8195,8195,8195,8195,8195,8195,8195,8195,8195,8195,8195,8195,8195,8195,8195,8195,8195,8195,8195,8195,8195,8195,8195,
8195,8195,8195,8195,8195,8195,8195,8195,8196,8197,8197,8197,8197,8197,8197,8197,8197,8201,8195,8195,8195,8195,8195,8195,8195,8195,
8195,8195,8195,8195,8195,8195,8196,8197,8208,6429,6430,6430,6430,6430,6430,6430,6431,8213,8197,8201,8195,8195,8195,8195,8195,8195,
8195,8195,8195,8195,8195,8196,8208,6429,6431,6493,6494,6494,6494,6494,6494,6494,6495,6429,6431,8213,8201,8195,8195,8195,8195,8195,
8195,8195,8195,8195,8196,8208,6432,6493,6495,6557,6558,6558,6558,6558,6558,6558,6559,6493,6495,6432,8213,8201,8195,8195,8195,8195,
8195,8195,8195,8196,8208,6432,6496,6557,6559,1634,1634,1634,1634,1634,1634,1634,1634,6557,6559,6496,6432,8213,8201,8195,8195,8195,
8195,8195,8195,8230,6432,6496,6560,1634,1634,1634,1634,1634,1634,1634,1634,1634,1634,1634,1634,6560,6496,6432,8239,8195,8195,8195,
8195,8195,8196,8208,6496,6560,1634,1634,1634,1634,1634,1634,1634,1634,1634,1634,1634,1634,1634,1634,6560,6496,8213,8201,8195,8195,
8195,8195,8230,6432,6560,1634,1634,1634,1634,1634,1634,1634,1634,1634,1634,1634,1634,1634,1634,1634,1634,6560,6432,8299,8195,8195,
8195,8195,8230,6496,1634,1634,1634,1634,1634,1634,1634,1634,1634,1634,1634,1634,1634,1634,1634,1634,1634,1634,6496,8299,8195,8195,
8195,8196,8208,6560,1634,1634,1634,1634,1634,1634,1634,2318,1634,1634,1634,1634,1634,1634,1634,1634,1634,1634,6560,8213,8201,8195,
8195,8230,6432,1634,1634,1634,1634,1634,1634,1634,1634,4323,1634,1634,1634,1634,1634,1634,1634,1634,1634,1634,1634,6432,8299,8195,
8195,8230,6496,1634,1634,1634,1634,1634,1634,1634,1634,4387,1634,1634,1634,1634,1634,1634,1634,1634,1634,1634,1634,6496,8299,8195,
8195,8230,6560,1634,1219,1634,1634,1634,1634,1634,1634,4451,1219,1634,1634,1634,1634,1634,1634,1634,1634,1220,1634,6560,8299,8195,
8195,8290,1187,1188,1187,1188,1187,1188,1187,1188,1187,1188,1187,1188,1187,1188,1187,1188,1187,1188,1187,1188,1187,1188,8299,8195,
8195,8290,1219,1220,1219,1220,1219,1220,1219,1220,1219,1220,1219,1220,1219,1220,1219,1220,1219,1220,1219,1220,1219,1220,8299,8195,
8195,8290,1187,1188,1187,1188,1187,1188,1187,1188,1187,1188,1187,1188,1187,1188,1187,1188,1187,1188,1187,1188,1187,1188,8299,8195,
8195,8290,1219,1220,1219,1220,1219,1220,1219,1220,1219,1220,1219,1220,1219,1220,1219,1220,1219,1220,1219,1220,1219,1220,8299,8195,
8195,8290,1187,1188,1187,1188,1187,1188,1187,1188,1187,1188,1187,1188,1187,1188,1187,1188,1187,1188,1187,1188,1187,1188,8299,8195,
8195,8290,1219,1220,1219,1220,1219,1220,1219,1220,1219,1220,1219,1220,1219,1220,1219,1220,1219,1220,1219,1220,1219,1220,8299,8195,
8195,8290,1187,1188,1187,1188,1187,1188,1187,1188,1187,1188,1187,1188,1187,1188,1187,1188,1187,1188,1187,1188,1187,1188,8299,8195,
8195,8290,1219,1220,1219,1220,1219,1220,1219,1220,1219,1220,1219,1220,1219,1220,1219,1220,1219,1220,1219,1220,1219,1220,8299,8195,
8195,8290,1187,1188,1187,1188,1187,1188,1187,1188,1187,1188,1187,1188,1187,1188,1187,1188,1187,1188,1187,1188,1187,1188,8299,8195,
8195,8290,1219,1220,1219,1220,1219,1220,1219,1220,1219,1220,1219,1220,1219,1220,1219,1220,1219,1220,1219,1220,1219,1220,8299,8195,
8195,8290,1187,1188,1187,1188,1187,1188,1187,1188,1187,1188,1187,1188,1187,1188,1187,1188,1187,1188,1187,1188,1187,1188,8299,8195,
8195,8302,1219,1220,1219,1220,1219,1220,1219,1220,1219,1220,1219,1220,1219,1220,1219,1220,1219,1220,1219,1220,1219,1220,8311,8195,
8195,8314,1187,1188,1187,1188,1187,1188,1187,1188,1187,1188,1187,1188,1187,1188,1187,1188,1187,1188,1187,1188,1187,1188,8323,8195,
8195,8326,1219,1220,1219,1220,1219,1220,1219,1220,1219,1220,1219,1220,1219,1220,1219,1220,1219,1220,1219,1220,1219,1220,8335,8195,
8195,8338,8357,8339,1187,1188,1187,1188,1187,1188,1187,1188,1187,1188,1187,1188,1187,1188,1187,1188,1187,1188,8346,8357,8347,8195,
8195,8195,8195,8351,8339,1220,1219,1220,1219,1220,1219,1220,1219,1220,1219,1220,1219,1220,1219,1220,1219,1220,8358,8195,8195,8195,
8195,8195,8195,8195,8351,8339,1187,1188,1187,1188,1187,1188,1187,1188,1187,1188,1187,1188,1187,1188,8346,8357,8358,8195,8195,8195,
8195,8195,8195,8195,8195,8351,8339,1220,1219,1220,1219,1220,1219,1220,1219,1220,1219,1220,1219,1220,8358,8195,8195,8195,8195,8195,
8195,8195,8195,8195,8195,8195,8351,8357,8357,8357,8357,8339,8258,8259,8346,8357,8357,8357,8357,8357,8358,8195,8195,8195,8195,8195,
8195,8195,8195,8195,8195,8195,8195,8195,8195,8195,8195,8351,8270,8271,8358,8195,8195,8195,8195,8195,8195,8195,8195,8195,8195,8195,
8195,8195,8195,8195,8195,8195,8195,8195,8195,8195,8195,8195,8195,8195,8195,8195,8195,8195,8195,8195,8195,8195,8195,8195,8195,8195,
8195,8195,8195,8195,8195,8195,8195,8195,8195,8195,8195,8195,8195,8195,8195,8195,8195,8195,8195,8195,8195,8195,8195,8195,8195,8195
</data>
 </layer>
 <imagelayer id="5" name="ref" offsetx="32" offsety="192">
  <image source="../../vtt-maps/happy turtle f1.png" width="768" height="864"/>
 </imagelayer>
 <layer id="6" name="ground details" width="26" height="36">
  <data encoding="csv">
0,0,0,0,0,0,0,0,0,0,0,0,0,0,0,0,0,0,0,0,0,0,0,0,0,0,
0,0,0,0,0,0,0,0,0,0,0,0,0,0,0,0,0,0,0,0,0,0,0,0,0,0,
0,0,0,0,0,0,0,0,0,0,0,0,0,0,0,0,0,0,0,0,0,0,0,0,0,0,
0,0,0,0,0,0,0,0,0,0,0,0,0,0,0,0,0,0,0,0,0,0,0,0,0,0,
0,0,0,0,0,0,0,0,0,0,0,0,0,0,0,0,0,0,0,0,0,0,0,0,0,0,
0,0,0,0,0,0,0,0,0,0,0,0,0,0,0,0,0,0,0,0,0,0,0,0,0,0,
0,0,0,0,0,0,0,0,0,0,0,0,0,0,0,0,0,0,0,0,0,0,0,0,0,0,
0,0,0,0,0,0,0,0,0,0,0,0,0,0,0,0,0,0,0,0,0,0,0,0,0,0,
0,0,0,0,0,0,0,0,0,0,0,0,0,0,0,0,0,0,0,0,0,0,0,0,0,0,
0,0,0,0,0,0,0,0,0,0,0,0,0,0,0,0,0,0,0,0,0,0,0,0,0,0,
0,0,0,0,0,0,0,0,0,0,0,0,0,0,0,0,0,0,0,0,0,0,0,0,0,0,
0,0,0,0,0,0,0,0,0,0,0,0,0,0,0,0,0,0,0,0,0,0,0,0,0,0,
0,0,0,0,0,0,0,0,0,0,0,0,0,0,0,0,0,0,0,0,0,0,0,0,0,0,
0,0,0,0,0,0,0,0,0,0,0,0,0,0,0,0,0,0,0,0,0,0,0,0,0,0,
0,0,0,0,0,0,0,0,0,0,0,0,0,0,0,0,0,0,0,0,0,0,0,0,0,0,
0,0,0,0,0,0,0,9004,8940,9004,0,0,0,0,0,0,9036,8940,8940,0,0,0,0,0,0,0,
0,0,0,0,0,0,8972,9658,9659,9660,0,0,0,0,0,0,9658,9659,9660,0,0,0,0,0,0,0,
0,0,0,0,0,0,9036,0,0,0,0,0,0,0,0,0,0,0,0,0,0,0,0,0,0,0,
0,0,0,0,0,0,9036,0,0,0,0,0,0,0,0,0,9652,9653,9646,0,0,0,0,0,0,0,
0,0,0,8803,8804,0,0,9658,9659,9660,0,0,0,0,0,0,9658,9659,9660,0,0,8803,8804,0,0,0,
0,0,0,8835,8836,0,0,0,0,0,8726,8727,8728,8726,8728,0,0,0,0,0,0,8835,8836,0,0,0,
0,0,0,0,0,0,0,0,0,0,9035,9639,0,0,9629,9035,0,0,0,0,0,0,0,0,0,0,
0,0,0,0,8803,8804,0,8803,8804,0,9035,9645,0,0,9646,9035,0,8803,8804,0,8803,8804,0,0,0,0,
0,0,0,0,8835,8836,0,8835,8836,0,0,9658,9659,9659,9660,9035,0,8835,8836,0,8835,8836,0,0,0,0,
0,0,0,0,0,0,0,0,0,0,0,0,0,0,0,0,0,0,0,0,0,0,0,0,0,0,
0,0,0,0,8803,8804,0,0,8803,8804,0,0,0,8809,0,0,8803,8804,0,0,8803,8804,0,0,0,0,
0,0,0,0,8835,8836,0,0,8835,8836,0,8841,8803,8804,8905,0,8835,8836,0,0,8835,8836,0,0,0,0,
0,0,0,0,0,0,0,0,0,0,0,0,8835,8836,0,0,0,0,0,0,0,0,0,0,0,0,
0,0,0,0,0,0,0,8803,8804,0,0,0,0,0,0,0,0,8803,8804,0,0,0,0,0,0,0,
0,0,0,0,0,0,0,8835,8836,0,838,0,0,0,0,838,0,8835,8836,0,0,0,0,0,0,0,
0,0,0,0,0,0,0,0,0,0,870,0,0,0,0,870,0,0,0,0,0,0,0,0,0,0,
0,0,0,0,0,0,0,0,0,0,902,0,0,0,0,902,0,0,0,0,0,0,0,0,0,0,
0,0,0,0,0,0,0,0,0,0,0,0,0,0,0,0,0,0,0,0,0,0,0,0,0,0,
0,0,0,0,0,0,0,0,0,0,0,0,8483,8483,0,0,0,0,0,0,0,0,0,0,0,0,
0,0,0,0,0,0,0,0,0,0,0,0,0,0,0,0,0,0,0,0,0,0,0,0,0,0,
0,0,0,0,0,0,0,0,0,0,0,0,0,0,0,0,0,0,0,0,0,0,0,0,0,0
</data>
 </layer>
 <layer id="7" name="mid" width="26" height="36">
  <properties>
   <property name="z" type="int" value="0"/>
  </properties>
  <data encoding="csv">
0,0,0,0,0,0,0,0,0,0,0,0,0,0,0,0,0,0,0,0,0,0,0,0,0,0,
0,0,0,0,0,0,0,0,0,0,0,0,0,0,0,0,0,0,0,0,0,0,0,0,0,0,
0,0,0,0,0,0,0,0,0,0,0,0,0,0,0,0,0,0,0,0,0,0,0,0,0,0,
0,0,0,0,0,0,0,0,0,0,0,0,0,0,0,0,0,0,0,0,0,0,0,0,0,0,
0,0,0,0,0,0,0,0,0,0,0,0,0,0,0,0,0,0,0,0,0,0,0,0,0,0,
0,0,0,0,0,0,0,0,0,0,0,0,0,0,0,0,0,0,0,0,0,0,0,0,0,0,
0,0,0,0,0,0,0,0,0,0,0,0,0,0,0,0,0,0,0,0,0,0,0,0,0,0,
0,0,0,0,0,0,0,0,0,0,0,0,0,0,0,0,0,0,0,0,0,0,0,0,0,0,
0,0,0,0,0,0,0,0,0,0,0,0,0,0,0,0,0,0,0,0,0,0,0,0,0,0,
0,0,0,0,0,0,0,0,0,0,0,0,0,0,0,0,0,0,0,0,0,0,0,0,0,0,
0,0,0,0,0,0,0,0,0,0,0,0,0,0,0,0,0,0,0,0,0,0,0,0,0,0,
0,0,0,0,0,0,0,4322,4322,4322,4322,4322,4322,4322,4322,4322,4322,4322,4322,0,0,0,0,0,0,0,
0,0,4386,4386,0,4386,4386,4386,4386,4386,4386,4386,0,4386,4386,4386,4386,4386,4386,4386,4386,0,4386,4386,0,0,
0,0,4450,4450,0,4450,4450,4450,4450,4450,4450,4450,0,4450,4450,4450,4450,4450,4450,4450,4450,0,4450,4450,0,0,
0,0,0,0,0,0,0,0,0,0,0,0,0,0,0,0,0,0,0,0,0,0,0,0,0,0,
0,0,0,0,0,0,0,9633,9653,9654,0,0,0,0,0,0,9652,9653,9634,0,0,0,0,0,0,0,
0,0,0,0,0,0,0,9630,9655,0,0,0,0,0,0,0,0,9655,9629,9004,0,0,0,0,0,0,
0,0,0,0,0,0,0,9630,0,0,8630,8631,8632,8630,8632,0,0,0,9629,9036,0,0,0,0,0,0,
0,0,8872,8809,8809,0,0,9645,9653,9654,8662,8663,8664,8662,8664,0,0,0,0,8940,0,8872,8904,0,0,0,
0,0,8841,0,0,0,0,9003,9003,9003,8694,8695,8696,8694,8696,0,9003,9003,9003,0,0,0,0,0,0,0,
0,0,8808,8873,8873,0,0,9035,9035,9035,9003,9638,8728,8726,9637,9003,9035,9035,9035,0,0,8808,8840,0,0,0,
0,0,0,0,8872,8904,0,8872,8904,0,9003,0,0,0,0,9003,0,8872,8904,0,8872,8904,0,0,0,0,
0,0,0,0,0,0,0,0,0,0,9003,0,9653,9653,0,9003,0,0,0,0,0,0,0,0,0,0,
0,0,0,0,8808,8840,0,8808,8840,0,9035,9003,9003,9003,9003,0,0,8808,8840,0,8808,8840,0,0,0,0,
0,0,0,0,8872,8904,0,0,8872,8904,0,9035,9035,9035,9035,0,8872,8904,0,0,8872,8904,0,0,0,0,
0,0,0,0,0,0,0,0,0,0,0,0,0,0,0,0,0,0,0,0,0,0,0,0,0,0,
0,0,0,0,8808,8840,0,0,8808,8840,0,0,0,0,0,0,8808,8840,0,0,8808,8840,0,0,0,0,
0,0,0,0,0,0,0,8872,8904,0,0,0,8873,0,0,0,0,8872,8904,0,0,0,0,0,0,0,
0,0,0,0,0,0,0,0,0,0,0,0,0,0,0,0,0,0,0,0,0,0,0,0,0,0,
0,0,0,0,0,0,0,8808,8840,0,0,0,0,0,0,0,0,8808,8840,0,0,0,0,0,0,0,
0,0,0,0,0,0,0,0,0,0,0,0,0,0,0,0,0,0,0,0,0,0,0,0,0,0,
0,0,0,0,0,0,0,0,0,0,0,0,0,0,0,0,0,0,0,0,0,0,0,0,0,0,
0,0,0,0,0,0,0,0,0,0,0,0,0,0,0,0,0,0,0,0,0,0,0,0,0,0,
0,0,0,0,0,0,0,0,0,0,0,0,0,0,0,0,0,0,0,0,0,0,0,0,0,0,
0,0,0,0,0,0,0,0,0,0,0,0,0,0,0,0,0,0,0,0,0,0,0,0,0,0,
0,0,0,0,0,0,0,0,0,0,0,0,0,0,0,0,0,0,0,0,0,0,0,0,0,0
</data>
 </layer>
 <layer id="2" name="Foreground 1" width="26" height="36">
  <properties>
   <property name="z" type="int" value="3"/>
  </properties>
  <data encoding="csv">
0,0,0,0,0,0,0,0,0,0,0,0,0,0,0,0,0,0,0,0,0,0,0,0,0,0,
0,0,0,0,0,0,0,0,0,0,0,0,0,0,0,0,0,0,0,0,0,0,0,0,0,0,
0,0,0,0,0,0,0,0,0,0,0,0,0,0,0,0,0,0,0,0,0,0,0,0,0,0,
0,0,0,0,0,0,0,0,0,0,0,0,0,0,0,0,0,0,0,0,0,0,0,0,0,0,
0,0,0,0,0,0,0,0,0,0,0,0,0,0,0,0,0,0,0,0,0,0,0,0,0,0,
0,0,0,0,0,0,0,0,0,0,0,0,0,0,0,0,0,0,0,0,0,0,0,0,0,0,
0,0,0,0,0,0,0,0,0,0,0,0,0,0,0,0,0,0,0,0,0,0,0,0,0,0,
0,0,0,0,0,0,0,0,0,0,0,0,0,0,0,0,0,0,0,0,0,0,0,0,0,0,
0,0,0,0,0,0,0,0,0,0,0,0,0,0,0,0,0,0,0,0,0,0,0,0,0,0,
0,0,0,0,0,0,0,0,0,0,0,0,0,0,0,0,0,0,0,0,0,0,0,0,0,0,
0,0,0,2317,2318,2318,2318,2318,2318,2318,2318,2318,2318,2318,2318,2318,2318,2318,2318,2318,2318,2318,2319,0,0,0,
0,0,4322,4322,4322,4322,4322,4322,4322,4322,8602,4322,4322,8601,8602,8601,4322,4322,4322,4322,4322,4322,4322,4322,0,0,
0,0,0,0,8398,0,0,0,0,0,8634,0,8398,8633,8634,8633,0,0,0,0,0,8398,0,0,0,0,
0,0,0,0,0,0,0,0,0,0,8698,0,0,8697,8698,8697,0,0,0,0,0,0,0,0,0,0,
0,0,0,0,0,0,0,0,0,0,8862,0,0,8639,8639,8829,0,0,0,0,0,0,0,0,0,0,
0,0,0,0,0,0,0,0,0,0,8862,0,0,8639,8639,8829,0,0,0,0,0,0,0,0,0,0,
0,0,0,0,0,0,0,0,0,0,8862,0,0,8639,8639,8829,0,0,0,0,0,0,0,0,0,0,
0,0,0,0,0,0,0,0,0,0,0,0,0,0,0,0,0,0,0,0,0,0,0,0,0,0,
0,0,0,0,0,0,0,0,0,0,0,0,0,0,0,0,0,0,0,0,0,0,0,0,0,0,
0,0,0,0,0,0,0,0,0,0,0,0,0,0,0,0,0,0,0,0,0,0,0,0,0,0,
0,0,0,0,0,0,0,0,0,0,0,0,0,0,0,0,0,0,0,0,0,0,0,0,0,0,
0,0,0,0,0,0,0,0,0,0,0,0,0,0,0,0,0,0,0,0,0,0,0,0,0,0,
0,0,0,0,0,0,0,0,0,0,0,0,0,0,0,0,0,0,0,0,0,0,0,0,0,0,
0,0,0,0,0,0,0,0,0,0,0,0,0,0,0,0,0,0,0,0,0,0,0,0,0,0,
0,0,0,0,0,0,0,0,0,0,0,0,0,0,0,0,0,0,0,0,0,0,0,0,0,0,
0,0,0,0,0,0,0,0,0,0,0,0,0,0,0,0,0,0,0,0,0,0,0,0,0,0,
0,0,0,0,0,0,0,0,0,0,0,0,0,0,0,0,0,0,0,0,0,0,0,0,0,0,
0,0,0,0,0,0,0,0,0,0,0,0,0,0,0,0,0,0,0,0,0,0,0,0,0,0,
0,0,0,0,0,0,0,0,0,0,0,0,0,0,0,0,0,0,0,0,0,0,0,0,0,0,
0,0,0,0,0,0,0,0,0,0,0,0,0,0,0,0,0,0,0,0,0,0,0,0,0,0,
0,0,0,0,0,0,0,0,0,0,0,0,0,0,0,0,0,0,0,0,0,0,0,0,0,0,
0,0,0,0,0,0,0,0,0,0,0,0,0,0,0,0,0,0,0,0,0,0,0,0,0,0,
0,0,0,0,0,0,0,0,0,0,0,0,0,0,0,0,0,0,0,0,0,0,0,0,0,0,
0,0,0,0,0,0,0,0,0,0,0,0,0,0,0,0,0,0,0,0,0,0,0,0,0,0,
0,0,0,0,0,0,0,0,0,0,0,0,0,0,0,0,0,0,0,0,0,0,0,0,0,0,
0,0,0,0,0,0,0,0,0,0,0,0,0,0,0,0,0,0,0,0,0,0,0,0,0,0
</data>
 </layer>
 <layer id="8" name="stairs" width="26" height="36">
  <data encoding="csv">
0,0,0,0,0,0,0,0,0,0,0,0,0,0,0,0,0,0,0,0,0,0,0,0,0,0,
0,0,0,0,0,0,0,0,0,0,0,0,0,0,0,0,0,0,0,0,0,0,0,0,0,0,
0,0,0,0,0,0,0,0,0,0,0,0,0,0,0,0,0,0,0,0,0,0,0,0,0,0,
0,0,0,0,0,0,0,0,0,0,0,0,0,0,0,0,0,0,0,0,0,0,0,0,0,0,
0,0,0,0,0,0,0,0,0,0,0,0,0,0,0,0,0,0,0,0,0,0,0,0,0,0,
0,0,0,0,0,0,0,0,0,0,0,0,0,0,0,0,0,0,0,0,0,0,0,0,0,0,
0,0,0,0,0,0,0,0,0,0,0,0,0,0,0,0,0,0,0,0,0,0,0,0,0,0,
0,0,0,0,0,0,0,0,0,0,0,0,0,0,0,0,0,0,0,0,0,0,0,0,0,0,
0,0,0,0,0,0,0,0,0,0,0,0,0,0,0,0,0,0,0,0,0,0,0,0,0,0,
0,0,0,0,0,0,0,0,0,0,0,0,0,0,0,0,0,0,0,0,0,0,0,0,0,0,
0,0,0,0,0,0,0,0,0,0,0,0,0,0,0,0,0,0,0,0,0,0,0,0,0,0,
0,0,8824,8824,0,0,0,0,0,0,0,0,0,0,0,0,0,0,0,0,0,0,8824,8824,0,0,
0,0,8822,8823,0,0,0,0,0,0,0,0,0,0,0,0,0,0,0,0,0,0,8821,8822,0,0,
0,0,8822,8823,0,0,0,0,0,0,0,0,0,0,0,0,0,0,0,0,0,0,8821,8822,0,0,
0,0,8822,8823,0,0,0,0,0,0,0,0,0,0,0,0,0,0,0,0,0,0,8821,8822,0,0,
0,0,8822,8823,0,0,0,0,0,0,0,0,0,0,0,0,0,0,0,0,0,0,8821,8822,0,0,
0,0,0,0,0,0,0,0,0,0,0,0,0,0,0,0,0,0,0,0,0,0,0,0,0,0,
0,0,0,0,0,0,0,0,0,0,0,0,0,0,0,0,0,0,0,0,0,0,0,0,0,0,
0,0,0,0,0,0,0,0,0,0,0,0,0,0,0,0,0,0,0,0,0,0,0,0,0,0,
0,0,0,0,0,0,0,0,0,0,0,0,0,0,0,0,0,0,0,0,0,0,0,0,0,0,
0,0,0,0,0,0,0,0,0,0,0,0,0,0,0,0,0,0,0,0,0,0,0,0,0,0,
0,0,0,0,0,0,0,0,0,0,0,0,0,0,0,0,0,0,0,0,0,0,0,0,0,0,
0,0,0,0,0,0,0,0,0,0,0,0,0,0,0,0,0,0,0,0,0,0,0,0,0,0,
0,0,0,0,0,0,0,0,0,0,0,0,0,0,0,0,0,0,0,0,0,0,0,0,0,0,
0,0,0,0,0,0,0,0,0,0,0,0,0,0,0,0,0,0,0,0,0,0,0,0,0,0,
0,0,0,0,0,0,0,0,0,0,0,0,0,0,0,0,0,0,0,0,0,0,0,0,0,0,
0,0,0,0,0,0,0,0,0,0,0,0,0,0,0,0,0,0,0,0,0,0,0,0,0,0,
0,0,0,0,0,0,0,0,0,0,0,0,0,0,0,0,0,0,0,0,0,0,0,0,0,0,
0,0,0,0,0,0,0,0,0,0,0,0,0,0,0,0,0,0,0,0,0,0,0,0,0,0,
0,0,0,0,0,0,0,0,0,0,0,0,0,0,0,0,0,0,0,0,0,0,0,0,0,0,
0,0,0,0,0,0,0,0,0,0,0,0,0,0,0,0,0,0,0,0,0,0,0,0,0,0,
0,0,0,0,0,0,0,0,0,0,0,0,0,0,0,0,0,0,0,0,0,0,0,0,0,0,
0,0,0,0,0,0,0,0,0,0,0,0,0,0,0,0,0,0,0,0,0,0,0,0,0,0,
0,0,0,0,0,0,0,0,0,0,0,0,0,0,0,0,0,0,0,0,0,0,0,0,0,0,
0,0,0,0,0,0,0,0,0,0,0,0,0,0,0,0,0,0,0,0,0,0,0,0,0,0,
0,0,0,0,0,0,0,0,0,0,0,0,0,0,0,0,0,0,0,0,0,0,0,0,0,0
</data>
 </layer>
 <layer id="9" name="stair rails" width="26" height="36">
  <data encoding="csv">
0,0,0,0,0,0,0,0,0,0,0,0,0,0,0,0,0,0,0,0,0,0,0,0,0,0,
0,0,0,0,0,0,0,0,0,0,0,0,0,0,0,0,0,0,0,0,0,0,0,0,0,0,
0,0,0,0,0,0,0,0,0,0,0,0,0,0,0,0,0,0,0,0,0,0,0,0,0,0,
0,0,0,0,0,0,0,0,0,0,0,0,0,0,0,0,0,0,0,0,0,0,0,0,0,0,
0,0,0,0,0,0,0,0,0,0,0,0,0,0,0,0,0,0,0,0,0,0,0,0,0,0,
0,0,0,0,0,0,0,0,0,0,0,0,0,0,0,0,0,0,0,0,0,0,0,0,0,0,
0,0,0,0,0,0,0,0,0,0,0,0,0,0,0,0,0,0,0,0,0,0,0,0,0,0,
0,0,0,0,0,0,0,0,0,0,0,0,0,0,0,0,0,0,0,0,0,0,0,0,0,0,
0,0,0,0,0,0,0,0,0,0,0,0,0,0,0,0,0,0,0,0,0,0,0,0,0,0,
0,0,0,0,0,0,0,0,0,0,0,0,0,0,0,0,0,0,0,0,0,0,0,0,0,0,
0,0,0,0,0,0,0,0,0,0,0,0,0,0,0,0,0,0,0,0,0,0,0,0,0,0,
0,0,8548,8848,0,0,0,0,0,0,0,0,0,0,0,0,0,0,0,0,0,0,8849,8548,0,0,
0,0,8888,8884,0,0,0,0,0,0,0,0,0,0,0,0,0,0,0,0,0,0,8882,8887,0,0,
0,0,8888,8884,0,0,0,0,0,0,0,0,0,0,0,0,0,0,0,0,0,0,8882,8887,0,0,
0,0,8888,8884,0,0,0,0,0,0,0,0,0,0,0,0,0,0,0,0,0,0,8882,8887,0,0,
0,0,8888,8912,8816,0,0,0,0,0,0,0,0,0,0,0,0,0,0,0,0,8817,8913,8887,0,0,
0,0,0,0,0,0,0,0,0,0,0,0,0,0,0,0,0,0,0,0,0,0,0,0,0,0,
0,0,0,0,0,0,0,0,0,0,0,0,0,0,0,0,0,0,0,0,0,0,0,0,0,0,
0,0,0,0,0,0,0,0,0,0,0,0,0,0,0,0,0,0,0,0,0,0,0,0,0,0,
0,0,0,0,0,0,0,0,0,0,0,0,0,0,0,0,0,0,0,0,0,0,0,0,0,0,
0,0,0,0,0,0,0,0,0,0,0,0,0,0,0,0,0,0,0,0,0,0,0,0,0,0,
0,0,0,0,0,0,0,0,0,0,0,0,0,0,0,0,0,0,0,0,0,0,0,0,0,0,
0,0,0,0,0,0,0,0,0,0,0,0,0,0,0,0,0,0,0,0,0,0,0,0,0,0,
0,0,0,0,0,0,0,0,0,0,0,0,0,0,0,0,0,0,0,0,0,0,0,0,0,0,
0,0,0,0,0,0,0,0,0,0,0,0,0,0,0,0,0,0,0,0,0,0,0,0,0,0,
0,0,0,0,0,0,0,0,0,0,0,0,0,0,0,0,0,0,0,0,0,0,0,0,0,0,
0,0,0,0,0,0,0,0,0,0,0,0,0,0,0,0,0,0,0,0,0,0,0,0,0,0,
0,0,0,0,0,0,0,0,0,0,0,0,0,0,0,0,0,0,0,0,0,0,0,0,0,0,
0,0,0,0,0,0,0,0,0,0,0,0,0,0,0,0,0,0,0,0,0,0,0,0,0,0,
0,0,0,0,0,0,0,0,0,0,0,0,0,0,0,0,0,0,0,0,0,0,0,0,0,0,
0,0,0,0,0,0,0,0,0,0,0,0,0,0,0,0,0,0,0,0,0,0,0,0,0,0,
0,0,0,0,0,0,0,0,0,0,0,0,0,0,0,0,0,0,0,0,0,0,0,0,0,0,
0,0,0,0,0,0,0,0,0,0,0,0,0,0,0,0,0,0,0,0,0,0,0,0,0,0,
0,0,0,0,0,0,0,0,0,0,0,0,0,0,0,0,0,0,0,0,0,0,0,0,0,0,
0,0,0,0,0,0,0,0,0,0,0,0,0,0,0,0,0,0,0,0,0,0,0,0,0,0,
0,0,0,0,0,0,0,0,0,0,0,0,0,0,0,0,0,0,0,0,0,0,0,0,0,0
</data>
 </layer>
 <objectgroup id="3" name="Object Layer 1">
  <object id="1" name="exit-s" x="384" y="1056" width="64" height="32">
   <properties>
    <property name="dest" value="ht-gift-shop"/>
    <property name="destDir" value="u"/>
    <property name="destPoint" value="to-ht-main"/>
    <property name="dir" value="u"/>
   </properties>
  </object>
  <object id="2" name="floor-up-w" x="64" y="352" width="64" height="32">
   <properties>
    <property name="dest" value="ht-f2"/>
    <property name="destDir" value="d"/>
    <property name="destPoint" value="floor-down-w"/>
   </properties>
  </object>
  <object id="3" name="floor-up-e" x="704" y="352" width="64" height="32">
   <properties>
    <property name="dest" value="ht-f2"/>
    <property name="destDir" value="d"/>
    <property name="destPoint" value="floor-down-e"/>
   </properties>
  </object>
  <object id="4" name="Nortle" x="384" y="672">
   <point/>
  </object>
  <object id="5" name="Leayonadas 'Lee' Rachiilstar" x="544" y="544">
   <point/>
  </object>
  <object id="6" name="Elryn Podith" x="256" y="544">
   <point/>
  </object>
  <object id="7" name="waitress1" x="160" y="544">
   <point/>
  </object>
 </objectgroup>
</map>
