<?xml version="1.0" encoding="UTF-8"?>
<map version="1.11" tiledversion="1.11.2" orientation="orthogonal" renderorder="right-down" width="17" height="15" tilewidth="32" tileheight="32" infinite="0" nextlayerid="10" nextobjectid="28">
 <tileset firstgid="1" source="../Assorted_LPC/lpc-walls/walls.tsx"/>
 <tileset firstgid="6145" source="../[A]LightShadow_pipo.tsx"/>
 <tileset firstgid="6233" source="../Assorted_LPC/lpc-floors/floors.tsx"/>
 <tileset firstgid="8281" source="../Assorted_LPC/lpc_objectspack/Objects/Furniture/Countertops.tsx"/>
 <tileset firstgid="8317" source="../[Base]BaseChip_pipo.tsx"/>
 <tileset firstgid="9317" source="../Assorted_LPC/wooden_stairs/[LPC]WoodenStairs.tsx"/>
 <tileset firstgid="10913" source="../custom_tilesets/[Somewhere]Ground.tsx"/>
 <tileset firstgid="11001" source="../[Town]VictorianDoorsWindows_LPC.tsx"/>
 <imagelayer id="3" name="ref" visible="0" offsetx="32" offsety="32">
  <image source="../vtt-maps/Interiors/cobbler.webp" width="448" height="320"/>
 </imagelayer>
 <layer id="1" name="bg" width="17" height="15">
  <data encoding="csv">
0,0,0,0,0,0,0,0,0,0,0,0,0,0,0,0,0,
0,0,0,0,0,0,3210,3210,3210,3210,3210,0,1689,1690,1690,1691,0,
0,0,0,0,0,0,3274,3274,3274,3274,3274,0,1753,1754,1754,1755,0,
0,0,0,0,0,0,3338,3338,3338,3338,3338,0,1817,1818,1818,1819,0,
0,0,0,0,0,0,7525,7525,7525,7525,7525,0,7525,7525,7525,7525,0,
0,0,0,0,0,0,7525,7525,7525,7525,7525,3212,7525,7525,7525,7525,0,
0,3210,3210,3210,3210,3211,7525,7525,7525,7525,7525,3276,7525,7525,7525,7525,0,
0,3274,3275,10994,3273,3275,7525,7525,7525,7525,7525,3340,7525,7525,7525,7525,0,
0,3338,3339,7525,3337,3339,7525,7525,7525,7525,7525,7525,7525,4597,4604,4607,0,
0,7525,7525,7525,7525,7525,7525,7525,7525,7525,7525,7525,7525,4661,4668,7525,0,
0,7525,7525,7525,7525,7525,7525,7525,7525,7525,7525,7525,0,4725,4732,7525,0,
0,7525,7525,7525,7525,7525,7525,7525,7525,7525,7525,7525,0,7490,7490,7426,0,
0,7525,7525,7525,7525,7525,7525,7525,7525,7525,7525,7525,0,7490,7490,7490,0,
0,7525,7525,7525,7525,7525,7525,7525,7525,7525,7525,7525,0,7490,7490,7426,0,
0,0,0,0,0,0,0,0,0,0,0,0,0,0,0,0,0
</data>
 </layer>
 <layer id="6" name="Ground Details" width="17" height="15">
  <data encoding="csv">
0,0,0,0,0,0,0,0,0,0,0,0,0,0,0,0,0,
0,0,0,0,0,0,0,0,0,0,0,0,0,0,0,0,0,
0,0,0,0,0,0,0,0,0,0,0,0,0,0,0,0,0,
0,0,0,0,0,0,0,0,0,0,0,0,0,0,0,0,0,
0,0,0,0,0,0,0,0,6175,6175,6175,0,0,0,0,0,0,
0,0,0,0,0,0,0,0,0,0,0,0,0,0,0,0,0,
0,0,0,0,0,0,0,0,0,0,0,0,0,0,0,0,0,
0,0,0,0,0,0,0,0,0,0,0,0,0,0,0,0,0,
0,0,0,0,0,0,0,0,0,0,0,0,0,0,0,0,0,
0,0,0,0,0,0,0,0,0,0,0,0,0,0,0,0,0,
0,0,0,0,0,0,0,0,0,0,0,0,0,0,11371,0,0,
0,0,0,0,0,0,0,0,0,0,0,0,0,6153,6153,0,0,
0,6182,0,0,0,0,0,0,0,0,0,0,0,6171,6176,0,0,
0,0,0,0,0,0,0,9192,0,0,0,0,0,6154,6184,0,0,
0,0,0,0,0,0,0,0,0,0,0,0,0,0,0,0,0
</data>
 </layer>
 <layer id="9" name="mid" width="17" height="15">
  <properties>
   <property name="z" type="int" value="0"/>
  </properties>
  <data encoding="csv">
0,0,0,0,0,0,0,0,0,0,0,0,0,0,0,0,0,
0,0,0,0,0,0,0,0,0,0,0,0,0,0,0,0,0,
0,0,0,0,0,0,0,0,0,0,0,0,0,0,0,0,0,
0,0,0,0,0,0,0,0,8294,0,8293,0,0,0,0,0,0,
0,0,0,0,0,0,0,0,8286,0,8285,0,0,0,0,0,0,
0,0,0,0,0,0,0,0,8286,0,8285,0,0,0,0,0,0,
0,0,11179,11180,11181,0,0,0,8286,0,8285,0,0,0,0,0,0,
0,0,11211,11212,11213,0,0,0,8300,0,8299,0,0,0,0,0,0,
0,0,11115,11116,11117,0,0,0,8306,0,8305,0,0,4597,11435,11436,0,
0,0,0,0,0,0,0,0,0,0,0,0,0,4661,11467,11468,0,
0,0,0,0,0,0,0,0,0,0,0,8293,0,9623,9624,0,0,
0,0,0,0,0,0,0,0,0,0,0,8285,0,9661,9662,0,0,
0,8308,8309,8309,8309,8309,8309,8309,8309,8309,8310,8302,0,0,0,9697,0,
0,4513,4514,4514,4514,4514,4514,4514,4514,4514,4514,4515,0,0,0,9735,0,
0,0,0,0,0,0,0,0,0,0,0,0,0,0,0,0,0
</data>
 </layer>
 <layer id="2" name="foreground" width="17" height="15">
  <properties>
   <property name="z" type="int" value="1"/>
  </properties>
  <data encoding="csv">
0,0,0,0,0,391,582,582,582,582,582,135,582,582,582,582,390,
0,0,0,0,0,519,0,0,0,0,0,328,0,0,0,0,517,
0,0,0,0,0,519,0,0,0,0,0,328,0,0,0,0,517,
0,0,0,0,0,519,0,0,0,0,0,328,0,0,0,0,517,
0,0,0,0,0,519,0,0,0,0,0,392,0,0,0,0,517,
391,582,582,582,582,583,0,0,0,0,0,0,0,0,0,0,517,
519,0,0,0,0,0,0,0,0,0,0,0,264,0,0,0,517,
519,0,0,6222,0,0,0,0,0,0,0,0,325,262,262,262,134,
519,0,0,6230,0,0,0,0,0,0,0,0,328,0,0,0,517,
519,0,0,0,0,0,0,0,0,0,0,0,328,0,0,0,517,
519,0,0,0,0,0,0,0,0,0,0,0,328,0,0,0,517,
325,0,0,0,0,0,0,0,0,0,0,0,325,0,0,0,325,
1688,0,0,0,0,0,0,0,0,0,0,0,1688,0,0,0,1688,
1752,0,0,0,0,0,0,0,0,0,0,0,1752,0,0,0,1752,
1816,1106,1106,1106,1106,1106,1106,1106,1106,1106,1106,1106,1816,1106,1106,1106,1816
</data>
 </layer>
 <layer id="4" name="shadows" width="17" height="15">
  <data encoding="csv">
0,0,0,0,0,0,0,0,0,0,0,0,0,0,0,0,0,
0,0,0,0,0,0,6152,0,0,0,6159,0,6152,0,0,6159,0,
0,0,0,0,0,0,6152,0,0,0,6159,0,6152,0,0,6159,0,
0,0,0,0,0,0,6152,0,0,0,0,0,6152,0,0,6159,0,
0,0,0,0,0,0,6174,6175,0,0,0,0,6174,6175,6175,6176,0,
0,0,0,0,0,0,6182,0,0,0,0,0,6182,0,0,6184,0,
0,0,0,0,0,0,6182,0,0,0,0,0,0,0,0,6184,0,
0,0,0,6200,0,0,6182,0,0,0,0,0,0,0,0,0,0,
0,0,0,6200,0,0,6182,0,0,0,0,6175,0,0,0,0,0,
0,6174,6170,0,6177,6175,6181,0,0,0,0,6186,0,0,0,6184,0,
0,6182,0,0,0,0,0,0,0,0,0,0,0,0,0,6200,0,
6152,6182,0,0,0,0,0,0,0,0,0,0,0,0,0,6176,6159,
6152,0,0,0,0,0,0,0,0,0,0,0,0,0,0,6184,6159,
6152,6152,0,0,0,0,0,0,0,0,0,6159,0,0,0,6192,6159,
6152,6152,0,0,0,0,0,0,0,0,0,6159,0,6152,0,6159,6159
</data>
 </layer>
 <objectgroup id="7" name="Object Layer 1">
  <object id="1" name="exit-w" x="96" y="224" width="32" height="32">
   <properties>
    <property name="dest" value="somewhere-district-2"/>
    <property name="destDir" value="u"/>
    <property name="destX" type="float" value="34"/>
    <property name="destY" type="float" value="69"/>
   </properties>
  </object>
  <object id="16" name="start" x="112" y="304">
   <point/>
  </object>
  <object id="17" name="bowuf" x="320" y="384">
   <point/>
  </object>
  <object id="3" x="0" y="256" width="32" height="224">
   <properties>
    <property name="collision" type="bool" value="true"/>
   </properties>
  </object>
  <object id="4" x="352" y="128" width="32" height="128">
   <properties>
    <property name="collision" type="bool" value="true"/>
   </properties>
  </object>
  <object id="5" x="32" y="224" width="64" height="64">
   <properties>
    <property name="collision" type="bool" value="true"/>
   </properties>
  </object>
  <object id="6" x="512" y="64" width="32" height="416">
   <properties>
    <property name="collision" type="bool" value="true"/>
   </properties>
  </object>
  <object id="9" x="32" y="448" width="480" height="32">
   <properties>
    <property name="collision" type="bool" value="true"/>
   </properties>
  </object>
  <object id="14" x="256" y="96" width="26" height="180">
   <properties>
    <property name="collision" type="bool" value="true"/>
   </properties>
  </object>
  <object id="15" x="160" y="96" width="32" height="128">
   <properties>
    <property name="collision" type="bool" value="true"/>
   </properties>
  </object>
  <object id="18" x="192" y="96" width="320" height="32">
   <properties>
    <property name="collision" type="bool" value="true"/>
   </properties>
  </object>
  <object id="19" x="480" y="352">
   <properties>
    <property name="collision" type="bool" value="true"/>
   </properties>
   <polygon points="0,0 0,-32 -64,-32"/>
  </object>
  <object id="20" x="128" y="224" width="64" height="64">
   <properties>
    <property name="collision" type="bool" value="true"/>
   </properties>
  </object>
  <object id="22" x="326" y="96" width="26" height="180">
   <properties>
    <property name="collision" type="bool" value="true"/>
   </properties>
  </object>
  <object id="23" x="384" y="302" width="32" height="146">
   <properties>
    <property name="collision" type="bool" value="true"/>
   </properties>
  </object>
  <object id="24" x="416" y="384" width="64" height="64">
   <properties>
    <property name="collision" type="bool" value="true"/>
   </properties>
  </object>
  <object id="25" x="32" y="416" width="352" height="32">
   <properties>
    <property name="collision" type="bool" value="true"/>
   </properties>
  </object>
  <object id="26" x="358.333" y="312.667" width="26" height="96">
   <properties>
    <property name="collision" type="bool" value="true"/>
   </properties>
  </object>
  <object id="27" x="480" y="384">
   <properties>
    <property name="collision" type="bool" value="true"/>
   </properties>
   <polygon points="0,0 -64,-32 -64,0"/>
  </object>
 </objectgroup>
</map>
