<?xml version="1.0" encoding="UTF-8"?>
<map version="1.11" tiledversion="1.11.2" orientation="orthogonal" renderorder="right-down" width="20" height="24" tilewidth="32" tileheight="32" infinite="0" nextlayerid="9" nextobjectid="19">
 <tileset firstgid="1" source="../Assorted_LPC/lpc-walls/walls.tsx"/>
 <tileset firstgid="6145" source="../Assorted_LPC/lpc-floors/floors.tsx"/>
 <tileset firstgid="8193" source="../[Base]BaseChip_pipo.tsx"/>
 <tileset firstgid="9193" source="../Assorted_LPC/lpc_objectspack/Objects/Furniture/[LPC]Chairs_Dining.tsx"/>
 <imagelayer id="6" name="ref" visible="0" offsetx="-1024" offsety="-1504">
  <image source="../vtt-maps/District 1.webp" width="1952" height="2144"/>
 </imagelayer>
 <layer id="1" name="bg" width="20" height="24">
  <data encoding="csv">
0,0,0,0,0,0,0,0,0,0,0,0,0,0,0,0,0,0,0,0,
0,0,0,0,0,0,0,0,0,3394,3394,3394,3394,3394,3394,3394,3394,3394,0,0,
0,0,0,0,0,0,0,0,0,3458,3458,3458,3458,3458,3458,3458,3458,3458,0,0,
0,0,0,0,0,0,0,0,0,3522,3522,3522,3522,3522,3522,3522,3522,3522,0,0,
0,0,0,0,0,0,0,0,0,7403,7403,7403,7403,7403,7403,7403,7403,7403,0,0,
0,0,0,0,0,0,0,0,0,7403,7403,7403,7403,7403,7403,7403,7403,7403,0,0,
0,0,0,0,0,0,0,0,0,7403,7403,7403,7403,7403,7403,7403,7403,7403,0,0,
0,0,8033,8033,0,0,0,0,0,7403,7403,7403,7403,7403,7403,7403,7403,7403,0,0,
0,0,8033,8033,0,0,0,0,0,7403,7403,7403,7403,7403,7403,7403,7403,7403,0,0,
0,7403,7403,7403,7403,7403,7403,7403,7403,7403,7403,7403,7403,7403,7403,7403,7403,7403,0,0,
0,7403,7403,7403,7403,7403,7403,7403,7403,7403,7403,7403,7403,7403,7403,7403,7403,7403,0,0,
0,7403,7403,7403,7403,7403,7403,7403,7403,7403,7403,7403,7403,7403,7403,7403,7403,7403,0,0,
0,7403,7403,7403,7403,7403,7403,7403,7403,7403,7403,7403,7403,7403,7403,7403,7403,7403,0,0,
0,7403,7403,7403,7403,7403,7403,7403,7403,7403,7403,7403,7403,7403,7403,7403,7403,7403,0,0,
486,486,486,486,486,486,486,486,486,0,7403,7403,7403,7403,0,7403,7403,7403,0,0,
0,0,0,0,0,0,0,0,0,0,7403,7403,7403,7403,0,7403,7403,7403,0,0,
0,0,0,0,0,0,0,0,0,0,7403,7403,7403,7403,0,7403,7403,7403,0,0,
0,0,0,0,0,0,0,0,0,0,7403,7403,7403,7403,0,7403,7403,7403,0,0,
0,0,0,0,0,0,0,0,0,0,7403,7403,7403,7403,0,7403,7403,7403,0,0,
0,0,0,0,0,0,0,0,0,0,0,0,0,0,0,7403,7403,7403,0,0,
0,0,0,0,0,0,0,0,0,0,0,7403,7403,7403,0,7403,7403,7403,0,0,
0,0,0,0,0,0,0,0,0,0,0,7403,7403,7403,7403,7403,7403,7403,0,0,
0,0,0,0,0,0,0,0,0,0,0,7403,7403,7403,7403,7403,7403,7403,0,0,
0,0,0,0,0,0,0,0,0,0,0,486,486,486,486,486,486,486,0,0
</data>
 </layer>
 <layer id="7" name="bg2" width="20" height="24">
  <data encoding="csv">
0,0,0,0,0,0,0,0,0,0,0,0,0,0,0,0,0,0,0,0,
0,0,0,0,0,0,0,0,0,0,0,0,0,0,0,0,0,0,0,0,
0,0,0,0,0,0,0,0,0,0,0,0,0,0,0,0,0,0,0,0,
0,0,0,0,0,0,0,0,0,0,8969,0,8969,0,8969,0,8969,0,0,0,
0,0,0,0,0,0,0,0,0,0,8977,0,8977,0,8977,0,8977,0,0,0,
0,0,0,0,0,0,0,0,0,0,0,0,0,0,0,0,0,0,0,0,
0,0,0,0,0,0,0,0,0,0,0,0,0,0,0,0,0,0,0,0,
0,0,0,0,0,0,0,0,0,0,0,0,0,0,0,0,0,0,0,0,
0,0,0,0,0,0,0,0,0,0,0,0,0,0,0,0,0,0,0,0,
0,0,0,0,0,0,0,0,0,0,0,0,0,0,0,0,0,0,0,0,
0,0,0,0,0,0,0,0,0,0,0,0,0,0,0,0,0,0,0,0,
0,0,0,0,0,0,0,0,0,0,0,0,0,0,0,0,0,0,0,0,
0,0,0,0,0,0,0,0,0,0,0,0,0,0,0,0,0,0,0,0,
0,0,0,0,0,0,0,0,0,0,0,0,0,0,0,0,0,0,0,0,
0,0,0,0,0,0,0,0,0,0,0,0,0,0,0,0,0,0,0,0,
0,0,0,0,0,0,0,0,0,0,0,0,0,0,0,0,0,0,0,0,
0,0,0,0,0,0,0,0,0,0,0,0,0,0,0,0,0,0,0,0,
0,0,0,0,0,0,0,0,0,0,0,0,0,0,0,0,0,0,0,0,
0,0,0,0,0,0,0,0,0,0,0,0,0,0,0,0,0,0,0,0,
0,0,0,0,0,0,0,0,0,0,0,0,0,0,0,0,0,0,0,0,
0,0,0,0,0,0,0,0,0,0,0,0,0,0,0,0,0,0,0,0,
0,0,0,0,0,0,0,0,0,0,0,0,0,0,0,0,0,0,0,0,
0,0,0,0,0,0,0,0,0,0,0,0,0,0,0,0,0,0,0,0,
0,0,0,0,0,0,0,0,0,0,0,0,0,0,0,0,0,0,0,0
</data>
 </layer>
 <layer id="2" name="mid" width="20" height="24">
  <properties>
   <property name="z" type="int" value="0"/>
  </properties>
  <data encoding="csv">
0,0,0,0,0,0,0,0,0,0,0,0,0,0,0,0,0,0,0,0,
0,0,0,0,0,0,0,0,0,3394,0,0,0,0,0,0,0,0,0,0,
0,0,0,0,0,0,0,0,0,3458,0,0,0,0,0,0,0,0,0,0,
0,0,0,0,0,0,0,0,0,3522,0,0,0,0,0,0,0,0,0,0,
0,0,0,0,0,0,0,0,0,0,8993,0,8993,0,8993,0,8993,0,0,0,
0,0,0,0,0,0,0,0,0,0,0,0,0,0,0,0,0,0,0,0,
0,3394,3394,3394,3394,3394,3394,3394,3394,0,0,0,0,0,0,0,0,0,0,0,
0,3459,0,0,3457,3458,3458,3458,3458,0,0,0,0,0,0,0,0,0,0,0,
0,3523,0,0,3521,3522,3522,3522,3522,3393,3394,3394,3394,3394,3394,3394,3394,3394,0,0,
0,0,0,0,0,0,0,0,0,3457,3458,3459,0,3457,3458,3458,3458,3458,0,0,
0,0,0,0,0,0,0,0,0,3521,3522,3523,0,3521,3522,3522,3522,3522,0,0,
0,0,0,0,0,0,0,0,0,0,3394,3394,3394,3394,3394,3394,3394,3394,0,0,
0,0,0,0,0,0,0,0,0,0,3458,3458,3459,0,3457,0,3457,3458,0,0,
0,0,0,0,0,0,0,0,0,0,3522,3522,3523,0,3521,0,3521,3522,0,0,
0,0,0,0,0,0,0,0,0,0,0,0,0,0,3521,0,0,0,0,0,
0,0,0,0,0,0,0,0,0,0,0,0,0,0,0,0,0,0,0,0,
0,0,0,0,0,0,0,0,0,0,0,0,0,0,0,0,0,0,0,0,
0,0,0,0,0,0,0,0,0,0,0,3394,3394,3394,0,0,0,0,0,0,
0,0,0,0,0,0,0,0,0,0,0,3458,3458,3458,3395,0,0,0,0,0,
0,0,0,0,0,0,0,0,0,0,0,3522,3522,3522,3459,0,0,0,0,0,
0,0,0,0,0,0,0,0,0,0,0,0,0,0,3523,0,0,0,0,0,
0,0,0,0,0,0,0,0,0,0,0,0,0,0,0,0,0,0,0,0,
0,0,0,0,0,0,0,0,0,0,0,0,0,0,0,0,0,0,0,0,
0,0,0,0,0,0,0,0,0,0,0,0,0,0,0,0,0,0,0,0
</data>
 </layer>
 <layer id="8" name="mid2" width="20" height="24">
  <properties>
   <property name="z" type="int" value="0"/>
  </properties>
  <data encoding="csv">
0,0,0,0,0,0,0,0,0,0,0,0,0,0,0,0,0,0,0,0,
0,0,0,0,0,0,0,0,0,0,0,0,0,0,0,0,0,0,0,0,
0,0,0,0,0,0,0,0,0,0,0,0,0,0,0,0,0,0,0,0,
0,0,0,0,0,0,0,0,0,0,0,0,0,0,0,0,0,0,0,0,
0,0,0,0,0,0,0,0,0,0,0,0,0,0,0,0,0,0,0,0,
0,0,0,0,0,0,0,0,0,0,0,0,0,0,0,0,0,0,0,0,
0,0,0,0,0,0,0,0,0,0,0,0,0,0,0,0,0,0,0,0,
0,0,0,0,0,0,0,0,0,0,0,0,0,0,0,0,0,0,0,0,
0,0,0,0,0,0,0,0,0,0,0,0,0,0,0,0,0,0,0,0,
0,9301,0,0,9301,9301,9301,9301,9301,0,0,0,0,0,0,0,0,0,0,0,
0,0,0,0,0,0,0,0,0,0,0,0,0,0,0,0,0,0,0,0,
0,0,0,0,0,0,0,0,0,0,0,0,0,0,0,0,0,0,0,0,
0,0,0,0,0,0,0,0,0,0,0,0,0,0,0,0,0,0,0,0,
0,9302,9302,9302,0,0,0,0,0,0,0,0,0,0,0,0,0,0,0,0,
0,0,0,0,0,0,0,0,0,0,0,0,0,0,0,0,0,0,0,0,
0,0,0,0,0,0,0,0,0,0,0,0,0,0,0,0,0,0,0,0,
0,0,0,0,0,0,0,0,0,0,0,0,0,0,0,0,0,0,0,0,
0,0,0,0,0,0,0,0,0,0,0,0,0,0,0,0,0,0,0,0,
0,0,0,0,0,0,0,0,0,0,0,0,0,0,0,0,0,0,0,0,
0,0,0,0,0,0,0,0,0,0,0,0,0,0,0,0,0,0,0,0,
0,0,0,0,0,0,0,0,0,0,0,0,0,0,0,0,0,0,0,0,
0,0,0,0,0,0,0,0,0,0,0,0,0,0,0,0,0,0,0,0,
0,0,0,0,0,0,0,0,0,0,0,0,0,0,0,0,0,0,0,0,
0,0,0,0,0,0,0,0,0,0,0,0,0,0,0,0,0,0,0,0
</data>
 </layer>
 <layer id="3" name="foreground" width="20" height="24">
  <properties>
   <property name="z" type="int" value="3"/>
  </properties>
  <data encoding="csv">
0,0,0,0,0,0,0,0,0,1047,1238,1238,1238,1238,1238,1238,1238,1238,1046,0,
0,0,0,0,0,0,0,0,0,1175,0,0,0,0,0,0,0,0,1173,0,
0,0,0,0,0,0,0,0,0,1175,0,0,0,0,0,0,0,0,1173,0,
0,0,0,0,0,0,0,0,0,1175,0,0,0,0,0,0,0,0,1173,0,
0,0,0,0,0,0,0,0,0,1175,0,0,0,0,0,0,0,0,1173,0,
1047,1238,1238,1238,1238,1238,1238,1238,1238,662,0,0,0,0,0,0,0,0,1173,0,
1175,0,0,0,0,0,0,0,0,984,0,0,0,0,0,0,0,0,1173,0,
1175,0,0,0,0,0,0,0,0,981,918,918,918,918,918,918,918,918,1173,0,
1175,0,0,0,0,0,0,0,0,3393,3394,3394,3394,3394,3394,3394,3394,3394,1173,0,
1175,0,0,0,0,0,0,0,0,0,0,0,0,0,0,0,0,0,1173,0,
1175,0,0,0,0,0,0,0,0,920,918,918,918,918,792,918,918,918,1173,0,
1048,0,0,0,0,0,0,0,0,984,3394,3394,3394,3394,984,3394,3394,3394,1173,0,
1300,0,0,0,0,0,0,0,0,984,0,0,0,0,984,0,0,0,1173,0,
1364,0,0,0,0,0,0,0,0,984,0,0,0,0,984,0,0,0,1173,0,
1428,0,0,0,0,0,0,0,0,984,0,0,0,0,984,0,0,0,1173,0,
1122,0,0,0,0,0,0,0,0,984,0,0,0,0,984,0,0,0,1173,0,
0,0,0,0,0,0,0,0,0,981,920,918,918,918,984,0,0,0,1173,0,
0,0,0,0,0,0,0,0,0,1300,984,0,0,0,1048,0,0,0,1173,0,
0,0,0,0,0,0,0,0,0,1364,984,0,0,0,3393,0,0,0,1173,0,
0,0,0,0,0,0,0,0,0,1428,984,0,0,0,920,0,0,0,1173,0,
0,0,0,0,0,0,0,0,0,1122,1048,0,0,0,1048,0,0,0,1173,0,
0,0,0,0,0,0,0,0,0,0,1300,0,0,0,1300,0,0,0,1173,0,
0,0,0,0,0,0,0,0,0,0,1364,0,0,0,1364,0,0,0,0,0,
0,0,0,0,0,0,0,0,0,0,1428,0,0,0,1428,0,0,0,0,0
</data>
 </layer>
 <objectgroup id="4" name="Object Layer 1">
  <object id="1" name="exit-1" x="64" y="224" width="64" height="32">
   <properties>
    <property name="dest" value="somewhere-district-1"/>
    <property name="destDir" value="u"/>
    <property name="destX" type="float" value="34"/>
    <property name="destY" type="float" value="53"/>
   </properties>
  </object>
  <object id="2" name="start" x="80" y="288">
   <point/>
  </object>
  <object id="16" name="tobbler" x="224" y="416">
   <point/>
  </object>
  <object id="17" name="dread" x="368" y="656">
   <point/>
  </object>
 </objectgroup>
 <objectgroup id="5" name="collisions">
  <object id="3" x="128" y="160" width="160" height="128">
   <properties>
    <property name="collision" type="bool" value="true"/>
   </properties>
  </object>
  <object id="4" x="0" y="160" width="64" height="128">
   <properties>
    <property name="collision" type="bool" value="true"/>
   </properties>
  </object>
  <object id="5" x="0" y="288" width="32" height="224">
   <properties>
    <property name="collision" type="bool" value="true"/>
   </properties>
  </object>
  <object id="6" x="32" y="448" width="288" height="192">
   <properties>
    <property name="collision" type="bool" value="true"/>
   </properties>
  </object>
  <object id="7" x="320" y="736" width="288" height="32">
   <properties>
    <property name="collision" type="bool" value="true"/>
   </properties>
  </object>
  <object id="8" x="576" y="0" width="32" height="736">
   <properties>
    <property name="collision" type="bool" value="true"/>
   </properties>
  </object>
  <object id="9" x="288" y="0" width="288" height="128">
   <properties>
    <property name="collision" type="bool" value="true"/>
   </properties>
  </object>
  <object id="10" x="288" y="128" width="32" height="224">
   <properties>
    <property name="collision" type="bool" value="true"/>
   </properties>
  </object>
  <object id="11" x="320" y="320" width="64" height="32">
   <properties>
    <property name="collision" type="bool" value="true"/>
   </properties>
  </object>
  <object id="12" x="416" y="320" width="160" height="32">
   <properties>
    <property name="collision" type="bool" value="true"/>
   </properties>
  </object>
  <object id="13" x="320" y="416" width="96" height="32">
   <properties>
    <property name="collision" type="bool" value="true"/>
   </properties>
  </object>
  <object id="14" x="288" y="416" width="32" height="32">
   <properties>
    <property name="collision" type="bool" value="true"/>
   </properties>
  </object>
  <object id="15" x="320" y="608" width="128" height="32">
   <properties>
    <property name="collision" type="bool" value="true"/>
   </properties>
  </object>
  <object id="18" x="320" y="640" width="32" height="96">
   <properties>
    <property name="collision" type="bool" value="true"/>
   </properties>
  </object>
 </objectgroup>
</map>
