<?xml version="1.0" encoding="UTF-8"?>
<map version="1.11" tiledversion="1.11.2" orientation="orthogonal" renderorder="right-down" width="17" height="43" tilewidth="32" tileheight="32" infinite="0" nextlayerid="10" nextobjectid="35">
 <tileset firstgid="1" source="../Assorted_LPC/lpc-walls/walls.tsx"/>
 <tileset firstgid="6145" source="../[A]LightShadow_pipo.tsx"/>
 <tileset firstgid="6233" source="../Assorted_LPC/lpc-floors/floors.tsx"/>
 <tileset firstgid="8281" source="../Assorted_LPC/lpc_objectspack/Objects/Furniture/Countertops.tsx"/>
 <tileset firstgid="8317" source="../[Base]BaseChip_pipo.tsx"/>
 <tileset firstgid="9317" source="../Assorted_LPC/wooden_stairs/[LPC]WoodenStairs.tsx"/>
 <tileset firstgid="10913" source="../[Town]VictorianMarket_LPC.tsx"/>
 <layer id="1" name="bg" width="17" height="43">
  <data encoding="csv">
0,0,0,0,0,0,0,0,0,0,0,0,0,0,0,0,0,
0,3398,3398,3398,3398,3398,3398,3398,3398,3398,3398,5130,5130,5130,0,0,0,
0,3462,3462,3462,3462,3462,3462,3462,3462,3462,3462,5194,5194,5194,0,0,0,
0,3538,3538,3538,3538,3538,3538,3538,3538,3538,3538,5258,5258,5258,0,0,0,
0,7489,7489,7489,7489,7489,7489,7489,7489,7489,7489,7489,7489,7489,0,0,0,
0,7489,7487,7489,7489,7487,7489,7489,7489,7489,7489,0,7487,7489,0,0,0,
0,7489,7489,7489,7489,7489,7489,7489,7489,7489,7487,0,7489,7487,0,0,0,
0,7489,7489,7487,7489,7487,7489,3412,7489,7489,7489,0,7489,7489,0,0,0,
0,7487,7487,7489,7489,7487,7489,3476,7489,7487,7489,0,7489,7489,5137,0,0,
1480,7487,7489,7489,7489,7489,7489,3540,7489,7489,7489,7489,7489,7489,5201,0,0,
1544,7489,7487,7489,7489,7489,7489,7489,7489,7489,7489,7489,7487,7487,5265,0,0,
1608,0,0,0,0,0,0,0,0,0,0,5267,7489,7489,7489,7489,0,
0,0,0,0,0,0,0,0,0,0,7489,7489,7487,7489,7489,7489,0,
0,0,0,0,0,0,0,0,0,0,0,0,7489,7489,7489,7489,0,
0,0,0,0,0,0,0,0,0,0,0,0,7489,7489,0,0,0,
0,0,0,0,0,0,0,0,0,0,0,0,7489,7489,0,0,0,
0,0,0,0,0,0,0,0,0,0,0,0,7487,7489,0,0,0,
0,0,0,0,0,0,0,0,0,0,0,0,7489,7489,0,0,0,
0,0,0,0,0,0,0,0,0,0,0,0,7489,7489,0,0,0,
0,0,0,0,0,0,0,0,0,0,0,0,7489,7487,0,0,0,
0,0,0,0,0,0,0,0,0,0,0,5139,7489,7489,0,0,0,
0,0,0,0,0,0,0,0,0,0,0,5203,7487,7489,0,0,0,
0,0,0,0,0,0,0,0,0,0,7489,7489,7489,7489,0,0,0,
0,0,0,0,0,0,0,0,0,0,7489,7489,7489,7489,0,0,0,
0,0,0,0,0,0,0,0,0,0,0,5203,7489,7489,0,0,0,
0,0,0,0,0,0,0,0,0,0,0,5267,7489,7487,0,0,0,
0,0,0,0,0,0,0,0,0,0,7489,7489,7489,7489,0,0,0,
0,0,0,0,0,0,0,0,0,0,0,0,7489,7489,0,0,0,
0,0,0,0,0,0,0,0,0,0,0,0,7489,7487,0,0,0,
0,0,0,0,0,0,0,0,0,0,0,0,7489,7489,0,0,0,
0,0,0,0,0,0,0,0,0,0,0,5139,7489,7489,0,0,0,
0,0,0,0,0,0,0,0,0,0,0,5203,7487,7489,5137,0,0,
0,0,0,0,0,0,0,0,0,0,0,5267,7489,7489,5201,0,0,
0,0,0,0,0,0,0,0,0,0,7489,7489,7489,7487,5265,0,0,
0,0,0,0,0,0,0,0,0,0,0,0,7489,7489,7489,6228,0,
0,0,0,0,0,0,0,0,0,0,0,0,7487,7489,7489,6228,0,
0,0,0,0,0,0,0,0,0,0,0,0,7489,7489,0,0,0,
0,0,0,0,0,0,0,0,0,0,0,4221,4223,7489,0,0,0,
0,0,0,0,0,0,0,0,0,0,0,4285,4287,7522,0,0,0,
0,0,0,0,0,0,0,0,0,0,0,4349,4351,7426,0,0,0,
0,0,0,0,0,0,0,0,0,0,0,4221,4223,7426,0,0,0,
0,0,0,0,0,0,0,0,0,0,0,0,0,0,0,0,0,
0,0,0,0,0,0,0,0,0,0,0,0,0,0,0,0,0
</data>
 </layer>
 <layer id="6" name="ground details" width="17" height="43">
  <data encoding="csv">
0,0,0,0,0,0,0,0,0,0,0,0,0,0,0,0,0,
0,0,0,0,0,0,0,0,0,0,0,0,0,0,0,0,0,
0,0,0,0,0,0,0,0,0,0,0,0,0,0,0,0,0,
0,0,0,0,0,0,0,0,0,0,0,0,0,0,0,0,0,
0,0,0,0,0,0,0,0,0,0,0,0,0,0,0,0,0,
0,0,0,0,0,0,0,0,0,0,0,0,0,0,0,0,0,
0,0,0,0,0,0,0,0,0,0,0,0,0,0,0,0,0,
0,0,0,0,0,0,0,0,0,0,0,0,0,0,0,0,0,
0,0,0,0,0,0,0,0,0,0,0,0,0,0,0,0,0,
0,0,0,0,0,0,0,0,0,0,0,0,0,0,0,0,0,
0,0,0,0,0,0,0,0,0,0,0,0,0,0,0,0,0,
0,0,0,0,0,0,0,0,0,0,0,0,6320,7068,0,0,0,
0,0,0,0,0,0,0,0,0,0,0,0,6352,7100,0,0,0,
0,0,0,0,0,0,0,0,0,0,0,0,6384,7132,0,0,0,
0,0,0,0,0,0,0,0,0,0,0,0,0,0,0,0,0,
0,0,0,0,0,0,0,0,0,0,0,0,0,0,0,0,0,
0,0,0,0,0,0,0,0,0,0,0,0,0,0,0,0,0,
0,0,0,0,0,0,0,0,0,0,0,0,0,0,0,0,0,
0,0,0,0,0,0,0,0,0,0,0,0,0,0,0,0,0,
0,0,0,0,0,0,0,0,0,0,0,0,0,0,0,0,0,
0,0,0,0,0,0,0,0,0,0,0,0,0,0,0,0,0,
0,0,0,0,0,0,0,0,0,0,0,0,0,0,0,0,0,
0,0,0,0,0,0,0,0,0,0,0,0,7154,0,0,0,0,
0,0,0,0,0,0,0,0,0,0,0,0,7186,0,0,0,0,
0,0,0,0,0,0,0,0,0,0,0,0,0,0,0,0,0,
0,0,0,0,0,0,0,0,0,0,0,0,6634,0,0,0,0,
0,0,0,0,0,0,0,0,0,0,0,0,6672,0,0,0,0,
0,0,0,0,0,0,0,0,0,0,0,0,6698,0,0,0,0,
0,0,0,0,0,0,0,0,0,0,0,0,0,0,0,0,0,
0,0,0,0,0,0,0,0,0,0,0,0,0,0,0,0,0,
0,0,0,0,0,0,0,0,0,0,0,0,0,0,0,0,0,
0,0,0,0,0,0,0,0,0,0,0,0,0,0,0,0,0,
0,0,0,0,0,0,0,0,0,0,0,0,6480,0,0,0,0,
0,0,0,0,0,0,0,0,0,0,0,0,6512,0,0,0,0,
0,0,0,0,0,0,0,0,0,0,0,0,6544,7068,0,0,0,
0,0,0,0,0,0,0,0,0,0,0,0,0,7132,0,0,0,
0,0,0,0,0,0,0,0,0,0,0,0,0,0,0,0,0,
0,0,0,0,0,0,0,0,0,0,0,0,0,0,0,0,0,
0,0,0,0,0,0,0,0,0,0,0,0,0,0,0,0,0,
0,0,0,0,0,0,0,0,0,0,0,0,0,0,0,0,0,
0,0,0,0,0,0,0,0,0,0,0,0,9621,0,0,0,0,
0,0,0,0,0,0,0,0,0,0,0,0,0,0,0,0,0,
0,0,0,0,0,0,0,0,0,0,0,0,0,0,0,0,0
</data>
 </layer>
 <layer id="9" name="mid" width="17" height="43">
  <properties>
   <property name="z" type="int" value="0"/>
  </properties>
  <data encoding="csv">
0,0,0,0,0,0,0,0,0,0,0,0,0,0,0,0,0,
0,0,0,0,0,0,0,0,0,0,0,0,0,0,0,0,0,
0,0,0,0,0,0,0,0,0,0,0,0,0,0,0,0,0,
0,0,0,0,0,0,0,0,0,0,0,0,0,0,0,0,0,
0,0,0,0,0,0,0,0,0,0,0,0,0,0,0,0,0,
0,0,0,0,0,0,0,0,0,0,0,11191,11192,0,0,0,0,
0,0,0,0,0,0,0,0,0,0,0,0,11208,0,0,0,0,
0,0,0,0,0,0,0,0,0,0,0,0,0,0,0,0,0,
0,0,0,0,0,0,0,0,0,0,0,0,0,0,0,0,0,
0,0,0,0,0,0,0,0,0,0,0,5139,0,0,0,0,0,
0,0,0,0,0,0,0,0,0,0,0,0,0,0,0,0,0,
0,0,0,0,0,0,0,0,0,0,0,0,0,0,0,0,0,
0,0,0,0,0,0,0,0,0,0,0,0,0,0,0,0,0,
0,0,0,0,0,0,0,0,0,0,0,0,0,0,0,0,0,
0,0,0,0,0,0,0,0,0,0,0,0,0,0,0,0,0,
0,0,0,0,0,0,0,0,0,0,0,0,0,0,0,0,0,
0,0,0,0,0,0,0,0,0,0,0,0,0,0,0,0,0,
0,0,0,0,0,0,0,0,0,0,0,0,0,0,0,0,0,
0,0,0,0,0,0,0,0,0,0,0,0,0,0,0,0,0,
0,0,0,0,0,0,0,0,0,0,0,0,0,0,0,0,0,
0,0,0,0,0,0,0,0,0,0,0,5139,0,0,0,0,0,
0,0,0,0,0,0,0,0,0,0,0,0,0,0,0,0,0,
0,0,0,0,0,0,0,0,0,0,0,0,0,0,0,0,0,
0,0,0,0,0,0,0,0,0,0,0,5139,0,0,0,0,0,
0,0,0,0,0,0,0,0,0,0,0,0,0,0,0,0,0,
0,0,0,0,0,0,0,0,0,0,0,0,0,0,0,0,0,
0,0,0,0,0,0,0,0,0,0,0,0,0,0,0,0,0,
0,0,0,0,0,0,0,0,0,0,0,0,0,0,0,0,0,
0,0,0,0,0,0,0,0,0,0,0,0,0,0,0,0,0,
0,0,0,0,0,0,0,0,0,0,0,0,0,0,0,0,0,
0,0,0,0,0,0,0,0,0,0,0,5139,0,0,0,0,0,
0,0,0,0,0,0,0,0,0,0,0,0,0,0,0,0,0,
0,0,0,0,0,0,0,0,0,0,0,0,0,0,0,0,0,
0,0,0,0,0,0,0,0,0,0,0,0,0,0,0,0,0,
0,0,0,0,0,0,0,0,0,0,0,0,0,0,0,0,0,
0,0,0,0,0,0,0,0,0,0,0,0,0,0,0,0,0,
0,0,0,0,0,0,0,0,0,0,0,0,0,0,0,0,0,
0,0,0,0,0,0,0,0,0,0,0,6152,0,0,0,0,0,
0,0,0,0,0,0,0,0,0,0,0,6152,9624,0,0,0,0,
0,0,0,0,0,0,0,0,0,0,0,6152,9662,0,0,0,0,
0,0,0,0,0,0,0,0,0,0,0,6152,9617,0,0,0,0,
0,0,0,0,0,0,0,0,0,0,0,0,0,0,0,0,0,
0,0,0,0,0,0,0,0,0,0,0,0,0,0,0,0,0
</data>
 </layer>
 <layer id="4" name="shadows" width="17" height="43">
  <data encoding="csv">
0,0,0,0,0,0,0,0,0,0,0,0,0,0,0,0,0,
0,6152,0,0,0,0,6159,0,6152,0,6159,0,6152,0,0,0,0,
0,6152,0,0,0,0,6159,0,6152,0,6159,0,6152,0,0,0,0,
0,6152,0,0,0,0,6159,0,6152,0,6159,0,6152,0,0,0,0,
0,6182,0,0,0,0,0,0,0,0,6159,0,6179,0,0,0,0,
0,6182,0,0,0,0,0,0,0,0,6159,0,0,0,0,0,0,
0,6182,0,0,0,0,0,0,0,0,6159,0,0,0,0,0,0,
0,6182,0,0,0,0,0,0,0,0,6159,0,6187,0,0,0,0,
0,6182,0,0,0,0,0,0,0,0,6159,0,6182,0,6159,0,0,
0,6182,0,0,0,0,0,0,0,0,6159,6152,6182,0,6159,0,0,
0,6182,0,0,0,0,0,0,0,0,6159,0,6182,0,6159,0,0,
0,0,0,0,0,0,0,0,0,0,0,0,6179,0,0,0,0,
0,0,0,0,0,0,0,0,0,0,0,0,0,0,0,0,0,
0,0,0,0,0,0,0,0,0,0,0,0,6187,0,0,0,0,
0,0,0,0,0,0,0,0,0,0,0,0,6182,0,0,0,0,
0,0,0,0,0,0,0,0,0,0,0,0,6182,0,0,0,0,
0,0,0,0,0,0,0,0,0,0,0,0,6182,0,0,0,0,
0,0,0,0,0,0,0,0,0,0,0,0,6182,0,0,0,0,
0,0,0,0,0,0,0,0,0,0,0,0,6182,0,0,0,0,
0,0,0,0,0,0,0,0,0,0,0,0,6182,0,0,0,0,
0,0,0,0,0,0,0,0,0,0,0,6152,6182,0,0,0,0,
0,0,0,0,0,0,0,0,0,0,0,0,6182,0,0,0,0,
0,0,0,0,0,0,0,0,0,0,0,0,6179,0,0,0,0,
0,0,0,0,0,0,0,0,0,0,0,6152,0,0,0,0,0,
0,0,0,0,0,0,0,0,0,0,0,0,6187,0,0,0,0,
0,0,0,0,0,0,0,0,0,0,0,0,6179,0,0,0,0,
0,0,0,0,0,0,0,0,0,0,0,0,0,0,0,0,0,
0,0,0,0,0,0,0,0,0,0,0,0,6187,0,0,0,0,
0,0,0,0,0,0,0,0,0,0,0,0,6182,0,0,0,0,
0,0,0,0,0,0,0,0,0,0,0,0,6182,0,0,0,0,
0,0,0,0,0,0,0,0,0,0,0,6152,6182,0,0,0,0,
0,0,0,0,0,0,0,0,0,0,0,0,6182,0,6159,0,0,
0,0,0,0,0,0,0,0,0,0,0,0,6179,0,6159,0,0,
0,0,0,0,0,0,0,0,0,0,0,0,0,0,6159,0,0,
0,0,0,0,0,0,0,0,0,0,0,0,6187,0,0,0,0,
0,0,0,0,0,0,0,0,0,0,0,0,6182,0,0,0,0,
0,0,0,0,0,0,0,0,0,0,0,0,0,0,0,0,0,
0,0,0,0,0,0,0,0,0,0,0,0,0,6173,0,0,0,
0,0,0,0,0,0,0,0,0,0,0,9623,0,6182,0,0,0,
0,0,0,0,0,0,0,0,0,0,0,9661,0,6159,0,0,0,
0,0,0,0,0,0,0,0,0,0,0,0,0,6159,0,0,0,
0,0,0,0,0,0,0,0,0,0,0,0,0,0,0,0,0,
0,0,0,0,0,0,0,0,0,0,0,0,0,0,0,0,0
</data>
 </layer>
 <layer id="2" name="foreground" width="17" height="43">
  <properties>
   <property name="z" type="int" value="1"/>
  </properties>
  <data encoding="csv">
427,618,618,618,618,618,618,618,618,618,618,618,618,618,426,514,514,
555,0,0,0,0,0,0,264,0,0,0,264,0,0,553,514,514,
555,0,0,0,0,0,0,328,0,0,0,328,0,0,553,514,514,
555,0,0,0,0,0,0,328,0,0,0,328,0,0,553,514,514,
555,0,0,0,0,0,0,328,0,0,0,328,0,0,553,514,514,
555,0,0,0,0,0,0,328,0,0,0,328,0,0,553,514,514,
555,0,0,0,0,0,0,392,0,0,0,328,0,0,553,514,514,
555,0,0,0,0,0,0,0,0,0,0,328,0,0,617,514,514,
361,0,0,0,0,0,0,0,0,0,391,392,0,0,6231,514,514,
1480,0,0,0,0,0,0,0,0,0,519,0,0,0,6231,514,514,
6149,0,0,0,0,0,0,0,0,0,327,455,0,0,6231,514,514,
6157,498,498,498,498,498,498,498,498,498,498,519,0,6231,489,514,514,
514,514,514,514,514,514,514,514,514,514,514,519,0,6231,553,514,514,
514,514,514,514,514,514,514,514,514,514,514,519,0,6231,553,514,514,
514,514,514,514,514,514,514,514,514,514,514,519,0,0,553,514,514,
514,514,514,514,514,514,514,514,514,514,514,519,0,0,553,514,514,
514,514,514,514,514,514,514,514,514,514,514,519,0,0,553,514,514,
514,514,514,514,514,514,514,514,514,514,514,519,0,0,553,514,514,
514,514,514,514,514,514,514,514,514,514,514,519,0,0,553,514,514,
514,514,514,514,514,514,514,514,514,514,391,583,0,0,553,514,514,
514,514,514,514,514,514,514,514,514,514,519,6153,0,0,553,514,514,
514,514,514,514,514,514,514,514,514,514,327,455,0,0,553,514,514,
514,514,514,514,514,514,514,514,514,514,391,583,0,0,553,514,514,
514,514,514,514,514,514,514,514,514,514,519,6153,0,0,553,514,514,
514,514,514,514,514,514,514,514,514,514,327,455,0,0,553,514,514,
514,514,514,514,514,514,514,514,514,514,514,519,0,0,553,514,514,
514,514,514,514,514,514,514,514,514,514,514,519,0,0,553,514,514,
514,514,514,514,514,514,514,514,514,514,514,519,0,0,553,514,514,
514,514,514,514,514,514,514,514,514,514,514,519,0,0,553,514,514,
514,514,514,514,514,514,514,514,514,514,391,583,0,0,553,514,514,
514,514,514,514,514,514,514,514,514,514,519,6153,0,0,617,514,514,
514,514,514,514,514,514,514,514,514,514,327,455,0,0,6231,514,514,
514,514,514,514,514,514,514,514,514,514,514,519,0,0,6231,514,514,
514,514,514,514,514,514,514,514,514,514,514,519,0,0,6231,514,514,
514,514,514,514,514,514,514,514,514,514,514,519,0,6231,6232,0,514,
514,514,514,514,514,514,514,514,514,514,514,519,6149,6231,6232,0,514,
514,514,514,514,514,514,514,514,514,514,391,71,263,0,497,514,514,
514,514,514,514,514,514,514,514,514,514,519,0,0,0,561,514,514,
514,514,514,514,514,514,514,514,514,514,519,9577,0,0,561,514,514,
514,514,514,514,514,514,514,514,514,514,523,9615,9620,0,561,514,514,
514,514,514,514,514,514,514,514,514,514,523,6149,6149,0,561,514,514,
514,514,514,514,514,514,514,514,514,514,331,454,454,454,326,514,514,
514,514,514,514,514,514,514,514,514,514,514,514,514,514,514,514,514
</data>
 </layer>
 <objectgroup id="7" name="Object Layer 1">
  <object id="1" name="to-dragon-room" x="320" y="384" width="32" height="32">
   <properties>
    <property name="dest" value="somewhere-d2-hotel-room-dragon"/>
    <property name="destDir" value="l"/>
    <property name="destPoint" value="exit-e"/>
   </properties>
  </object>
  <object id="16" name="start" x="432" y="392">
   <point/>
  </object>
  <object id="17" name="innkeeper" x="288" y="192">
   <point/>
  </object>
  <object id="19" name="exit-ne" x="480" y="352" width="32" height="96">
   <properties>
    <property name="dest" value="somewhere-district-2"/>
    <property name="destDir" value="r"/>
    <property name="destPoint" value="to-hotel-f2-ne"/>
   </properties>
  </object>
  <object id="26" name="exit-se" x="472" y="1088" width="32" height="64">
   <properties>
    <property name="dest" value="somewhere-district-2"/>
    <property name="destDir" value="r"/>
    <property name="destPoint" value="to-hotel-f2-se"/>
   </properties>
  </object>
  <object id="28" name="to-desert-room" x="320" y="704" width="32" height="64">
   <properties>
    <property name="dest" value="somewhere-d2-hotel-room-desert"/>
    <property name="destDir" value="l"/>
    <property name="destPoint" value="exit-e"/>
   </properties>
  </object>
  <object id="29" name="to-jungle-room" x="320" y="832" width="32" height="32">
   <properties>
    <property name="dest" value="somewhere-d2-hotel-room-jungle"/>
    <property name="destDir" value="l"/>
    <property name="destPoint" value="exit-e"/>
   </properties>
  </object>
  <object id="30" name="to-ocean-room" x="320" y="1056" width="32" height="32">
   <properties>
    <property name="dest" value="somewhere-d2-hotel-room-ocean"/>
    <property name="destDir" value="l"/>
    <property name="destPoint" value="exit-e"/>
   </properties>
  </object>
  <object id="31" name="floor-up" x="352" y="1240" width="32" height="32">
   <properties>
    <property name="dest" value="somewhere-d2-hotel-f3"/>
    <property name="destDir" value="r"/>
    <property name="destPoint" value="floor-down"/>
   </properties>
  </object>
  <object id="32" name="floor-down" x="352" y="1280" width="32" height="32">
   <properties>
    <property name="dest" value="somewhere-d2-hotel-f1"/>
    <property name="destDir" value="r"/>
    <property name="destPoint" value="floor-up"/>
   </properties>
  </object>
  <object id="4" x="320" y="1312" width="160" height="32">
   <properties>
    <property name="collision" type="bool" value="true"/>
   </properties>
  </object>
  <object id="5" x="448" y="1152" width="32" height="160">
   <properties>
    <property name="collision" type="bool" value="true"/>
   </properties>
  </object>
  <object id="6" x="448" y="448" width="32" height="640">
   <properties>
    <property name="collision" type="bool" value="true"/>
   </properties>
  </object>
  <object id="13" x="32" y="352" width="320" height="32">
   <properties>
    <property name="collision" type="bool" value="true"/>
   </properties>
  </object>
  <object id="15" x="0" y="96" width="32" height="288">
   <properties>
    <property name="collision" type="bool" value="true"/>
   </properties>
  </object>
  <object id="18" x="32" y="96" width="416" height="32">
   <properties>
    <property name="collision" type="bool" value="true"/>
   </properties>
  </object>
  <object id="20" x="352" y="128" width="32" height="256">
   <properties>
    <property name="collision" type="bool" value="true"/>
   </properties>
  </object>
  <object id="21" x="320" y="416" width="64" height="288">
   <properties>
    <property name="collision" type="bool" value="true"/>
   </properties>
  </object>
  <object id="22" x="320" y="768" width="64" height="64">
   <properties>
    <property name="collision" type="bool" value="true"/>
   </properties>
  </object>
  <object id="23" x="320" y="864" width="64" height="192">
   <properties>
    <property name="collision" type="bool" value="true"/>
   </properties>
  </object>
  <object id="24" x="320" y="1088" width="64" height="128">
   <properties>
    <property name="collision" type="bool" value="true"/>
   </properties>
  </object>
  <object id="25" x="448" y="96" width="32" height="256">
   <properties>
    <property name="collision" type="bool" value="true"/>
   </properties>
  </object>
  <object id="27" x="320" y="1216" width="32" height="96">
   <properties>
    <property name="collision" type="bool" value="true"/>
   </properties>
  </object>
  <object id="33" x="384" y="1216" width="32" height="16">
   <properties>
    <property name="collision" type="bool" value="true"/>
   </properties>
  </object>
  <object id="34" x="352" y="1278" width="64" height="2">
   <properties>
    <property name="collision" type="bool" value="true"/>
   </properties>
  </object>
 </objectgroup>
</map>
