<?xml version="1.0" encoding="UTF-8"?>
<map version="1.11" tiledversion="1.11.2" orientation="orthogonal" renderorder="right-down" width="12" height="23" tilewidth="32" tileheight="32" infinite="0" nextlayerid="8" nextobjectid="18">
 <tileset firstgid="1" source="../Assorted_LPC/lpc-walls/walls.tsx"/>
 <tileset firstgid="6145" source="../Assorted_LPC/lpc-floors/floors.tsx"/>
 <tileset firstgid="8193" source="../[A]LightShadow_pipo.tsx"/>
 <imagelayer id="6" name="ref" visible="0" offsetx="-160" offsety="-1600">
  <image source="../vtt-maps/District 1.webp" width="1952" height="2144"/>
 </imagelayer>
 <layer id="1" name="bg" width="12" height="23">
  <data encoding="csv">
0,0,0,0,0,0,0,0,0,0,0,0,
0,0,0,0,0,0,0,0,0,0,0,0,
0,1926,1926,1926,1926,1926,7399,7399,1926,1926,1926,0,
0,1990,1990,1990,1990,1990,7399,7399,1990,1990,1990,0,
0,7399,7399,7399,7399,7399,7399,7399,7399,7399,7399,0,
0,7399,7399,7399,7399,7399,7399,7399,7399,7399,7399,0,
0,7399,7399,7399,7399,7399,7399,7399,7399,7399,7399,0,
0,7399,7399,7399,7399,7399,7399,7399,7399,7399,7399,0,
0,7399,7399,7399,7399,7399,7399,7399,7399,7399,7399,0,
0,7399,7399,7399,7399,7399,7399,7399,7399,7399,7399,0,
0,7399,7399,7399,7399,7399,7399,7399,7399,7399,7399,0,
0,7399,7399,7399,7399,7399,7399,7399,7399,7399,7399,0,
0,7399,7399,7399,7399,7399,7399,7399,7399,8159,8159,0,
0,7399,7399,7399,7399,7399,7399,7399,7399,8159,8159,0,
0,7399,7399,7399,7399,7399,7399,7399,7399,8159,8159,0,
0,7399,7399,7399,7399,7399,7399,7399,7399,8159,8159,0,
0,7399,7399,7399,7399,7399,7399,7399,7399,8159,8159,0,
0,7399,7399,7399,7399,7399,7399,7399,7399,8159,8159,0,
0,7399,7399,7399,7399,7399,7399,7399,7399,8159,8159,0,
0,7399,7399,7399,7399,7399,7399,7399,7399,8159,8159,0,
0,7399,7399,7399,7399,7399,7399,7399,7399,8159,8159,0,
0,7399,7399,7399,8159,8159,8159,8159,8159,8159,8159,0,
0,7399,7399,7399,8159,8159,8159,8159,8159,8159,8159,0
</data>
 </layer>
 <layer id="7" name="bg-details" width="12" height="23">
  <data encoding="csv">
0,0,0,0,0,0,0,0,0,0,0,0,
0,0,0,0,0,0,8250,8250,0,0,0,0,
0,0,0,0,0,0,8258,8258,0,0,0,0,
0,0,0,0,0,0,0,0,0,0,0,0,
0,8202,0,0,0,8202,0,0,0,0,0,0,
0,8202,0,0,0,8202,0,0,0,0,0,0,
0,8202,0,0,0,8202,0,0,0,0,0,0,
0,0,0,0,0,0,0,0,0,0,0,0,
0,0,0,0,0,0,0,0,0,0,0,0,
0,0,0,0,0,0,0,0,0,0,0,0,
0,0,0,0,0,0,0,0,0,0,0,0,
0,0,0,8202,0,0,8202,0,0,0,0,0,
0,0,0,8202,0,0,8211,0,0,0,0,0,
0,0,0,8202,0,0,0,0,0,0,0,0,
0,0,0,8211,0,0,8194,0,0,0,0,0,
0,0,0,0,0,0,8202,0,0,0,0,0,
0,0,0,0,0,0,8202,0,0,0,0,0,
0,0,0,0,0,0,8202,0,0,0,0,0,
0,0,0,0,0,0,8202,0,0,0,0,0,
0,0,0,0,0,0,8202,0,0,0,0,0,
0,0,0,0,0,0,0,0,0,0,0,0,
0,0,0,0,0,0,0,0,0,0,0,0,
0,0,0,0,0,0,0,0,0,0,0,0
</data>
 </layer>
 <layer id="2" name="mid" width="12" height="23">
  <properties>
   <property name="z" type="int" value="0"/>
  </properties>
  <data encoding="csv">
0,0,0,0,0,0,0,0,0,0,0,0,
0,0,0,0,0,0,0,0,0,0,0,0,
0,0,0,0,0,0,0,0,0,0,0,0,
0,0,0,0,0,0,0,0,0,0,0,0,
0,0,0,0,0,0,0,0,0,0,0,0,
0,0,0,0,0,0,0,0,0,0,0,0,
0,0,0,0,0,0,0,0,0,0,0,0,
0,0,0,0,0,0,0,0,0,0,0,0,
0,0,0,0,0,0,0,0,0,0,0,0,
0,1926,1926,1926,1926,1926,1927,0,1925,1926,1926,0,
0,1990,1990,1990,1990,1990,1991,0,1989,1990,1990,0,
0,0,0,0,0,0,0,0,0,0,0,0,
0,0,0,0,0,0,0,0,0,0,0,0,
0,1926,1927,0,0,0,0,0,0,0,0,0,
0,1990,1991,0,0,0,0,0,0,0,0,0,
0,0,0,0,0,0,0,0,0,0,0,0,
0,0,0,0,0,0,0,0,0,0,0,0,
0,0,0,0,0,0,0,0,0,0,0,0,
0,1926,1926,1926,1926,1927,0,0,0,0,0,0,
0,1990,1990,1990,1990,1991,0,0,0,0,0,0,
0,0,0,0,0,0,0,0,0,0,0,0,
0,0,0,0,0,0,0,0,0,0,0,0,
0,0,0,0,0,0,0,0,0,0,0,0
</data>
 </layer>
 <layer id="3" name="foreground" width="12" height="23">
  <properties>
   <property name="z" type="int" value="3"/>
  </properties>
  <data encoding="csv">
1059,1250,1250,1250,803,1250,1250,1250,1250,1250,1250,1058,
1187,1862,1862,1862,996,1862,1862,1862,1862,1862,1862,1185,
1187,0,0,0,996,0,0,0,0,0,0,1185,
1187,0,0,0,996,0,0,0,0,0,0,1185,
1187,0,0,0,996,0,0,0,0,0,0,1185,
1187,0,0,0,1060,0,0,0,0,0,0,1185,
1187,0,0,0,1864,0,0,0,0,0,0,1185,
1187,1122,675,930,929,930,930,930,930,930,930,1185,
1187,514,1187,1862,1862,996,1862,1862,1862,1862,1862,1185,
1187,514,1187,0,0,1060,0,0,0,477,478,1185,
1187,514,1187,0,0,1864,0,0,0,541,0,1185,
1187,1250,1251,0,0,932,0,0,0,541,0,1185,
1187,1862,1863,0,0,996,0,0,0,477,478,1185,
1187,0,0,0,0,996,0,0,0,541,542,1185,
1187,0,0,0,0,996,0,0,0,541,0,1185,
1187,0,0,0,0,996,0,0,0,477,478,1185,
1187,930,930,930,930,993,0,0,0,541,542,1185,
1187,1862,1862,1862,1862,1863,0,0,0,541,0,1185,
1187,0,0,0,477,478,478,477,478,478,478,1185,
1187,0,0,0,541,542,0,541,542,0,0,1185,
995,1122,1122,1122,1122,1122,1122,1122,1122,1122,1122,994,
514,514,514,514,514,514,514,514,514,514,514,514,
514,514,514,514,514,514,514,514,514,514,514,514
</data>
 </layer>
 <objectgroup id="4" name="Object Layer 1">
  <object id="1" name="exit-n" x="192" y="64" width="64" height="32">
   <properties>
    <property name="dest" value="somewhere-district-1"/>
    <property name="destDir" value="u"/>
    <property name="destPoint" value="to-sheriff"/>
   </properties>
  </object>
  <object id="13" name="ekhaas-nasaar" x="64" y="160">
   <point/>
  </object>
  <object id="14" name="start" x="224" y="128">
   <point/>
  </object>
 </objectgroup>
 <objectgroup id="5" name="collisions">
  <object id="2" x="256" y="0" width="128" height="128">
   <properties>
    <property name="collision" type="bool" value="true"/>
   </properties>
  </object>
  <object id="3" x="0" y="0" width="192" height="128">
   <properties>
    <property name="collision" type="bool" value="true"/>
   </properties>
  </object>
  <object id="4" x="0" y="128" width="32" height="608">
   <properties>
    <property name="collision" type="bool" value="true"/>
   </properties>
  </object>
  <object id="5" x="352" y="128" width="32" height="608">
   <properties>
    <property name="collision" type="bool" value="true"/>
   </properties>
  </object>
  <object id="6" x="96" y="320" width="128" height="32">
   <properties>
    <property name="collision" type="bool" value="true"/>
   </properties>
  </object>
  <object id="7" x="256" y="320" width="96" height="32">
   <properties>
    <property name="collision" type="bool" value="true"/>
   </properties>
  </object>
  <object id="8" x="32" y="320" width="64" height="160">
   <properties>
    <property name="collision" type="bool" value="true"/>
   </properties>
  </object>
  <object id="9" x="32" y="608" width="160" height="32">
   <properties>
    <property name="collision" type="bool" value="true"/>
   </properties>
  </object>
  <object id="10" x="128" y="128" width="32" height="160">
   <properties>
    <property name="collision" type="bool" value="true"/>
   </properties>
  </object>
  <object id="11" x="160" y="352" width="32" height="64">
   <properties>
    <property name="collision" type="bool" value="true"/>
   </properties>
  </object>
  <object id="12" x="160" y="448" width="32" height="160">
   <properties>
    <property name="collision" type="bool" value="true"/>
   </properties>
  </object>
  <object id="15" x="288" y="352" width="32" height="352">
   <properties>
    <property name="collision" type="bool" value="true"/>
   </properties>
  </object>
  <object id="17" x="128" y="672" width="160" height="64">
   <properties>
    <property name="collision" type="bool" value="true"/>
   </properties>
  </object>
 </objectgroup>
</map>
