<?xml version="1.0" encoding="UTF-8"?>
<map version="1.11" tiledversion="1.11.2" orientation="orthogonal" renderorder="right-down" width="18" height="16" tilewidth="32" tileheight="32" infinite="0" nextlayerid="7" nextobjectid="19">
 <tileset firstgid="1" source="../Assorted_LPC/lpc-walls/walls.tsx"/>
 <tileset firstgid="6145" source="../Assorted_LPC/lpc_objectspack/Objects/Furniture/[LPC]Chairs_Dining.tsx"/>
 <tileset firstgid="6305" source="../Assorted_LPC/lpc-floors/floors.tsx"/>
 <tileset firstgid="8353" source="../[Base]BaseChip_pipo.tsx"/>
 <tileset firstgid="9353" source="../custom_tilesets/[Interior]Furniture.tsx"/>
 <tileset firstgid="9545" source="../[A]LightShadow_pipo.tsx"/>
 <tileset firstgid="9633" source="../[A]Wall-Up_pipo.tsx"/>
 <tileset firstgid="9729" source="../custom_tilesets/[A]BouncingArrows.tsx"/>
 <imagelayer id="6" name="ref" visible="0" offsetx="-1216" offsety="-576">
  <image source="../vtt-maps/District 1.webp" width="1952" height="2144"/>
 </imagelayer>
 <layer id="1" name="bg" width="18" height="16" opacity="0.75">
  <data encoding="csv">
0,0,0,0,0,0,0,0,0,0,0,0,0,0,0,0,0,0,
0,0,0,0,0,0,0,0,0,3410,3410,3410,3410,3410,3410,3410,3410,0,
0,0,0,0,0,0,0,0,0,3474,3474,3474,3412,3474,3474,3474,3474,0,
0,0,0,0,0,0,0,0,0,3538,3538,3538,3538,3538,3538,3538,3538,0,
0,0,0,0,0,0,0,0,0,7587,7555,7556,7555,7556,7555,7556,7555,0,
0,0,0,0,0,0,0,0,0,7587,7587,7588,7587,7588,7587,7588,7587,0,
0,0,0,0,0,0,0,0,0,7587,7555,7556,7588,7556,7555,7556,7555,0,
0,0,0,0,0,0,0,0,0,7587,7587,7588,0,3539,7587,3537,3538,0,
0,0,0,3410,3410,3410,3410,3410,3411,7587,7555,7556,0,7556,7555,7556,7555,0,
0,3409,3411,3474,3474,3475,7556,3473,3475,7587,7587,7588,0,7588,7587,7588,7587,0,
0,3473,3475,3538,3538,3539,7588,3537,3539,7587,7555,7556,0,7556,7588,7556,7555,0,
0,3537,3539,7555,7556,7555,7556,7555,7556,7555,7587,7588,0,3539,7587,3537,3538,0,
7142,7587,7588,7587,7588,7587,7588,7587,7588,7587,7555,7556,0,7556,7555,7556,7555,0,
7206,7555,7556,7555,7556,7555,7556,7555,7556,7555,7587,7588,0,7588,7587,7588,7587,0,
0,0,0,7587,7588,7587,7588,7587,7588,7587,7555,7556,0,7556,7555,7556,7555,0,
0,0,0,0,0,0,0,0,0,0,0,0,0,0,0,0,0,0
</data>
 </layer>
 <layer id="2" name="mid" width="18" height="16" opacity="0.75">
  <properties>
   <property name="z" type="int" value="0"/>
  </properties>
  <data encoding="csv">
0,0,0,0,0,0,0,0,0,0,0,0,0,0,0,0,0,0,
0,0,0,0,0,0,0,0,0,0,0,0,0,0,0,0,0,0,
0,0,0,0,0,0,0,0,0,0,0,0,0,0,0,0,0,0,
0,0,0,0,0,0,0,0,0,0,0,0,0,0,0,0,0,0,
0,0,0,0,0,0,0,0,0,6273,0,0,0,0,0,0,0,0,
0,0,0,0,0,0,0,0,0,9099,0,0,0,3410,3410,3410,3410,0,
0,0,0,0,0,0,0,0,0,6274,0,0,0,0,9554,0,0,0,
0,0,0,0,0,0,0,0,0,6273,0,6273,0,0,9563,0,0,0,
0,0,0,0,3410,3410,3410,3410,0,9099,0,9099,0,0,0,0,9356,0,
0,9552,0,3474,3474,3475,9558,3473,3475,6274,0,6274,0,3410,3410,3410,3410,0,
0,9552,0,0,0,0,0,0,0,0,0,6273,0,0,0,0,0,0,
0,9552,0,0,0,0,0,0,0,0,0,9099,0,0,9563,0,0,0,
9623,9624,0,0,0,0,6273,0,0,6273,0,6274,0,0,0,0,0,0,
9623,9624,0,0,0,6289,9099,6290,6289,9099,6290,0,0,0,0,0,0,0,
0,0,0,0,0,0,6274,0,0,6274,0,0,0,0,0,0,0,0,
0,0,0,0,0,0,0,0,0,0,0,0,0,0,0,0,0,0
</data>
 </layer>
 <layer id="3" name="foreground" width="18" height="16" opacity="0.75">
  <properties>
   <property name="z" type="int" value="3"/>
  </properties>
  <data encoding="csv">
0,0,0,0,0,0,0,0,391,582,582,582,135,582,582,582,582,390,
0,0,0,0,0,0,0,0,519,9552,0,0,392,9582,0,0,0,517,
0,0,0,0,0,0,0,0,519,9552,0,0,0,9582,0,0,0,517,
0,0,0,0,0,0,0,0,519,9552,0,0,264,9582,0,0,0,517,
0,0,0,0,0,0,0,0,519,9582,0,0,328,9563,0,0,0,517,
0,0,0,0,0,0,0,0,519,9582,0,0,328,0,0,0,0,517,
0,0,0,0,0,0,0,0,519,9582,0,0,328,3475,0,3473,3474,517,
0,0,391,582,582,582,582,582,583,9582,0,0,328,0,0,0,0,517,
0,582,583,9552,0,0,0,0,0,9582,0,0,328,9582,0,0,0,517,
0,9624,0,9552,0,0,9744,0,0,9582,0,0,328,0,0,0,0,517,
0,9624,0,9552,0,0,0,0,0,9579,0,0,328,3475,9554,3473,3474,517,
0,9624,0,9579,0,0,0,0,0,0,0,0,328,0,0,0,0,517,
9734,0,0,0,0,0,0,0,0,0,0,0,325,0,0,0,0,325,
9734,0,0,0,0,0,0,0,0,0,0,0,332,0,0,0,0,332,
0,458,459,0,0,0,0,0,0,0,0,0,332,0,0,0,0,332,
0,0,331,458,458,458,458,458,458,458,458,458,458,458,458,458,458,458
</data>
 </layer>
 <objectgroup id="4" name="Object Layer 1">
  <object id="1" name="exit-w" x="0" y="384" width="32" height="64">
   <properties>
    <property name="dest" value="somewhere-district-1"/>
    <property name="destDir" value="l"/>
    <property name="destPoint" value="to-public-ovens"/>
   </properties>
  </object>
  <object id="3" name="exit-n" x="192" y="304" width="32" height="32">
   <properties>
    <property name="dest" value="somewhere-d1-public-ovens-kitchen"/>
    <property name="destDir" value="u"/>
    <property name="destPoint" value="exit-s"/>
   </properties>
  </object>
  <object id="16" name="epimilaas-ordii" x="488" y="272">
   <point/>
  </object>
  <object id="17" name="lop" x="96" y="384">
   <point/>
  </object>
  <object id="4" x="32" y="352" width="64" height="32">
   <properties>
    <property name="collision" type="bool" value="true"/>
   </properties>
  </object>
  <object id="6" x="64" y="128" width="128" height="224">
   <properties>
    <property name="collision" type="bool" value="true"/>
   </properties>
  </object>
  <object id="7" x="224" y="128" width="64" height="224">
   <properties>
    <property name="collision" type="bool" value="true"/>
   </properties>
  </object>
  <object id="8" x="384" y="192" width="32" height="288">
   <properties>
    <property name="collision" type="bool" value="true"/>
   </properties>
  </object>
  <object id="9" x="32" y="480" width="512" height="32">
   <properties>
    <property name="collision" type="bool" value="true"/>
   </properties>
  </object>
  <object id="10" x="288" y="96" width="256" height="32">
   <properties>
    <property name="collision" type="bool" value="true"/>
   </properties>
  </object>
  <object id="12" x="32" y="448" width="64" height="32">
   <properties>
    <property name="collision" type="bool" value="true"/>
   </properties>
  </object>
  <object id="13" x="384" y="128" width="32" height="16">
   <properties>
    <property name="collision" type="bool" value="true"/>
   </properties>
  </object>
  <object id="14" x="544" y="96" width="32" height="416">
   <properties>
    <property name="collision" type="bool" value="true"/>
   </properties>
  </object>
  <object id="15" x="524" y="256" width="20" height="32">
   <properties>
    <property name="collision" type="bool" value="true"/>
   </properties>
  </object>
  <object id="18" x="192" y="256" width="32" height="46">
   <properties>
    <property name="collision" type="bool" value="true"/>
   </properties>
  </object>
 </objectgroup>
</map>
