<?xml version="1.0" encoding="UTF-8"?>
<map version="1.11" tiledversion="1.11.2" orientation="orthogonal" renderorder="right-down" width="21" height="29" tilewidth="32" tileheight="32" infinite="0" nextlayerid="10" nextobjectid="25">
 <tileset firstgid="1" source="../Assorted_LPC/lpc-walls/walls.tsx"/>
 <tileset firstgid="6145" source="../[A]LightShadow_pipo.tsx"/>
 <tileset firstgid="6233" source="../Assorted_LPC/lpc-floors/floors.tsx"/>
 <tileset firstgid="8281" source="../Assorted_LPC/lpc_objectspack/Objects/Furniture/Countertops.tsx"/>
 <tileset firstgid="8317" source="../[Base]BaseChip_pipo.tsx"/>
 <tileset firstgid="9317" source="../Assorted_LPC/wooden_stairs/[LPC]WoodenStairs.tsx"/>
 <tileset firstgid="10913" source="../Assorted_LPC/lpc-bricks-v6/bricks.tsx"/>
 <tileset firstgid="12961" source="../[Town]VictorianAccessories_LPC.tsx"/>
 <tileset firstgid="15521" source="../custom_tilesets/[Somewhere]Temple.tsx"/>
 <tileset firstgid="15665" source="../[Town]VictorianStreets_LPC.tsx"/>
 <tileset firstgid="17201" source="../[Town]VictorianTenement_LPC.tsx"/>
 <tileset firstgid="20273" source="../[Town]VictorianDoorsWindows_LPC.tsx"/>
 <imagelayer id="3" name="ref" visible="0" offsetx="-832" offsety="-96">
  <image source="../vtt-maps/District 2.webp" width="2112" height="2560"/>
 </imagelayer>
 <layer id="1" name="bg" width="21" height="29">
  <data encoding="csv">
0,0,0,0,0,0,0,0,0,0,0,0,0,0,0,0,0,0,0,0,0,
0,0,3053,2862,2862,3055,3053,2862,2862,2862,3054,2862,2862,2862,3055,3053,2862,2862,3055,0,0,
0,0,3117,2926,2926,3119,3117,2926,2926,2926,3118,2926,2926,2926,3119,3117,2926,2926,3119,0,0,
0,0,3117,2926,2926,3119,3117,2926,2926,2926,3118,2926,2926,2926,3119,3117,2926,2926,3119,0,0,
0,0,3181,2990,2990,3183,3181,2990,2990,2990,3182,2990,2990,2990,3183,3181,2990,2990,3183,0,0,
0,0,11711,11711,11711,11711,11711,11711,11711,11711,11711,11711,11711,11711,11711,11711,11711,11711,11711,0,0,
0,0,11711,11711,11711,11711,11711,11711,11711,11711,11711,11711,11711,11711,11711,11711,11711,11711,11711,0,0,
0,0,11711,11711,11711,11711,11711,11711,11711,11711,11711,11711,11711,11711,11711,11711,11711,11711,11711,0,0,
0,0,11711,11711,11711,11711,11711,11711,11711,11711,11711,11711,11711,11711,11711,11711,11711,11711,11711,0,0,
0,0,11711,11711,11711,11711,11711,11711,11711,11711,11711,11711,11711,11711,11711,11711,11711,11711,11711,0,0,
0,0,11711,11711,11711,11711,11711,11487,11487,11487,11487,11487,11487,11487,11711,11711,11711,11711,11711,0,0,
0,0,11711,11711,11711,11711,11711,11487,11487,11487,11487,11487,11487,11487,11711,11711,11711,11711,11711,0,0,
0,0,11711,11711,11711,11711,11711,11487,11487,11487,11487,11487,11487,11487,11711,11711,11711,11711,11711,0,0,
0,0,11711,11711,11711,11711,11711,11487,11487,11487,11487,11487,11487,11487,11711,11711,11711,11711,11711,0,0,
11711,11711,11711,11711,11711,11711,11711,11487,11487,11487,11487,11487,11487,11487,11711,11711,11711,11711,11711,0,0,
11711,11711,11711,11711,11711,11711,11711,11487,11487,11487,11487,11487,11487,11487,11711,11711,11711,11711,11711,0,0,
0,0,11711,11711,11711,11711,11711,11487,11487,11487,11487,11487,11487,11487,11711,11711,11711,11711,11711,0,0,
0,0,11711,11711,11711,11711,11711,11487,11487,11487,11487,11487,11487,11487,11711,11711,11711,11711,11711,7514,7514,
0,0,11711,11711,11711,11711,11711,11487,11487,11487,11487,11487,11487,11487,11711,11711,11711,11711,11711,7514,7514,
0,0,11711,11711,11711,11711,11711,11487,11487,11487,11487,11487,11487,11487,11711,11711,11711,11711,11711,0,0,
0,0,11711,11711,11711,11711,11711,11711,11711,11711,11711,11711,11711,11711,11711,11711,11711,11711,11711,0,0,
0,0,11711,11711,11711,11711,11711,11711,11711,11711,11711,11711,11711,11711,11711,11711,11711,11711,11711,0,0,
0,0,11711,11711,11711,11711,11711,11711,11711,11711,11711,11711,11711,11711,11711,11711,11711,11711,11711,0,0,
0,1151,11711,11711,11711,11711,11711,11711,11711,11711,11711,11711,11711,11711,11711,11711,11711,11711,11711,1149,0,
0,1023,1150,1151,11711,11711,11711,11711,11711,11711,11711,11711,11711,11711,11711,11711,11711,1149,1150,1022,0,
0,0,0,1023,1150,1150,1150,1150,1151,11711,11711,11711,1149,1150,1150,1150,1150,1022,0,0,0,
0,0,0,0,0,0,0,0,0,16995,16995,16995,0,0,0,0,0,0,0,0,0,
0,0,0,0,0,0,0,0,0,17011,17011,17011,0,0,0,0,0,0,0,0,0,
0,0,0,0,0,0,0,0,0,0,0,0,0,0,0,0,0,0,0,0,0
</data>
 </layer>
 <layer id="6" name="Ground Details" width="21" height="29">
  <data encoding="csv">
0,0,0,0,0,0,0,0,0,0,0,0,0,0,0,0,0,0,0,0,0,
0,0,0,0,0,0,0,0,0,0,0,0,0,0,0,0,0,0,0,0,0,
0,0,0,15524,0,0,0,0,0,0,0,0,0,0,0,0,0,0,0,0,0,
0,0,0,15536,15537,0,0,0,0,0,0,0,0,0,0,0,0,0,0,0,0,
0,0,0,15548,15549,0,0,0,0,0,0,0,0,0,0,0,0,0,0,0,0,
0,0,0,15572,15561,0,0,0,0,0,0,0,0,0,0,0,0,0,0,0,0,
0,0,0,15584,15585,0,0,0,0,0,0,0,0,0,0,0,0,15587,0,0,0,
0,0,15529,15530,0,0,0,0,0,0,0,0,0,0,0,0,0,15528,15529,0,0,
0,0,15565,15566,0,0,0,0,0,0,0,0,0,0,0,0,0,15564,15565,0,0,
0,0,15577,15578,0,0,0,0,0,0,0,0,0,0,0,0,0,15576,15577,0,0,
0,0,0,0,0,0,0,0,0,0,0,0,0,0,0,0,0,15528,15529,0,0,
0,0,0,0,0,0,0,0,0,0,0,0,0,0,0,0,0,15564,15565,0,0,
0,0,0,0,0,0,0,0,0,0,0,0,0,0,0,0,0,15576,15577,0,0,
0,0,0,0,0,0,0,0,0,0,0,0,0,0,0,0,0,15528,15529,0,0,
0,0,0,0,0,0,0,0,0,0,0,0,0,0,0,0,0,15564,15565,0,0,
0,0,0,0,0,0,0,0,0,0,0,0,0,0,0,0,0,15576,15577,0,0,
0,0,15529,15530,0,0,0,0,0,0,0,0,0,0,0,0,0,0,0,0,0,
0,0,15565,15566,0,0,0,0,0,0,0,0,0,0,0,0,0,0,0,0,0,
0,0,15577,15578,0,0,0,0,0,0,0,0,0,0,0,0,0,0,0,0,0,
0,0,15529,15530,0,0,0,0,0,0,0,0,0,0,0,0,0,15528,15529,0,0,
0,0,15565,15566,0,0,0,0,0,0,0,0,0,0,0,0,0,15564,15565,0,0,
0,0,15577,15578,0,0,0,0,0,0,0,0,0,0,0,0,0,15576,15577,0,0,
0,0,0,0,0,0,0,0,0,0,0,0,0,0,0,0,0,0,0,0,0,
0,0,0,0,0,0,0,0,0,0,0,0,0,0,0,0,0,0,0,0,0,
0,0,0,0,0,0,0,0,0,0,0,0,0,0,0,0,0,0,0,0,0,
0,0,0,0,0,0,0,0,0,0,0,0,0,0,0,0,0,0,0,0,0,
0,0,0,0,0,0,0,0,0,0,0,0,0,0,0,0,0,0,0,0,0,
0,0,0,0,0,0,0,0,0,0,0,0,0,0,0,0,0,0,0,0,0,
0,0,0,0,0,0,0,0,0,0,0,0,0,0,0,0,0,0,0,0,0
</data>
 </layer>
 <layer id="9" name="mid" width="21" height="29">
  <properties>
   <property name="z" type="int" value="0"/>
  </properties>
  <data encoding="csv">
0,0,0,0,0,0,0,0,0,0,0,0,0,0,0,0,0,0,0,0,0,
0,0,0,0,15525,0,0,0,0,0,0,0,0,0,0,0,0,0,0,0,0,
0,0,0,15524,15525,0,15521,15522,0,0,15521,15522,0,15521,15522,0,15526,15527,0,0,0,
0,0,14732,15536,15537,0,15545,15546,0,0,15545,15546,0,15545,15546,0,15538,15539,14731,0,0,
0,0,9241,15548,15549,9240,15557,15558,9256,9257,15557,15558,9225,15557,15558,9240,15550,15551,0,0,0,
0,0,9249,15572,15561,9248,15557,15558,9264,9265,15557,15558,9233,15557,15558,9248,15562,15575,9225,0,0,
0,0,14732,0,15585,0,15569,15570,0,0,15569,15570,0,15569,15570,0,15586,0,9233,0,0,
0,0,15529,15530,0,0,0,15564,15565,15565,15565,15565,15565,15566,0,0,0,0,0,0,0,
0,0,0,0,0,0,0,15564,15565,15565,15565,15565,15565,15566,0,0,0,0,0,0,0,
0,0,9241,0,0,0,0,15576,15577,15577,15577,15577,15577,15578,0,0,0,0,9225,0,0,
0,0,15529,15530,0,0,0,0,0,0,0,0,0,0,0,0,0,0,0,0,0,
0,0,15565,15566,0,0,0,0,0,0,0,0,0,0,0,0,0,0,0,0,0,
0,0,15577,15578,0,15557,15558,0,0,0,0,0,0,0,15557,15558,0,0,9225,0,0,
0,0,0,0,0,15581,15582,0,0,0,0,0,0,0,15581,15582,0,0,0,0,0,
0,0,0,0,0,0,0,15595,15596,15597,0,15595,15596,15597,0,0,0,0,0,0,0,
0,0,14732,0,0,0,0,15617,15618,15619,0,15617,15618,15619,0,0,0,0,0,0,0,
0,0,0,0,0,0,0,15629,15630,15631,0,15629,15630,15631,0,0,0,0,0,0,0,
0,0,0,0,0,0,0,15595,15596,15597,0,15595,15596,15597,0,0,0,0,0,0,0,
0,0,9240,0,0,0,0,15617,15618,15619,0,15617,15618,15619,0,0,0,0,14731,0,0,
0,0,0,0,0,15557,15558,15629,15630,15631,0,15629,15630,15631,15557,15558,0,0,0,0,0,
0,0,0,0,0,15581,15582,15564,15565,15568,0,15567,15565,15566,15581,15582,0,0,0,0,0,
0,0,9225,0,0,0,0,15540,15541,15544,0,15543,15541,15542,0,0,0,0,9240,0,0,
0,0,9233,0,0,0,0,0,0,0,0,0,0,0,0,0,0,0,9248,0,0,
0,0,0,0,0,0,0,0,0,0,0,0,0,0,0,0,0,0,0,0,0,
0,0,0,0,0,0,0,0,0,0,0,0,0,0,0,0,0,0,0,0,0,
0,0,0,0,0,0,0,0,0,0,0,0,0,0,0,0,0,0,0,0,0,
0,0,0,0,0,0,0,0,0,0,0,0,0,0,0,0,0,0,0,0,0,
0,0,0,0,0,0,0,0,0,0,0,0,0,0,0,0,0,0,0,0,0,
0,0,0,0,0,0,0,0,0,0,0,0,0,0,0,0,0,0,0,0,0
</data>
 </layer>
 <layer id="4" name="shadows" width="21" height="29">
  <data encoding="csv">
0,0,0,0,0,0,0,0,0,0,0,0,0,0,0,0,0,0,0,0,0,
0,0,0,0,0,0,0,0,0,0,0,0,0,0,0,0,0,0,0,0,0,
0,0,0,0,0,0,0,0,0,0,0,0,0,0,0,0,0,0,0,0,0,
0,0,0,0,0,0,0,0,0,0,0,0,0,0,0,0,0,0,0,0,0,
0,0,0,0,0,0,0,0,0,0,0,0,0,0,0,0,0,0,0,0,0,
0,0,0,0,0,0,0,0,0,0,0,0,0,0,0,0,0,0,0,0,0,
0,0,0,0,0,0,0,0,0,0,0,0,0,0,0,0,0,0,0,0,0,
0,0,0,0,0,0,0,0,0,0,0,0,0,0,0,0,0,0,0,0,0,
0,0,0,0,0,0,0,0,0,0,0,0,0,0,0,0,0,0,0,0,0,
0,0,0,0,0,0,0,0,0,0,0,0,0,0,0,0,0,0,0,0,0,
0,0,0,0,0,0,0,0,0,0,0,0,0,0,0,0,0,0,0,0,0,
0,0,0,0,0,0,0,0,0,0,0,0,0,0,0,0,0,0,0,0,0,
0,0,0,0,0,0,0,0,0,0,0,0,0,0,0,0,0,0,0,0,0,
0,0,0,0,0,0,0,0,0,0,0,0,0,0,0,0,0,0,0,0,0,
0,0,0,0,0,0,0,0,0,0,0,0,0,0,0,0,0,0,0,0,0,
0,0,0,0,0,0,0,0,0,0,0,0,0,0,0,0,0,0,0,0,0,
0,0,0,0,0,0,0,0,0,0,0,0,0,0,0,0,0,0,0,0,0,
0,0,0,0,0,0,0,0,0,0,0,0,0,0,0,0,0,0,0,0,0,
0,0,0,0,0,0,0,0,0,0,0,0,0,0,0,0,0,0,0,0,0,
0,0,0,0,0,0,0,0,0,0,0,0,0,0,0,0,0,0,0,0,0,
0,0,0,0,0,0,0,0,0,0,0,0,0,0,0,0,0,0,0,0,0,
0,0,0,0,0,0,0,0,0,0,0,0,0,0,0,0,0,0,0,0,0,
0,0,0,0,0,0,0,0,0,0,0,0,0,0,0,0,0,0,0,0,0,
0,0,0,0,0,0,0,0,0,0,0,0,0,0,0,0,0,0,0,0,0,
0,0,0,0,0,0,0,0,0,0,0,0,0,0,0,0,0,0,0,0,0,
0,0,0,0,0,0,0,0,0,6221,6221,6221,0,0,0,0,0,0,0,0,0,
0,0,0,0,0,0,0,0,0,6229,6229,6229,0,0,0,0,0,0,0,0,0,
0,0,0,0,0,0,0,0,0,6228,6228,6228,0,0,0,0,0,0,0,0,0,
0,0,0,0,0,0,0,0,0,0,0,0,0,0,0,0,0,0,0,0,0
</data>
 </layer>
 <layer id="2" name="foreground" width="21" height="29">
  <properties>
   <property name="z" type="int" value="1"/>
  </properties>
  <data encoding="csv">
0,1027,1218,1218,1218,1218,1218,1218,1218,1218,1218,1218,1218,1218,1218,1218,1218,1218,1218,1026,0,
0,1155,0,0,0,0,0,0,0,0,0,0,0,0,0,0,0,0,0,1153,0,
0,1155,0,0,0,0,0,0,0,0,0,0,0,0,0,0,0,0,0,1153,0,
0,1155,14732,0,0,0,0,0,0,0,0,0,0,0,0,0,0,0,14731,1153,0,
0,1155,0,0,0,0,0,0,0,0,0,0,0,0,0,0,0,0,0,1153,0,
0,1155,0,0,0,0,0,0,0,0,0,0,0,0,0,0,0,0,0,1153,0,
0,1155,14732,0,0,0,0,15552,15553,15553,15553,15553,15553,15554,0,0,0,0,14731,1153,0,
0,1155,0,0,0,0,0,0,0,0,0,0,0,0,0,0,0,0,0,1153,0,
0,1155,0,0,0,15609,15610,0,0,0,0,0,0,0,15609,15610,0,0,0,1153,0,
0,969,14732,0,0,15533,15534,0,0,0,0,0,0,0,15533,15534,0,0,14731,1153,0,
0,8738,0,0,0,15533,15534,0,0,0,0,0,0,0,15533,15534,0,0,0,1153,0,
0,969,0,0,0,15545,15546,0,0,0,0,0,0,0,15545,15546,0,0,0,1153,0,
0,1155,14732,0,0,0,0,0,0,0,0,0,0,0,15557,15558,0,0,14731,969,0,
0,1155,0,0,0,0,0,0,0,0,0,0,0,0,15581,15582,0,0,0,8737,0,
0,1155,6204,0,0,0,0,0,0,0,0,0,0,0,0,0,0,0,0,8737,0,
0,1155,6204,0,0,15609,15610,0,0,0,0,0,0,0,15609,15610,0,0,14731,969,0,
0,1155,0,0,0,15533,15534,0,0,0,0,0,0,0,15533,15534,0,0,0,1161,0,
0,1155,0,0,0,15533,15534,0,0,0,0,0,0,0,15533,15534,0,0,6211,1161,0,
0,969,14732,0,0,15545,15546,0,0,0,0,0,0,0,15545,15546,0,0,6211,969,0,
0,8733,0,0,0,0,0,15552,15553,15556,0,15555,15553,15554,0,0,0,0,0,8738,0,
0,8733,0,0,0,0,0,15564,15565,15568,0,15567,15565,15566,0,0,0,0,0,8738,0,
0,8733,14732,0,0,0,0,0,0,0,0,0,0,0,0,0,0,0,14731,8738,0,
0,8741,0,0,0,0,15609,15610,0,0,0,0,0,15609,15610,0,0,0,0,8746,0,
0,0,0,0,0,0,15545,15546,0,20462,20452,20463,0,15545,15546,0,0,0,0,0,0,
0,0,0,0,0,0,15557,15558,0,20494,0,20495,0,15557,15558,0,0,0,0,0,0,
0,0,0,0,0,0,0,0,0,20317,0,20318,0,0,0,0,0,0,0,0,0,
0,0,0,0,0,0,0,0,0,20431,0,20432,0,0,0,0,0,0,0,0,0,
0,0,0,0,0,0,0,0,0,0,0,0,0,0,0,0,0,0,0,0,0,
0,0,0,0,0,0,0,0,0,0,0,0,0,0,0,0,0,0,0,0,0
</data>
 </layer>
 <objectgroup id="7" name="Object Layer 1">
  <object id="1" name="exit-e" x="640" y="544" width="32" height="64">
   <properties>
    <property name="dest" value="somewhere-district-2"/>
    <property name="destDir" value="l"/>
    <property name="destX" type="float" value="47.5"/>
    <property name="destY" type="float" value="70"/>
   </properties>
  </object>
  <object id="16" name="start" x="336" y="760">
   <point/>
  </object>
  <object id="17" name="black-powder-frog" x="160" y="344">
   <point/>
  </object>
  <object id="19" name="exit-w" x="0" y="448" width="32" height="64">
   <properties>
    <property name="dest" value="somewhere-district-2"/>
    <property name="destDir" value="l"/>
    <property name="destX" type="float" value="47.5"/>
    <property name="destY" type="float" value="70"/>
   </properties>
  </object>
  <object id="20" name="exit-s" x="288" y="816" width="96" height="32">
   <properties>
    <property name="dest" value="somewhere-district-2"/>
    <property name="destDir" value="d"/>
    <property name="destX" type="float" value="33"/>
    <property name="destY" type="float" value="33"/>
   </properties>
  </object>
 </objectgroup>
 <objectgroup id="8" name="collisions">
  <object id="3" x="32" y="160" width="32" height="288">
   <properties>
    <property name="collision" type="bool" value="true"/>
   </properties>
  </object>
  <object id="4" x="32" y="128" width="608" height="32">
   <properties>
    <property name="collision" type="bool" value="true"/>
   </properties>
  </object>
  <object id="6" x="608" y="160" width="32" height="384">
   <properties>
    <property name="collision" type="bool" value="true"/>
   </properties>
  </object>
  <object id="15" x="608" y="608" width="32" height="160">
   <properties>
    <property name="collision" type="bool" value="true"/>
   </properties>
  </object>
  <object id="18" x="128" y="800" width="160" height="32">
   <properties>
    <property name="collision" type="bool" value="true"/>
   </properties>
  </object>
  <object id="21" x="384" y="800" width="160" height="32">
   <properties>
    <property name="collision" type="bool" value="true"/>
   </properties>
  </object>
  <object id="22" x="64" y="768" width="64" height="32">
   <properties>
    <property name="collision" type="bool" value="true"/>
   </properties>
  </object>
  <object id="23" x="544" y="768" width="64" height="32">
   <properties>
    <property name="collision" type="bool" value="true"/>
   </properties>
  </object>
  <object id="24" x="32" y="512" width="32" height="256">
   <properties>
    <property name="collision" type="bool" value="true"/>
   </properties>
  </object>
 </objectgroup>
</map>
