<?xml version="1.0" encoding="UTF-8"?>
<map version="1.11" tiledversion="1.11.2" orientation="orthogonal" renderorder="right-down" width="11" height="12" tilewidth="32" tileheight="32" infinite="0" nextlayerid="10" nextobjectid="22">
 <tileset firstgid="1" source="../Assorted_LPC/lpc-walls/walls.tsx"/>
 <tileset firstgid="6145" source="../[A]LightShadow_pipo.tsx"/>
 <tileset firstgid="6233" source="../Assorted_LPC/lpc-floors/floors.tsx"/>
 <tileset firstgid="8281" source="../Assorted_LPC/lpc_objectspack/Objects/Furniture/Countertops.tsx"/>
 <tileset firstgid="8317" source="../[Base]BaseChip_pipo.tsx"/>
 <tileset firstgid="9317" source="../Assorted_LPC/wooden_stairs/[LPC]WoodenStairs.tsx"/>
 <tileset firstgid="10913" source="../[A]Wall-Up_pipo.tsx"/>
 <tileset firstgid="11009" source="../Assorted_LPC/lpc_objectspack/Objects/Furniture/[LPC]Beds_Double.tsx"/>
 <imagelayer id="3" name="ref" visible="0" offsetx="-64" offsety="-96">
  <image source="../vtt-maps/Interiors/hotel-f2.webp" width="416" height="1120"/>
 </imagelayer>
 <layer id="1" name="bg" width="11" height="12">
  <data encoding="csv">
0,0,0,0,0,0,0,0,0,0,0,
0,0,1901,1902,1902,1902,1902,1902,1903,0,0,
0,0,2029,2030,2030,2030,2030,2030,2031,1904,0,
0,0,2033,2034,2034,2034,2034,2034,2035,2032,0,
0,0,7617,7617,7617,7617,7617,7617,7617,2036,0,
0,1904,7617,6668,6668,6668,6668,6668,7617,7616,7617,
0,2032,7617,6668,6668,6668,6668,6668,7617,0,0,
0,2036,7617,6668,6668,6668,6668,6668,7617,0,0,
7617,7616,7617,6668,6668,6668,6668,6668,7617,0,0,
7617,7616,7617,6668,6668,6668,6668,6668,7617,0,0,
0,0,7617,7617,7617,7617,7617,7617,7617,0,0,
0,0,0,0,0,0,0,0,0,0,0
</data>
 </layer>
 <layer id="6" name="ground details" width="11" height="12">
  <data encoding="csv">
0,0,0,0,0,0,0,0,0,0,0,
0,0,0,0,0,0,0,0,0,0,0,
0,0,0,0,0,0,0,0,0,0,0,
0,0,0,0,11009,11010,0,0,0,0,0,
0,0,6635,6636,11037,11038,6307,6636,6637,0,0,
0,0,6667,6338,6339,6339,6339,6340,6669,0,0,
0,0,6667,6370,6371,6371,6371,6372,6669,0,0,
0,0,6667,0,6324,6325,6326,0,6669,0,0,
0,0,6667,0,6356,6357,6358,0,6669,0,0,
0,0,6667,6668,6356,6357,6358,0,6669,0,0,
0,0,6699,6700,6700,6700,6700,6700,6701,0,0,
0,0,0,0,0,0,0,0,0,0,0
</data>
 </layer>
 <layer id="9" name="mid" width="11" height="12">
  <properties>
   <property name="z" type="int" value="0"/>
  </properties>
  <data encoding="csv">
0,0,0,0,0,0,0,0,0,0,0,
0,0,0,0,0,0,0,0,0,0,0,
0,0,0,0,0,0,0,0,0,0,0,
0,0,0,0,11009,11010,0,0,0,0,0,
0,0,0,6306,11037,11038,0,6308,0,0,0,
0,0,0,0,11093,11094,0,0,0,0,0,
0,0,0,0,0,0,0,0,0,0,0,
0,0,0,0,0,0,0,0,0,0,0,
0,0,0,0,0,0,0,0,0,0,0,
0,0,0,0,0,0,0,0,0,0,0,
0,0,0,0,0,0,0,0,0,0,0,
0,0,0,0,0,0,0,0,0,0,0
</data>
 </layer>
 <layer id="4" name="shadows" width="11" height="12">
  <data encoding="csv">
0,0,0,0,0,0,0,0,0,0,0,
0,0,6152,0,0,0,0,0,6159,0,0,
0,0,6152,0,0,0,0,0,6159,6159,0,
0,0,6152,0,0,0,0,0,6159,6159,0,
0,0,6174,6175,0,0,6175,6175,6176,6159,0,
0,6152,6182,0,0,0,0,0,6180,6175,6199,
0,6152,6182,0,0,0,0,0,0,0,0,
0,6152,6182,0,0,0,0,0,0,0,0,
6177,6175,6181,0,0,0,0,0,0,0,0,
6193,0,0,0,0,0,0,0,0,0,0,
0,0,0,0,6388,6389,6390,0,0,0,0,
0,0,0,0,0,0,0,0,0,0,0
</data>
 </layer>
 <layer id="2" name="foreground" width="11" height="12">
  <properties>
   <property name="z" type="int" value="1"/>
  </properties>
  <data encoding="csv">
0,391,582,582,582,582,582,582,582,390,0,
0,519,0,0,0,0,0,0,0,581,0,
0,519,0,0,0,0,0,0,0,0,0,
0,519,0,0,0,0,0,0,0,0,0,
0,583,0,0,11065,11066,0,0,0,0,0,
0,0,0,0,0,0,0,0,0,0,6215,
0,0,0,0,0,0,0,0,0,457,0,
0,0,0,0,0,0,0,0,0,521,0,
6223,6224,0,0,0,0,0,0,0,521,0,
6223,6224,0,0,0,0,0,0,0,521,0,
0,459,0,0,0,0,0,0,0,521,0,
0,331,458,458,458,458,458,458,458,330,0
</data>
 </layer>
 <objectgroup id="7" name="Object Layer 1">
  <object id="1" name="exit-w" x="8" y="256" width="32" height="64">
   <properties>
    <property name="dest" value="somewhere-d2-hotel-f2-balconies"/>
    <property name="destDir" value="l"/>
    <property name="destPoint" value="to-dragon"/>
   </properties>
  </object>
  <object id="16" name="start" x="272" y="176">
   <point/>
  </object>
  <object id="17" name="patron" x="128" y="288">
   <point/>
  </object>
  <object id="19" name="exit-e" x="312" y="160" width="32" height="32">
   <properties>
    <property name="dest" value="somewhere-d2-hotel-f2"/>
    <property name="destDir" value="r"/>
    <property name="destPoint" value="to-dragon-room"/>
   </properties>
  </object>
  <object id="6" x="288" y="192" width="32" height="192">
   <properties>
    <property name="collision" type="bool" value="true"/>
   </properties>
  </object>
  <object id="13" x="64" y="352" width="224" height="32">
   <properties>
    <property name="collision" type="bool" value="true"/>
   </properties>
  </object>
  <object id="14" x="288" y="96" width="32" height="64">
   <properties>
    <property name="collision" type="bool" value="true"/>
   </properties>
  </object>
  <object id="15" x="32" y="96" width="32" height="160">
   <properties>
    <property name="collision" type="bool" value="true"/>
   </properties>
  </object>
  <object id="18" x="64" y="96" width="224" height="32">
   <properties>
    <property name="collision" type="bool" value="true"/>
   </properties>
  </object>
  <object id="20" x="32" y="320" width="32" height="64">
   <properties>
    <property name="collision" type="bool" value="true"/>
   </properties>
  </object>
  <object id="21" x="128" y="128" width="64" height="64">
   <properties>
    <property name="collision" type="bool" value="true"/>
   </properties>
  </object>
 </objectgroup>
</map>
