<?xml version="1.0" encoding="UTF-8"?>
<map version="1.11" tiledversion="1.11.2" orientation="orthogonal" renderorder="right-down" width="22" height="30" tilewidth="32" tileheight="32" infinite="0" nextlayerid="7" nextobjectid="12">
 <tileset firstgid="1" source="../Assorted_LPC/lpc-walls/walls.tsx"/>
 <tileset firstgid="6145" source="../[Town]VictorianTenement_LPC.tsx"/>
 <tileset firstgid="9217" source="../Assorted_LPC/lpc-floors/floors.tsx"/>
 <tileset firstgid="11265" source="../Assorted_LPC/lpc-bricks-v6/bricks.tsx"/>
 <tileset firstgid="13313" source="../[A]Wall-Up_pipo.tsx"/>
 <tileset firstgid="13409" source="../[A]LightShadow_pipo.tsx"/>
 <imagelayer id="6" name="ref" visible="0" offsetx="-224" offsety="-1184">
  <image source="../vtt-maps/District 6.webp" width="1728" height="2912"/>
 </imagelayer>
 <layer id="1" name="bg" width="22" height="30">
  <data encoding="csv">
0,13321,13315,13315,13315,13315,13315,13315,13315,13315,13315,13324,13315,13315,13315,13315,13315,13315,13315,13315,13315,13322,
0,0,3778,3778,3778,3778,3778,3778,3778,3778,3778,13325,8113,8113,8113,8113,8113,8113,8113,8113,8113,13325,
0,0,3842,3842,3842,3842,3842,3842,3842,3842,3842,13325,8145,8145,8145,8145,8145,8145,8145,8145,8145,13325,
0,0,3906,3906,3906,3906,3906,3906,3906,3906,3906,13325,8177,8177,8177,8177,8177,8177,8177,8177,8177,13325,
0,0,0,0,0,0,0,0,0,0,0,13325,10981,10981,10981,10981,10981,10981,10981,10981,10981,13325,
0,0,0,0,0,0,0,0,0,0,0,13325,10981,10981,10981,10981,10981,10981,10981,10981,10981,13325,
0,0,0,0,0,0,0,0,0,0,0,13325,10981,10981,10981,10981,10981,10981,10981,10981,10981,13325,
0,0,0,0,0,0,0,0,0,0,0,13325,10981,10981,10981,10981,10981,10981,10981,10981,10981,13325,
0,0,0,0,0,0,0,0,0,0,0,13325,10981,10981,10981,10981,10981,10981,10981,10981,10981,13325,
0,0,0,0,0,0,0,0,0,0,0,13325,10981,10981,10981,10981,10981,10981,10981,10981,10981,13325,
0,0,0,0,0,0,0,13321,13315,13315,13315,13331,13315,13315,13315,13322,10981,10981,10981,10981,10981,13325,
0,13329,13315,13315,13315,13315,13315,13330,3778,3778,3779,1528,10981,10981,10981,13325,10981,10981,10981,10981,10981,13325,
0,1857,0,3777,3778,3778,3778,3779,3843,10644,3844,1592,10981,10981,10981,8145,10981,10981,10981,10981,10981,1857,
0,1921,0,3841,3842,3842,3842,3843,3907,10643,3908,1656,10981,10981,10981,8177,10981,10981,10981,10981,10981,1921,
0,1985,0,3905,3906,3906,3906,3907,11222,11223,11224,11224,11224,11222,11223,11223,10981,10981,10981,10981,1860,1985,
0,11197,0,0,0,0,0,11224,11222,11223,11224,11224,11224,11222,11223,11223,11223,11223,11223,11223,1988,11197,
0,11197,0,0,0,0,0,11223,11224,11222,9640,9640,9384,9385,11223,11223,11223,11223,11223,11223,11197,11197,
0,11197,0,0,0,0,0,11223,11224,11222,9640,9640,9416,9417,11223,11223,11223,11223,11223,11223,11197,11197,
0,13321,13315,13315,13315,13315,13315,13315,11223,11222,11223,11224,11224,11222,11223,13325,10948,10948,10948,10948,10948,13325,
0,0,3394,3394,3394,3394,3394,3394,13329,13315,13315,13324,13315,13315,13315,13330,10948,10948,10948,10948,10948,13325,
0,0,3458,3458,3458,3459,11222,3457,3393,3394,3394,13325,4973,4974,4974,4975,10948,10948,10948,10948,10948,13325,
0,0,3306,3306,3306,3307,10850,3305,3457,1970,1970,13325,5037,5038,5038,5039,10948,10948,10948,10948,10948,13325,
0,0,10850,10850,10850,10850,10850,10850,3305,3306,3306,13325,5037,5102,5102,5103,10948,10948,10948,10948,10948,13325,
0,0,10850,10850,10850,10850,10850,10850,10850,10850,10850,13325,10948,10948,10948,10948,10948,10948,10948,10948,10948,13325,
0,0,10850,10850,10850,10850,10850,10850,10850,10850,10850,13325,10948,10948,10948,10948,10948,10948,10948,10948,10948,13325,
0,0,10850,10850,10850,10850,10850,10850,10850,10850,10850,13325,10948,10948,10948,10948,10948,10948,10948,10948,10948,13325,
0,0,10850,10850,10850,10850,10850,10850,10850,10850,10850,13325,10948,10948,10948,10948,10948,10948,10948,10948,10948,13325,
0,0,10850,10850,10850,10850,10850,10850,10850,10850,10850,13325,10948,10948,10948,10948,10948,10948,10948,10948,10948,13325,
0,0,10850,10850,10850,10850,10850,10850,10850,10850,10850,13325,10948,10948,10948,10948,10948,10948,10948,10948,10948,13325,
0,13329,13315,13315,13315,13315,13315,13315,13315,13315,13315,13331,13315,13315,13315,13315,13315,13315,13315,13315,13315,13330
</data>
 </layer>
 <layer id="2" name="mid" width="22" height="30">
  <data encoding="csv">
0,0,0,0,0,0,0,0,0,0,0,0,0,0,0,0,0,0,0,0,0,0,
0,0,0,0,0,0,0,0,0,0,0,0,0,0,0,0,0,0,0,0,0,0,
0,0,0,0,0,0,0,0,0,0,0,0,0,0,0,0,0,0,0,0,0,0,
0,0,0,0,0,0,0,0,0,0,0,0,0,0,0,0,0,0,0,0,0,0,
0,0,0,0,0,0,0,0,0,0,0,0,0,0,0,0,0,0,0,0,0,0,
0,0,0,0,0,0,0,0,0,0,0,0,0,0,0,0,0,0,0,0,0,0,
0,0,0,0,0,0,0,0,0,0,0,0,0,0,0,0,0,0,0,0,0,0,
0,0,0,0,0,0,0,0,0,0,0,0,0,0,0,0,0,0,0,0,0,0,
0,0,0,0,0,0,0,0,0,0,0,0,0,0,0,0,0,0,0,0,0,0,
0,0,0,0,0,0,0,0,0,0,0,0,0,0,0,0,0,0,0,0,0,0,
0,0,0,0,0,0,0,0,0,0,0,0,0,0,0,0,0,0,0,0,0,0,
0,0,0,0,0,0,0,0,0,0,0,0,8113,8113,8113,0,0,0,0,0,0,0,
0,13423,0,0,0,0,0,0,0,13422,0,0,8145,8113,8145,8112,8113,8113,8113,8113,0,13416,
0,13423,0,0,0,0,0,0,0,0,0,5802,8177,8177,8177,8144,8146,0,0,8144,0,13416,
0,0,0,0,0,0,0,0,0,0,0,5802,6016,0,0,8176,8178,0,0,8176,13416,13416,
0,0,0,0,0,0,0,0,0,0,0,5802,6016,0,0,0,0,0,13448,13417,13416,0,
0,0,0,0,0,0,0,0,0,0,0,5802,6080,0,0,0,0,0,13448,13417,13446,0,
0,0,0,0,0,0,0,0,0,0,0,5802,6144,0,0,0,0,0,13448,13417,13446,0,
0,0,0,0,0,0,0,0,0,0,0,0,0,0,0,0,0,0,0,0,0,0,
0,0,0,0,0,0,0,0,0,0,0,0,0,0,0,0,0,0,0,0,0,0,
0,0,0,0,0,0,13422,0,0,0,0,0,0,0,0,0,0,0,0,0,0,0,
0,0,0,0,0,0,0,0,0,0,0,0,0,0,0,0,0,0,0,0,0,0,
0,0,0,0,0,0,0,0,0,0,0,0,0,0,0,0,0,0,0,0,0,0,
0,0,0,0,0,0,0,0,0,0,0,0,0,0,0,0,0,0,0,0,0,0,
0,0,0,0,0,0,0,0,0,0,0,0,0,0,0,0,0,0,0,0,0,0,
0,0,0,0,0,0,0,0,0,0,0,0,0,0,0,0,0,0,0,0,0,0,
0,0,0,0,0,0,0,0,0,0,0,0,0,0,0,0,0,0,0,0,0,0,
0,0,0,0,0,0,0,0,0,0,0,0,0,0,0,0,0,0,0,0,0,0,
0,0,0,0,0,0,0,0,0,0,0,0,0,0,0,0,0,0,0,0,0,0,
0,0,0,0,0,0,0,0,0,0,0,0,0,0,0,0,0,0,0,0,0,0
</data>
 </layer>
 <layer id="3" name="foreground" width="22" height="30">
  <properties>
   <property name="z" type="int" value="1"/>
  </properties>
  <data encoding="csv">
13321,13315,13315,13315,13315,13315,13315,13315,13315,13315,13315,13324,13315,13315,13315,13315,13315,13315,13315,13315,13315,13322,
13325,0,0,0,0,0,0,0,0,0,0,13325,0,0,0,0,0,0,0,0,0,13325,
13325,0,0,0,0,0,0,0,0,0,0,13325,0,0,0,0,0,0,0,0,0,13325,
13325,0,0,0,0,0,0,0,0,0,0,13325,0,0,0,0,0,0,0,0,0,13325,
13325,0,0,0,0,0,0,0,0,0,0,13325,0,0,0,0,0,0,0,0,0,13325,
13325,0,0,0,0,0,0,0,0,0,0,13325,0,0,0,0,0,0,0,0,0,13325,
13325,0,0,0,0,0,0,0,0,0,0,13325,0,0,0,0,0,0,0,0,0,13325,
13325,0,0,0,0,0,0,0,0,0,0,13325,0,0,0,0,0,0,0,0,0,13325,
13325,0,0,0,0,0,0,0,0,0,0,13325,0,0,0,0,0,0,0,0,0,13325,
13325,0,0,0,0,0,0,0,0,0,0,13325,0,0,0,0,0,0,0,0,0,13325,
13325,0,0,0,0,0,0,13321,13315,13315,13315,13331,13315,13315,13315,13322,0,0,0,0,0,13325,
13323,13315,13315,13315,13315,13315,13315,13332,0,0,0,0,0,0,0,13329,13315,13315,13315,13315,13315,13330,
13325,0,0,0,0,0,0,13325,0,0,0,0,0,0,0,0,0,0,0,0,13365,13479,
13325,0,0,0,0,0,0,13325,0,0,0,0,0,0,0,0,0,0,0,0,13373,13479,
13325,0,0,0,0,0,0,13325,0,0,0,0,0,0,0,0,0,0,0,0,13313,13479,
13325,0,0,0,0,0,0,13325,0,0,0,0,0,0,0,0,0,0,0,0,0,13479,
13325,0,0,0,0,0,0,13325,0,0,0,0,0,0,0,0,0,0,0,0,0,13479,
13325,0,0,0,0,0,0,13325,0,0,0,0,0,0,0,0,0,0,0,0,0,13479,
13323,13315,13315,13315,13315,13315,13315,13332,0,0,0,0,0,0,0,13321,13315,13315,13315,13315,13315,13322,
13325,0,0,0,0,0,0,13329,13315,13315,0,13324,13315,13315,13315,13330,0,0,0,0,0,13325,
13325,0,0,0,0,0,0,0,0,0,0,13325,0,0,0,0,0,0,0,0,0,13325,
13325,0,0,0,0,0,0,0,0,0,0,13325,0,0,13475,0,0,0,0,0,0,13325,
13325,0,0,0,0,0,0,0,0,0,0,13325,0,0,0,0,0,0,0,0,0,13325,
13325,0,0,0,0,0,0,0,0,0,0,13325,0,0,0,0,0,0,0,0,0,13325,
13325,0,0,0,0,0,0,0,0,0,0,13325,0,0,0,0,0,0,0,0,0,13325,
13325,0,0,0,0,0,0,0,0,0,0,13325,0,0,0,0,0,0,0,0,0,13325,
13325,0,0,0,0,0,0,0,0,0,0,13325,0,0,0,0,0,0,0,0,0,13325,
13325,0,0,0,0,0,0,0,0,0,0,13325,0,0,0,0,0,0,0,0,0,13325,
13325,0,0,0,0,0,0,0,0,0,0,13325,0,0,0,0,0,0,0,0,0,13325,
13329,13315,13315,13315,13315,13315,13315,13315,13315,13315,13315,13331,13315,13315,13315,13315,13315,13315,13315,13315,13315,13330
</data>
 </layer>
 <objectgroup id="4" name="Object Layer 1">
  <object id="1" name="start" x="608" y="544">
   <point/>
  </object>
  <object id="2" name="exit-1" x="672" y="512" width="32" height="64">
   <properties>
    <property name="dest" value="somewhere-district-6"/>
    <property name="destDir" value="r"/>
    <property name="destX" type="float" value="31"/>
    <property name="destY" type="float" value="60"/>
   </properties>
  </object>
  <object id="3" x="336" y="528" width="32" height="32"/>
  <object id="4" x="400" y="528" width="32" height="32"/>
  <object id="6" x="0" y="0" width="32" height="960">
   <properties>
    <property name="collision" type="bool" value="true"/>
   </properties>
  </object>
  <object id="7" x="672" y="0" width="32" height="480">
   <properties>
    <property name="collision" type="bool" value="true"/>
   </properties>
  </object>
  <object id="8" x="672" y="672" width="32" height="288">
   <properties>
    <property name="collision" type="bool" value="true"/>
   </properties>
  </object>
  <object id="9" x="640" y="576" width="32" height="96">
   <properties>
    <property name="collision" type="bool" value="true"/>
   </properties>
  </object>
  <object id="10" x="32" y="0" width="640" height="32">
   <properties>
    <property name="collision" type="bool" value="true"/>
   </properties>
  </object>
  <object id="11" x="32" y="928" width="640" height="32">
   <properties>
    <property name="collision" type="bool" value="true"/>
   </properties>
  </object>
 </objectgroup>
</map>
