<?xml version="1.0" encoding="UTF-8"?>
<map version="1.11" tiledversion="1.11.2" orientation="orthogonal" renderorder="right-down" width="22" height="20" tilewidth="32" tileheight="32" infinite="0" nextlayerid="10" nextobjectid="22">
 <tileset firstgid="1" source="../Assorted_LPC/lpc-walls/walls.tsx"/>
 <tileset firstgid="6145" source="../[A]LightShadow_pipo.tsx"/>
 <tileset firstgid="6233" source="../Assorted_LPC/lpc-floors/floors.tsx"/>
 <tileset firstgid="8281" source="../Assorted_LPC/lpc_objectspack/Objects/Furniture/Countertops.tsx"/>
 <tileset firstgid="8317" source="../[Base]BaseChip_pipo.tsx"/>
 <tileset firstgid="9317" source="../Assorted_LPC/wooden_stairs/[LPC]WoodenStairs.tsx"/>
 <tileset firstgid="10913" source="../[A]Wall-Up_pipo.tsx"/>
 <tileset firstgid="11009" source="../[Town]MageCity_cc0.tsx"/>
 <tileset firstgid="11361" source="../custom_tilesets/[Somewhere]Ground.tsx"/>
 <tileset firstgid="11449" source="../Assorted_LPC/lpc-bricks-v6/bricks.tsx"/>
 <tileset firstgid="13497" source="../[Town]VictorianStreets_LPC.tsx"/>
 <tileset firstgid="15033" source="../custom_tilesets/[Somewhere]Wall-Down.tsx"/>
 <imagelayer id="3" name="ref" offsetx="32" offsety="128">
  <image source="../vtt-maps/Interiors/bathhouse-f1.webp" width="608" height="256"/>
 </imagelayer>
 <layer id="1" name="bg" width="22" height="20">
  <data encoding="csv">
0,0,0,0,0,0,0,0,0,0,0,0,0,0,0,0,0,0,0,0,0,0,
0,1674,1674,1674,1674,1674,1674,1674,1674,1674,1674,1674,1674,1674,1674,0,0,0,0,0,0,0,
0,1738,1738,1738,1738,1738,1738,1738,1738,1738,1738,1738,1738,1738,1738,0,0,0,0,0,0,0,
0,1802,1802,1802,1802,1802,1802,1802,1802,1802,1802,1802,1802,1802,1802,1674,1674,1674,1674,1674,0,0,
0,11057,11059,11057,11058,11059,11057,11058,11059,11057,11058,11059,11057,11058,11059,1738,1738,1739,11434,11434,1737,0,
0,11065,11067,11065,11066,13456,11065,11066,13455,11065,11066,13456,11065,11066,13456,1802,1802,1803,11442,11442,1801,0,
0,11065,11066,11059,13456,8149,8148,8180,8148,8180,8181,8148,8180,8180,8149,8148,8149,8148,8149,8181,8148,0,
0,11065,11066,11067,13424,8181,0,0,0,0,0,0,0,0,0,8180,8181,8148,8181,8181,8180,0,
0,0,0,0,13456,8148,0,0,0,0,0,0,0,0,0,8181,8148,8180,8149,8180,8181,0,
0,0,0,0,13455,8180,8149,8149,8181,8148,8180,8148,8180,8148,8149,8149,8181,8149,8148,8181,8149,0,
0,0,0,0,0,13455,11057,11058,11059,11057,11058,11059,0,0,13454,8148,8148,8148,8149,8149,8148,0,
0,0,0,0,0,8149,11065,11066,13455,11065,11066,13424,0,0,0,8180,8149,8180,8181,8148,8180,0,
0,0,0,0,0,8180,8149,8149,8181,8148,8180,8148,8180,8148,8149,8149,8180,8149,8148,8148,8148,8181,
0,0,0,0,0,8149,8180,8148,8181,8149,8180,8149,8180,8149,8180,8180,8149,8180,8148,8148,8149,8149,
0,0,0,0,0,0,0,0,0,0,0,0,0,0,0,0,0,0,0,0,0,0,
0,0,0,0,0,0,0,0,0,0,0,0,0,0,0,0,0,0,0,0,0,0,
0,0,0,0,0,0,0,0,0,0,0,0,0,0,0,0,0,0,0,0,0,0,
0,0,0,0,0,0,0,0,0,0,0,0,0,0,0,0,0,0,0,0,0,0,
0,0,0,0,0,0,0,0,0,0,0,0,0,0,0,0,0,0,0,0,0,0,
0,0,0,0,0,0,0,0,0,0,0,0,0,0,0,0,0,0,0,0,0,0
</data>
 </layer>
 <layer id="6" name="Ground Details" width="22" height="20">
  <data encoding="csv">
0,0,0,0,0,0,0,0,0,0,0,0,0,0,0,0,0,0,0,0,0,0,
0,0,0,0,0,0,0,0,0,0,0,0,0,0,0,0,0,0,0,0,0,0,
0,0,0,0,0,0,0,0,0,0,0,0,0,0,0,0,0,0,0,0,0,0,
0,0,0,0,0,0,0,0,0,0,0,0,0,0,0,0,0,0,0,0,0,0,
0,0,0,0,0,0,0,0,0,0,0,0,0,0,0,0,0,0,0,0,0,0,
0,0,0,0,0,0,0,0,0,0,0,0,0,0,0,0,0,0,0,0,0,0,
0,0,0,0,0,0,0,0,0,0,0,0,0,0,0,0,0,0,0,0,0,0,
0,0,0,0,0,0,0,0,0,0,0,0,0,0,0,0,0,0,0,0,0,0,
0,0,0,0,0,0,0,0,0,0,0,0,0,0,0,0,0,0,0,0,0,0,
0,0,0,0,0,0,0,0,0,0,0,0,14827,14827,0,0,0,0,0,0,0,0,
0,0,0,0,0,0,0,0,0,0,0,0,14793,15010,0,0,0,0,0,0,0,0,
0,0,0,0,0,0,0,0,0,0,0,0,14809,0,0,0,0,0,0,0,0,0,
0,0,0,0,0,0,0,0,0,0,0,0,0,0,0,0,0,0,0,0,0,0,
0,0,0,0,0,0,0,0,0,0,0,0,0,0,0,0,0,0,0,0,0,0,
0,0,0,0,0,0,0,0,0,0,0,0,0,0,0,0,0,0,0,0,0,0,
0,0,0,0,0,0,0,0,0,0,0,0,0,0,0,0,0,0,0,0,0,0,
0,0,0,0,0,0,0,0,0,0,0,0,0,0,0,0,0,0,0,0,0,0,
0,0,0,0,0,0,0,0,0,0,0,0,0,0,0,0,0,0,0,0,0,0,
0,0,0,0,0,0,0,0,0,0,0,0,0,0,0,0,0,0,0,0,0,0,
0,0,0,0,0,0,0,0,0,0,0,0,0,0,0,0,0,0,0,0,0,0
</data>
 </layer>
 <layer id="9" name="mid" width="22" height="20">
  <properties>
   <property name="z" type="int" value="0"/>
  </properties>
  <data encoding="csv">
0,0,0,0,0,0,0,0,0,0,0,0,0,0,0,0,0,0,0,0,0,0,
0,0,0,0,0,0,0,0,0,0,0,0,0,0,0,0,0,0,0,0,0,0,
0,0,0,0,0,0,0,0,0,0,0,0,0,0,0,0,0,0,0,0,0,0,
0,0,0,1673,1674,0,1674,1674,0,1674,1674,0,1674,1674,0,0,0,0,0,0,0,0,
0,0,0,1737,1676,0,1738,1738,0,1738,1738,0,1738,1738,0,0,0,0,0,0,0,0,
0,0,0,1801,1740,0,1802,1802,0,1802,1802,0,1802,1802,0,0,0,0,0,0,0,0,
0,0,0,0,1804,0,0,0,0,0,0,0,0,0,0,0,0,0,0,0,0,0,
0,0,0,0,0,0,0,0,0,0,0,0,14030,14030,13966,0,0,0,0,0,0,0,
0,0,0,0,0,0,0,0,0,0,0,0,14827,14827,13982,0,0,0,0,0,0,0,
0,1674,1674,1674,1674,0,1673,1674,1674,1674,1674,1675,14827,14827,13982,0,0,0,0,0,0,0,
0,1738,1738,1738,1738,0,1737,1738,0,1738,1738,0,14793,15010,0,0,0,0,0,0,0,0,
0,1802,1802,1802,1802,0,1801,1802,0,1802,1802,0,14809,0,0,0,0,0,0,0,0,0,
0,0,0,0,0,0,0,0,0,0,0,0,0,0,0,0,0,0,0,0,0,0,
0,0,0,0,0,0,0,0,0,0,0,0,0,0,0,0,0,0,0,0,0,0,
0,0,0,0,0,0,0,0,0,0,0,0,0,0,0,0,0,0,0,0,0,0,
0,0,0,0,0,0,0,0,0,0,0,0,0,0,0,0,0,0,0,0,0,0,
0,0,0,0,0,0,0,0,0,0,0,0,0,0,0,0,0,0,0,0,0,0,
0,0,0,0,0,0,0,0,0,0,0,0,0,0,0,0,0,0,0,0,0,0,
0,0,0,0,0,0,0,0,0,0,0,0,0,0,0,0,0,0,0,0,0,0,
0,0,0,0,0,0,0,0,0,0,0,0,0,0,0,0,0,0,0,0,0,0
</data>
 </layer>
 <layer id="4" name="shadows" width="22" height="20">
  <data encoding="csv">
0,0,0,0,0,0,0,0,0,0,0,0,0,0,0,0,0,0,0,0,0,0,
0,0,0,0,0,0,0,0,0,0,0,0,0,0,0,0,0,0,0,0,0,0,
0,0,0,0,0,0,0,0,0,0,0,0,0,0,0,0,0,0,0,0,0,0,
0,0,0,0,0,0,0,0,0,0,0,0,0,0,0,0,0,0,0,0,0,0,
0,0,0,0,0,6153,0,0,6153,0,0,6153,0,0,6153,0,0,0,6158,6158,0,0,
0,0,0,0,0,6158,0,0,6158,0,0,6158,0,0,6158,0,0,0,0,0,0,0,
0,0,0,0,6152,0,0,0,0,0,0,0,0,0,6176,0,0,0,0,0,0,0,
0,0,0,0,6152,0,0,0,6175,0,0,0,0,0,6184,0,0,0,0,0,0,0,
0,0,0,0,6152,0,0,0,0,0,0,0,0,0,0,0,0,0,0,0,0,0,
0,0,0,0,6152,0,0,0,0,0,0,0,0,0,0,0,0,0,0,0,0,0,
0,0,0,0,0,0,0,0,6153,0,0,6153,0,0,0,0,0,0,0,0,0,0,
0,0,0,0,0,0,0,0,6158,0,0,6158,0,0,0,0,0,0,0,0,0,0,
0,0,0,0,0,0,0,0,0,0,0,0,0,0,0,0,0,0,0,0,0,0,
0,0,0,0,0,0,0,0,0,0,0,0,0,0,0,0,0,0,0,0,0,0,
0,0,0,0,0,0,0,0,0,0,0,0,0,0,0,0,0,0,0,0,0,0,
0,0,0,0,0,0,0,0,0,0,0,0,0,0,0,0,0,0,0,0,0,0,
0,0,0,0,0,0,0,0,0,0,0,0,0,0,0,0,0,0,0,0,0,0,
0,0,0,0,0,0,0,0,0,0,0,0,0,0,0,0,0,0,0,0,0,0,
0,0,0,0,0,0,0,0,0,0,0,0,0,0,0,0,0,0,0,0,0,0,
0,0,0,0,0,0,0,0,0,0,0,0,0,0,0,0,0,0,0,0,0,0
</data>
 </layer>
 <layer id="2" name="foreground" width="22" height="20">
  <properties>
   <property name="z" type="int" value="1"/>
  </properties>
  <data encoding="csv">
10989,10983,10983,10983,10983,10983,10983,10983,10983,10983,10983,10983,10983,10983,10983,10990,0,0,0,0,0,0,
10976,0,0,10918,10919,10920,10918,10919,10920,10918,10919,10920,10918,10919,10920,10974,0,0,0,0,0,0,
10976,0,0,10934,10935,10936,10934,10935,10936,10934,10935,10936,10934,10935,10936,10985,10983,10983,10983,10983,10983,10990,
10976,0,0,1673,1674,1674,1674,1674,1674,1674,1674,1674,1674,1674,1674,10973,1674,1674,1674,1674,1674,10974,
10976,0,0,0,0,0,0,0,0,0,0,0,0,0,0,10973,0,0,0,0,0,10974,
10976,0,0,0,0,0,0,0,0,0,0,0,0,0,0,10973,0,0,0,0,0,10974,
10976,0,0,0,0,0,0,0,0,0,0,0,0,0,0,10973,0,0,0,0,0,10974,
10976,0,0,0,0,0,10918,10919,10920,10918,10919,10920,0,0,0,10973,0,0,0,0,0,10974,
10976,0,0,0,0,0,10934,10935,10936,10934,10935,10936,0,0,0,10973,0,0,0,0,0,10974,
11003,10963,10963,10963,10963,0,1673,1674,1674,1674,1674,1675,0,0,0,0,0,0,0,0,0,10974,
10976,0,0,0,0,0,0,0,0,0,0,0,0,0,0,0,0,0,0,0,0,10974,
10976,0,0,0,0,0,0,0,0,0,0,0,0,0,0,0,0,0,0,0,0,10974,
10976,0,0,0,0,0,0,0,0,0,0,0,0,0,0,0,0,0,0,0,0,10974,
10976,0,0,10918,10919,10920,10918,10919,10920,10918,10919,10920,10918,10919,10920,0,0,0,0,0,0,10974,
10976,0,0,10934,10935,10936,10934,10935,10936,10934,10935,10936,10934,10935,10936,0,0,0,0,0,0,10974,
10997,10967,10967,10967,10967,10967,10967,10967,10967,10967,10967,10967,10967,10967,10967,10967,10967,10967,10967,10967,10967,10998,
1676,0,0,0,0,0,0,0,0,0,0,0,0,0,0,0,0,0,0,0,0,1676,
1740,0,0,0,0,0,0,0,0,0,0,0,0,0,0,0,0,0,0,0,0,1740,
1804,15087,15087,15087,15087,15087,15087,15087,15087,15087,15087,15087,15087,15087,15087,15087,15087,15087,15087,15087,15087,1804,
0,0,0,0,0,0,0,0,0,0,0,0,0,0,0,0,0,0,0,0,0,0
</data>
 </layer>
 <objectgroup id="7" name="Object Layer 1">
  <object id="1" name="exit-n" x="576" y="128" width="64" height="32">
   <properties>
    <property name="dest" value="somewhere-district-2"/>
    <property name="destDir" value="u"/>
    <property name="destX" type="float" value="47.5"/>
    <property name="destY" type="float" value="70"/>
   </properties>
  </object>
  <object id="16" name="start" x="608" y="224">
   <point/>
  </object>
  <object id="17" name="largo-baggins" x="592" y="360">
   <point/>
  </object>
 </objectgroup>
 <objectgroup id="8" name="collisions">
  <object id="3" x="0" y="96" width="32" height="512">
   <properties>
    <property name="collision" type="bool" value="true"/>
   </properties>
  </object>
  <object id="4" x="32" y="96" width="448" height="32">
   <properties>
    <property name="collision" type="bool" value="true"/>
   </properties>
  </object>
  <object id="5" x="480" y="192" width="32" height="64">
   <properties>
    <property name="collision" type="bool" value="true"/>
   </properties>
  </object>
  <object id="6" x="672" y="0" width="32" height="608">
   <properties>
    <property name="collision" type="bool" value="true"/>
   </properties>
  </object>
  <object id="9" x="32" y="576" width="640" height="32">
   <properties>
    <property name="collision" type="bool" value="true"/>
   </properties>
  </object>
  <object id="13" x="32" y="256" width="128" height="2">
   <properties>
    <property name="collision" type="bool" value="true"/>
   </properties>
  </object>
  <object id="14" x="96" y="190" width="64" height="2">
   <properties>
    <property name="collision" type="bool" value="true"/>
   </properties>
  </object>
  <object id="15" x="640" y="32" width="32" height="160">
   <properties>
    <property name="collision" type="bool" value="true"/>
   </properties>
  </object>
  <object id="18" x="480" y="96" width="96" height="96">
   <properties>
    <property name="collision" type="bool" value="true"/>
   </properties>
  </object>
  <object id="19" x="192" y="190" width="64" height="2">
   <properties>
    <property name="collision" type="bool" value="true"/>
   </properties>
  </object>
  <object id="20" x="288" y="190" width="64" height="2">
   <properties>
    <property name="collision" type="bool" value="true"/>
   </properties>
  </object>
  <object id="21" x="384" y="190" width="64" height="2">
   <properties>
    <property name="collision" type="bool" value="true"/>
   </properties>
  </object>
 </objectgroup>
</map>
