<?xml version="1.0" encoding="UTF-8"?>
<map version="1.11" tiledversion="1.11.2" orientation="orthogonal" renderorder="right-down" width="19" height="51" tilewidth="32" tileheight="32" infinite="0" nextlayerid="11" nextobjectid="31">
 <tileset firstgid="1" source="../Assorted_LPC/lpc-walls/walls.tsx"/>
 <tileset firstgid="6145" source="../[A]LightShadow_pipo.tsx"/>
 <tileset firstgid="6233" source="../Assorted_LPC/lpc-floors/floors.tsx"/>
 <tileset firstgid="8281" source="../Assorted_LPC/lpc_objectspack/Objects/Furniture/Countertops.tsx"/>
 <tileset firstgid="8317" source="../[Base]BaseChip_pipo.tsx"/>
 <tileset firstgid="9317" source="../Assorted_LPC/wooden_stairs/[LPC]WoodenStairs.tsx"/>
 <layer id="10" name="temporary-backing" width="19" height="51">
  <data encoding="csv">
0,0,7993,7993,7993,7993,7993,7993,7993,7993,7993,7993,7993,7993,7993,7993,7993,0,0,
0,0,7993,7993,7993,7993,7993,7993,7993,7993,7993,7993,7993,7993,7993,7993,7993,0,0,
0,0,7993,7993,7993,7993,7993,7993,7993,7993,7993,7993,7993,7993,7993,7993,7993,0,0,
0,0,7993,7993,7993,7993,7993,7993,7993,7993,7993,7993,7993,7993,7993,7993,7993,0,0,
0,0,7993,7993,7993,7993,7993,7993,7993,7993,7993,7993,7993,7993,7993,7993,7993,0,0,
0,0,7993,7993,7993,7993,7993,7993,7993,7993,7993,7993,7993,7993,7993,7993,7993,0,0,
0,0,0,7993,7993,7993,7993,7993,7993,7993,7993,7993,7993,7993,7993,7993,7993,0,0,
0,0,0,7993,7993,7993,7993,7993,7993,7993,7993,7993,7993,7993,7993,7993,7993,0,0,
0,0,0,7993,7993,7993,7993,7993,7993,7993,7993,7993,7993,7993,7993,7993,7993,0,0,
0,0,0,7993,7993,7993,7993,7993,7993,7993,7993,7993,7993,7993,7993,7993,7993,0,0,
0,0,0,7993,7993,7993,7993,7993,7993,7993,7993,7993,7993,7993,7993,7993,7993,0,0,
0,0,0,7993,7993,7993,7993,7993,7993,7993,7993,7993,7993,7993,7993,7993,7993,0,0,
0,0,0,7993,7993,7993,7993,7993,7993,7993,7993,7993,7993,7993,7993,7993,7993,0,0,
0,0,0,7993,7993,7993,7993,7993,7993,7993,7993,7993,7993,7993,7993,7993,7993,0,0,
0,0,0,7993,7993,7993,7993,7993,7993,7993,7993,7993,7993,7993,7993,7993,7993,0,0,
0,7993,7993,7993,7993,7993,7993,7993,7993,7993,7993,7993,7993,7993,7993,7993,7993,0,0,
0,7993,7993,7993,7993,7993,7993,7993,7993,7993,7993,7993,7993,7993,7993,7993,7993,0,0,
0,7993,7993,7993,7993,7993,7993,7993,7993,7993,7993,7993,7993,7993,7993,7993,7993,0,0,
0,7993,7993,7993,7993,7993,7993,7993,7993,7993,7993,7993,7993,7993,7993,7993,7993,0,0,
0,7993,7993,7993,7993,7993,7993,7993,7993,7993,7993,7993,7993,7993,7993,7993,7993,0,0,
0,7993,7993,7993,7993,7993,7993,7993,7993,7993,7993,7993,7993,7993,7993,7993,7993,0,0,
0,7993,7993,7993,7993,7993,7993,7993,7993,7993,7993,7993,7993,7993,7993,7993,7993,0,0,
0,0,0,7993,7993,7993,7993,7993,7993,7993,7993,7993,7993,7993,7993,7993,7993,0,0,
0,0,0,7993,7993,7993,7993,7993,7993,7993,7993,7993,7993,7993,7993,7993,7993,0,0,
0,0,0,7993,7993,7993,7993,7993,7993,7993,7993,7993,7993,7993,7993,7993,7993,0,0,
0,0,0,7993,7993,7993,7993,7993,7993,7993,7993,7993,7993,7993,7993,7993,7993,0,0,
0,0,0,7993,7993,7993,7993,7993,7993,7993,7993,7993,7993,7993,7993,7993,7993,0,0,
0,0,0,7993,7993,7993,7993,7993,7993,7993,7993,7993,7993,7993,7993,7993,7993,0,0,
0,0,0,7993,7993,7993,7993,7993,7993,7993,7993,7993,7993,7993,7993,7993,7993,0,0,
0,0,0,7993,7993,7993,7993,7993,7993,7993,7993,7993,7993,7993,7993,7993,7993,0,0,
0,0,0,7993,7993,7993,7993,7993,7993,7993,7993,7993,7993,7993,7993,7993,7993,0,0,
0,0,0,7993,7993,7993,7993,7993,7993,7993,7993,7993,7993,7993,7993,7993,7993,0,0,
0,0,0,7993,7993,7993,7993,7993,7993,7993,7993,7993,7993,7993,7993,7993,7993,0,0,
0,0,7993,7993,7993,7993,7993,7993,7993,7993,7993,7993,7993,7993,7993,7993,7993,0,0,
0,0,7993,7993,7993,7993,7993,7993,7993,7993,7993,7993,7993,7993,7993,7993,7993,0,0,
0,0,7993,7993,7993,7993,7993,7993,7993,7993,7993,7993,7993,7993,7993,7993,7993,0,0,
0,0,7993,7993,7993,7993,7993,7993,7993,7993,7993,7993,7993,7993,7993,7993,7993,0,0,
0,0,7993,7993,7993,7993,7993,7993,7993,7993,7993,7993,7993,7993,7993,7993,7993,0,0,
0,0,0,7993,7993,7993,7993,7993,7993,7993,7993,7993,7993,7993,7993,7993,7993,0,0,
0,0,0,7993,7993,7993,7993,7993,7993,7993,7993,7993,7993,7993,7993,7993,7993,0,0,
0,0,0,0,0,0,0,0,0,0,0,0,7993,7993,7993,0,0,0,0,
0,0,0,0,0,0,0,0,0,0,0,0,7993,7993,7993,0,0,0,0,
0,0,0,0,0,0,0,0,0,0,0,0,7993,7993,7993,0,0,0,0,
0,0,0,0,0,0,0,0,0,0,0,0,0,0,0,0,0,0,0,
0,0,0,0,0,0,0,0,0,0,0,0,0,0,0,0,0,0,0,
0,0,0,0,0,0,0,0,0,0,0,0,0,0,0,0,0,0,0,
0,0,0,0,0,0,0,0,0,0,0,0,0,0,0,0,0,0,0,
0,0,0,0,0,0,0,0,0,0,0,0,0,0,0,0,0,0,0,
0,0,0,0,0,0,0,0,0,0,0,0,0,0,0,0,0,0,0,
0,0,0,0,0,0,0,0,0,0,0,0,0,0,0,0,0,0,0,
0,0,0,0,0,0,0,0,0,0,0,0,0,0,0,0,0,0,0
</data>
 </layer>
 <imagelayer id="3" name="ref" visible="0" offsetx="-256" offsety="-736">
  <image source="../vtt-maps/District 2.webp" width="2112" height="2560"/>
 </imagelayer>
 <layer id="1" name="bg" width="19" height="51">
  <data encoding="csv">
0,0,0,618,618,618,618,618,618,618,0,0,0,0,0,0,0,0,0,
0,0,0,2453,2454,2454,2454,2454,2454,2454,2454,2454,2454,2454,2454,2455,0,0,0,
0,0,0,2517,2518,2518,2518,2518,2518,2518,2518,2518,2518,2518,2518,2519,0,0,0,
0,0,0,2581,2582,2582,2582,2582,2582,2582,2582,2582,2582,2582,2582,2583,0,0,0,
0,0,0,7468,7468,7468,7468,7468,7468,7468,7468,7468,7468,7468,7468,7468,0,0,0,
0,0,0,7468,7468,7468,7468,7468,7468,7468,7468,7468,7468,7468,7468,7468,0,0,0,
0,0,0,7468,7468,7468,7468,7468,7468,7468,7468,7468,7468,7468,7468,7468,0,0,0,
0,0,0,7468,7468,7468,7468,7468,7468,7468,7468,7468,7468,7468,7468,7468,0,0,0,
0,0,0,7468,7468,7468,7468,7468,7468,7468,7468,7468,7468,7468,7468,7468,0,0,0,
0,0,0,7468,7468,7468,7468,7468,7468,7468,7468,7468,7468,7468,7385,7385,0,0,0,
0,0,0,0,0,0,0,0,0,0,0,0,0,0,7385,7385,0,0,0,
0,0,0,0,0,0,0,0,0,0,7483,7484,7483,7484,7385,7385,0,0,0,
0,0,0,0,0,0,0,0,0,0,7515,7516,7515,7516,7385,7385,0,0,0,
0,0,0,0,0,0,0,0,0,0,7483,7484,7483,7484,7489,7489,0,0,0,
0,0,0,7618,0,8206,8206,8206,7515,7516,7515,7516,7515,7516,7489,7489,0,0,0,
0,0,0,7618,0,8206,8206,8206,7516,7515,7483,7484,7483,7484,7489,7489,0,0,0,
0,0,0,7618,0,8206,8206,8206,7484,7483,7515,7516,7515,7516,7487,7489,0,0,0,
0,0,0,7618,0,0,0,0,7516,7515,7483,7484,7483,7484,7489,7489,0,0,0,
0,0,0,7618,0,0,0,0,7484,7483,7515,7516,7515,7516,7489,7489,0,0,0,
0,0,0,7618,7618,7618,7618,7618,7516,7515,7483,7484,7483,7484,7489,7489,0,0,0,
0,0,0,0,0,0,0,7618,7484,7483,7515,7516,7515,7516,7489,7489,0,0,0,
0,0,0,7484,7483,7484,7483,7484,7516,7515,7483,7484,7483,7484,7489,7489,0,0,0,
0,0,0,7516,7515,7516,7515,7516,7484,7483,7515,7516,7515,7516,7489,7489,0,0,0,
0,0,0,7484,7483,7484,7516,7515,7516,7515,7483,7484,7483,7484,7489,7487,0,0,0,
0,0,0,7516,7515,7516,7484,7483,7484,7483,7515,7516,7515,7516,7489,7489,0,0,0,
0,0,0,7484,7483,7484,7483,7484,7483,7484,7483,7484,7483,7484,7489,7489,0,0,0,
0,0,0,0,0,0,7515,7516,7515,7516,7515,7516,7515,7516,7489,7489,0,0,0,
0,0,0,5130,5130,5130,5130,5125,5126,5126,5127,5130,5130,5131,7489,7487,0,0,0,
0,0,0,5194,5194,5194,5194,5189,7515,7516,5191,5194,5194,5195,7489,7489,0,0,0,
0,0,0,5258,5258,5258,5258,5253,7483,7484,5255,5258,5258,5259,7487,7489,0,0,0,
0,0,5139,7489,7489,7487,7489,7489,7489,7489,7489,7489,7489,7489,7489,7489,5137,0,0,
0,0,5203,7489,7489,7489,7489,7489,7489,7487,7489,7489,7489,7489,7489,7489,5201,0,0,
0,0,5267,7489,7489,7489,7489,7489,7489,7489,7489,7489,7489,7489,7489,7489,5265,0,0,
0,514,7489,7489,7489,7489,7489,7489,7489,7489,7489,7489,7489,7489,7489,7489,7489,514,0,
0,514,7489,7489,7489,7487,7489,7489,7489,7487,7489,7489,7489,7487,7489,7489,7489,514,0,
0,0,0,7489,7489,7489,7489,7489,7489,7489,7489,7489,7489,7489,7489,7489,0,0,0,
0,0,0,7489,7489,7489,7489,7489,7487,7489,7489,7489,7489,7489,7489,7489,0,0,0,
0,0,0,7489,7487,7489,7489,7489,7489,7489,7489,7489,7489,4221,4223,7489,0,0,0,
0,0,0,7489,7489,7489,7489,7489,7489,7489,7489,7489,7489,4285,4287,7489,0,0,0,
0,0,0,0,0,0,0,0,0,0,0,0,0,4349,4351,7522,0,0,0,
0,0,0,0,0,0,0,0,0,0,0,0,0,7481,7482,7481,0,0,0,
0,0,0,0,0,0,0,0,0,0,0,0,0,7482,7481,7482,0,0,0,
0,0,0,0,0,0,0,0,0,0,0,0,0,0,0,0,0,0,0,
0,0,0,0,0,0,0,0,0,0,0,0,0,0,0,0,0,0,0,
0,0,0,0,0,0,0,0,0,0,0,0,0,0,0,0,0,0,0,
0,0,0,0,0,0,0,0,0,0,0,0,0,0,0,0,0,0,0,
0,0,0,0,0,0,0,0,0,0,0,0,0,0,0,0,0,0,0,
0,0,0,0,0,0,0,0,0,0,0,0,0,0,0,0,0,0,0,
0,0,0,0,0,0,0,0,0,0,0,0,0,0,0,0,0,0,0,
0,0,0,0,0,0,0,0,0,0,0,0,0,0,0,0,0,0,0,
0,0,0,0,0,0,0,0,0,0,0,0,0,0,0,0,0,0,0
</data>
 </layer>
 <layer id="6" name="Ground Details" width="19" height="51">
  <data encoding="csv">
0,0,0,0,0,0,0,0,0,0,0,0,0,0,0,0,0,0,0,
0,0,0,0,0,0,0,0,0,0,0,0,0,0,0,0,0,0,0,
0,0,0,0,0,0,0,0,0,0,0,0,0,0,0,0,0,0,0,
0,0,0,0,0,0,0,0,0,0,0,0,0,0,0,0,0,0,0,
0,0,0,0,0,0,0,0,0,0,0,0,0,0,0,0,0,0,0,
0,0,0,0,0,0,0,0,0,0,0,0,0,0,0,0,0,0,0,
0,0,0,0,0,0,0,0,0,0,0,0,0,0,0,0,0,0,0,
0,0,0,0,0,0,0,0,0,0,0,0,0,0,0,0,0,0,0,
0,0,0,0,0,0,0,0,0,0,0,0,0,0,0,0,0,0,0,
0,0,0,0,0,0,0,0,0,0,0,0,0,0,0,0,0,0,0,
0,0,0,0,0,0,0,0,0,0,0,0,0,0,0,0,0,0,0,
0,0,0,0,0,0,0,0,0,0,0,0,0,0,0,0,0,0,0,
0,0,0,0,0,0,0,0,0,0,0,0,0,0,0,0,0,0,0,
0,0,0,0,0,0,0,0,0,0,0,0,0,0,0,0,0,0,0,
0,0,0,0,0,0,0,0,0,0,0,0,0,0,0,0,0,0,0,
0,0,0,0,0,0,0,0,0,0,0,0,0,0,0,0,0,0,0,
0,0,0,0,0,0,0,0,0,0,0,0,0,0,0,0,0,0,0,
0,0,0,0,0,0,0,0,0,0,0,0,0,0,0,0,0,0,0,
0,0,0,0,0,0,0,0,0,0,0,0,0,0,0,0,0,0,0,
0,0,0,0,0,0,0,0,0,0,0,0,0,0,0,0,0,0,0,
0,0,0,0,0,0,0,0,0,0,0,0,0,0,0,0,0,0,0,
0,0,0,0,0,0,0,0,0,0,0,0,0,0,0,0,0,0,0,
0,0,0,0,0,0,0,0,0,0,0,0,0,0,0,0,0,0,0,
0,0,0,0,0,0,0,0,0,0,0,0,0,0,0,0,0,0,0,
0,0,0,0,0,0,0,0,0,0,0,0,0,0,0,0,0,0,0,
0,0,0,0,0,0,0,0,0,0,0,0,0,0,0,0,0,0,0,
0,0,0,0,0,0,0,0,0,0,0,0,0,0,0,0,0,0,0,
0,0,0,0,0,0,0,0,0,0,0,0,0,0,0,0,0,0,0,
0,0,0,0,0,0,0,0,0,0,0,0,0,0,0,0,0,0,0,
0,0,0,0,0,0,0,0,0,0,0,0,0,0,0,0,0,0,0,
0,0,0,0,0,0,0,0,0,0,0,0,0,0,0,0,0,0,0,
0,0,0,0,0,0,0,0,0,0,0,0,0,0,0,0,0,0,0,
0,0,0,0,0,0,0,0,0,0,0,0,0,0,0,0,0,0,0,
0,0,0,0,0,0,0,0,0,0,0,0,0,0,0,0,0,0,0,
0,0,0,0,0,0,0,0,0,0,0,0,0,0,0,0,0,0,0,
0,0,0,0,0,0,0,0,0,0,0,0,0,0,0,0,0,0,0,
0,0,0,0,0,0,0,0,0,0,0,0,0,0,0,0,0,0,0,
0,0,0,0,0,0,0,0,0,0,0,0,0,0,0,0,0,0,0,
0,0,0,0,0,0,0,0,0,0,0,0,0,0,0,0,0,0,0,
0,0,0,0,0,0,0,0,0,0,0,0,0,0,0,0,0,0,0,
0,0,0,0,0,0,0,0,0,0,0,0,0,9623,9624,0,0,0,0,
0,0,0,0,0,0,0,0,0,0,0,0,0,9661,9662,0,0,0,0,
0,0,0,0,0,0,0,0,0,0,0,0,0,0,0,0,0,0,0,
0,0,0,0,0,0,0,0,0,0,0,0,0,0,0,0,0,0,0,
0,0,0,0,0,0,0,0,0,0,0,0,0,0,0,0,0,0,0,
0,0,0,0,0,0,0,0,0,0,0,0,0,0,0,0,0,0,0,
0,0,0,0,0,0,0,0,0,0,0,0,0,0,0,0,0,0,0,
0,0,0,0,0,0,0,0,0,0,0,0,0,0,0,0,0,0,0,
0,0,0,0,0,0,0,0,0,0,0,0,0,0,0,0,0,0,0,
0,0,0,0,0,0,0,0,0,0,0,0,0,0,0,0,0,0,0,
0,0,0,0,0,0,0,0,0,0,0,0,0,0,0,0,0,0,0
</data>
 </layer>
 <layer id="9" name="mid" width="19" height="51">
  <properties>
   <property name="z" type="int" value="0"/>
  </properties>
  <data encoding="csv">
0,0,0,0,0,0,0,0,0,0,0,0,0,0,0,0,0,0,0,
0,0,0,0,0,0,0,0,0,0,0,0,0,0,0,0,0,0,0,
0,0,0,0,0,0,0,0,0,0,0,0,0,0,0,0,0,0,0,
0,0,0,0,0,0,0,0,0,0,0,0,0,0,0,0,0,0,0,
0,0,0,0,0,0,0,0,0,0,0,0,0,0,0,0,0,0,0,
0,0,0,0,0,0,0,0,0,0,0,0,0,0,0,0,0,0,0,
0,0,0,0,0,0,0,0,0,0,0,0,0,0,0,0,0,0,0,
0,0,0,0,0,0,0,0,0,0,0,0,0,0,0,0,0,0,0,
0,0,0,0,0,0,0,0,0,0,0,0,0,0,0,0,0,0,0,
0,0,0,0,0,0,0,0,0,0,0,0,0,0,0,0,0,0,0,
0,0,0,0,0,0,0,0,0,0,0,0,0,0,4945,4947,0,0,0,
0,0,0,1516,0,1529,1530,1531,0,4933,4934,4934,4935,0,5009,5011,0,0,0,
0,0,0,1580,0,1593,1594,1595,0,4997,4998,4998,4999,0,5073,5075,0,0,0,
0,0,0,1644,0,1657,1658,1659,0,5061,5062,5062,5063,0,0,0,0,0,0,
0,0,0,0,0,0,0,0,0,0,0,0,0,0,0,0,0,0,0,
0,0,0,0,0,0,0,0,0,0,0,0,0,0,0,0,0,0,0,
0,0,0,0,0,1513,1514,1515,0,0,0,0,0,0,0,0,0,0,0,
0,0,0,0,0,1577,1578,1579,0,0,0,0,0,0,0,0,0,0,0,
0,0,0,0,0,1641,1642,1643,0,0,0,0,0,0,0,0,0,0,0,
0,0,0,0,0,0,0,0,0,0,0,0,0,0,0,0,0,0,0,
0,0,0,0,0,0,0,0,0,0,0,0,0,0,0,0,0,0,0,
0,0,0,0,0,0,0,0,0,0,0,0,0,0,0,0,0,0,0,
0,0,0,0,0,0,0,0,0,0,0,0,0,0,0,0,0,0,0,
0,0,0,0,0,0,0,0,0,0,0,0,0,0,0,0,0,0,0,
0,0,0,0,0,0,0,0,0,0,0,0,0,0,0,0,0,0,0,
0,0,0,0,0,0,0,0,0,0,0,0,0,0,0,0,0,0,0,
0,0,0,0,0,0,0,0,0,0,0,0,0,0,0,0,0,0,0,
0,0,0,0,0,0,0,0,0,0,0,0,0,0,0,0,0,0,0,
0,0,0,0,0,0,0,0,0,0,0,0,0,0,0,0,0,0,0,
0,0,0,0,0,0,0,0,0,0,0,0,0,0,0,0,0,0,0,
0,0,0,0,0,0,0,0,0,0,0,0,0,0,0,0,0,0,0,
0,0,0,0,0,0,0,0,0,0,0,0,0,0,0,0,0,0,0,
0,0,0,0,0,0,0,0,0,0,0,0,0,0,0,0,0,0,0,
0,0,0,0,0,0,0,0,0,0,0,0,0,0,0,0,0,0,0,
0,0,0,0,0,0,0,0,0,0,0,0,0,0,0,0,0,0,0,
0,0,0,0,0,0,0,0,0,0,0,0,0,0,0,0,0,0,0,
0,0,0,0,0,0,0,0,0,0,0,0,0,0,0,0,0,0,0,
0,0,0,0,0,0,0,0,0,0,0,0,0,0,0,0,0,0,0,
0,0,0,0,0,0,0,0,0,0,0,0,0,0,0,0,0,0,0,
0,0,0,0,0,0,0,0,0,0,0,0,0,9577,0,0,0,0,0,
0,0,0,0,0,0,0,0,0,0,0,0,0,9615,9616,0,0,0,0,
0,0,0,0,0,0,0,0,0,0,0,0,0,0,0,0,0,0,0,
0,0,0,0,0,0,0,0,0,0,0,0,0,0,0,0,0,0,0,
0,0,0,0,0,0,0,0,0,0,0,0,0,0,0,0,0,0,0,
0,0,0,0,0,0,0,0,0,0,0,0,0,0,0,0,0,0,0,
0,0,0,0,0,0,0,0,0,0,0,0,0,0,0,0,0,0,0,
0,0,0,0,0,0,0,0,0,0,0,0,0,0,0,0,0,0,0,
0,0,0,0,0,0,0,0,0,0,0,0,0,0,0,0,0,0,0,
0,0,0,0,0,0,0,0,0,0,0,0,0,0,0,0,0,0,0,
0,0,0,0,0,0,0,0,0,0,0,0,0,0,0,0,0,0,0,
0,0,0,0,0,0,0,0,0,0,0,0,0,0,0,0,0,0,0
</data>
 </layer>
 <layer id="4" name="shadows" width="19" height="51">
  <data encoding="csv">
0,0,0,0,0,0,0,0,0,0,0,0,0,0,0,0,0,0,0,
0,0,0,6152,0,0,0,0,0,0,0,0,0,0,0,0,0,0,0,
0,0,0,6152,0,0,0,0,0,0,0,0,0,0,0,0,0,0,0,
0,0,0,6152,0,0,0,0,0,0,0,0,0,0,0,0,0,0,0,
0,0,0,6174,6175,6175,6175,6175,6175,6175,6175,6175,6175,6175,6175,6176,0,0,0,
0,0,0,6182,0,0,0,0,0,0,0,0,0,0,0,6184,0,0,0,
0,0,0,6182,0,0,0,0,0,0,0,0,0,0,0,6184,0,0,0,
0,0,0,6182,0,0,0,0,0,0,0,0,0,0,0,6184,0,0,0,
0,0,0,6182,0,0,0,0,0,0,0,0,0,0,0,6184,0,0,0,
0,0,0,6182,0,0,0,0,0,0,0,0,0,0,0,0,0,0,0,
0,0,0,0,0,0,0,0,0,0,0,0,0,0,6152,6159,0,0,0,
0,0,0,0,0,6152,0,6159,0,6152,0,0,6159,0,6152,6159,0,0,0,
0,0,0,0,0,6152,0,6159,0,6152,0,0,6159,0,6152,6159,0,0,0,
0,0,0,0,0,6152,0,6159,0,6152,0,0,6159,0,6174,6176,0,0,0,
0,0,0,6200,0,6174,6175,6176,0,6174,6175,6175,6176,0,6182,6184,0,0,0,
0,0,0,6200,0,6182,0,6184,0,6182,0,0,6184,0,6182,6184,0,0,0,
0,0,0,6200,0,0,0,0,0,6182,0,0,6184,0,6182,6184,0,0,0,
0,0,0,6200,0,0,0,0,0,0,0,0,6184,0,6182,6184,0,0,0,
0,0,0,6200,0,0,0,0,0,0,0,0,6184,0,6182,6184,0,0,0,
0,0,0,6199,6199,6199,6199,0,0,0,0,0,6184,0,6182,6184,0,0,0,
0,0,0,0,0,0,0,0,0,0,0,0,6184,0,6182,6184,0,0,0,
0,0,0,0,0,0,0,0,0,0,0,0,6184,0,6182,6184,0,0,0,
0,0,0,0,0,0,0,0,0,0,0,0,6184,0,6182,6184,0,0,0,
0,0,0,0,0,0,0,0,0,0,0,0,6184,0,6182,6184,0,0,0,
0,0,0,0,0,0,0,0,0,0,0,0,6184,0,6182,6184,0,0,0,
0,0,0,0,0,0,0,0,0,0,0,0,6184,0,6182,6184,0,0,0,
0,0,0,0,0,0,0,0,0,0,0,0,0,0,6182,6184,0,0,0,
0,0,0,6152,0,0,0,0,0,0,0,0,0,0,6182,6184,0,0,0,
0,0,0,6152,0,0,0,0,6182,6184,0,0,0,0,6182,6184,0,0,0,
0,0,0,6152,0,0,0,0,6182,6184,0,0,0,0,6182,6184,0,0,0,
0,0,6152,6174,6175,6175,6175,6175,6181,6180,6175,6175,6175,6175,6181,6184,6159,0,0,
0,0,6152,6182,0,0,0,0,0,0,0,0,0,0,0,6184,6159,0,0,
0,0,6152,6182,0,0,0,0,0,0,0,0,0,0,0,6178,6159,0,0,
0,0,6175,6181,0,0,0,0,0,0,0,0,0,0,0,0,0,0,0,
0,0,0,0,0,0,0,0,0,0,0,0,0,0,0,0,0,0,0,
0,0,0,0,0,0,0,0,0,0,0,0,0,0,0,0,0,0,0,
0,0,0,0,0,0,0,0,0,0,0,0,0,0,0,0,0,0,0,
0,0,0,0,0,0,0,0,0,0,0,0,0,6152,0,0,0,0,0,
0,0,0,0,0,0,0,0,0,0,0,0,0,6152,0,0,0,0,0,
0,0,0,0,0,0,0,0,0,0,0,0,0,6152,0,0,0,0,0,
0,0,0,0,0,0,0,0,0,0,0,0,0,0,0,0,0,0,0,
0,0,0,0,0,0,0,0,0,0,0,0,0,9681,9682,0,0,0,0,
0,0,0,0,0,0,0,0,0,0,0,0,0,0,0,0,0,0,0,
0,0,0,0,0,0,0,0,0,0,0,0,0,0,0,0,0,0,0,
0,0,0,0,0,0,0,0,0,0,0,0,0,0,0,0,0,0,0,
0,0,0,0,0,0,0,0,0,0,0,0,0,0,0,0,0,0,0,
0,0,0,0,0,0,0,0,0,0,0,0,0,0,0,0,0,0,0,
0,0,0,0,0,0,0,0,0,0,0,0,0,0,0,0,0,0,0,
0,0,0,0,0,0,0,0,0,0,0,0,0,0,0,0,0,0,0,
0,0,0,0,0,0,0,0,0,0,0,0,0,0,0,0,0,0,0,
0,0,0,0,0,0,0,0,0,0,0,0,0,0,0,0,0,0,0
</data>
 </layer>
 <layer id="2" name="foreground" width="19" height="51">
  <properties>
   <property name="z" type="int" value="1"/>
  </properties>
  <data encoding="csv">
0,0,427,618,618,618,618,618,618,618,618,618,618,618,618,618,426,0,0,
0,0,555,0,0,0,0,0,0,0,0,0,0,0,0,0,553,0,0,
0,0,555,0,0,0,0,0,0,0,0,0,0,0,0,0,553,0,0,
0,0,555,0,0,0,0,0,0,0,0,0,0,0,0,0,553,0,0,
0,0,555,0,0,0,0,0,0,0,0,0,0,0,0,0,553,0,0,
0,0,555,0,0,0,0,0,0,0,0,0,0,0,0,0,553,0,0,
0,0,555,0,0,0,0,0,0,0,0,0,0,0,0,0,553,0,0,
0,0,555,0,0,0,0,0,0,0,0,0,0,0,0,0,553,0,0,
0,0,555,0,0,0,0,0,0,0,0,0,0,0,0,0,553,0,0,
0,0,555,0,0,0,0,0,0,0,0,0,0,489,298,298,553,0,0,
0,0,177,298,172,298,298,298,172,298,298,298,298,234,0,0,553,0,0,
0,0,555,1516,364,0,0,0,364,0,0,0,0,912,0,0,553,0,0,
0,0,555,0,364,0,0,0,364,0,0,0,0,976,0,0,553,0,0,
0,0,555,0,364,0,0,0,364,0,0,0,0,976,0,0,553,0,0,
563,0,0,0,0,0,0,0,0,0,0,0,0,976,0,0,553,0,0,
563,0,0,0,0,0,0,0,0,0,0,0,0,976,0,0,553,0,0,
563,0,0,0,0,0,0,0,0,0,0,0,0,976,0,0,553,0,0,
563,0,0,0,0,0,0,0,0,0,0,0,0,976,0,0,553,0,0,
563,0,0,0,0,0,0,0,0,0,0,0,0,976,0,0,553,0,0,
563,0,0,0,0,0,0,0,0,0,0,0,0,976,0,0,553,0,0,
563,0,0,0,0,0,0,0,0,0,0,0,0,976,0,0,553,0,0,
371,498,499,0,0,0,0,0,0,0,0,0,0,976,0,0,553,0,0,
0,0,563,0,0,0,0,0,0,0,0,0,0,976,0,0,553,0,0,
0,0,563,0,0,0,0,0,0,0,0,0,0,976,0,0,553,0,0,
0,0,563,0,0,0,0,0,0,0,0,0,0,976,0,0,553,0,0,
0,0,563,0,0,0,0,0,0,0,0,0,0,976,0,0,553,0,0,
0,0,427,909,910,910,910,910,910,910,910,910,910,973,0,0,553,0,0,
0,0,555,0,0,0,0,0,0,0,0,0,0,0,0,0,553,0,0,
0,0,555,0,0,0,0,0,6158,6158,0,0,0,0,0,0,553,0,0,
0,0,619,0,0,0,0,0,0,0,0,0,0,0,0,0,617,0,0,
0,0,6224,0,0,0,0,0,0,0,0,0,0,0,0,0,6231,0,0,
0,0,6224,0,0,0,0,0,0,0,0,0,0,0,0,0,6231,0,0,
0,0,6224,0,0,0,0,0,0,0,0,0,0,0,0,0,6231,0,0,
0,6228,6223,6224,0,0,0,0,0,0,0,0,0,0,0,6231,6232,6228,0,
0,6228,6223,6224,0,0,0,0,0,0,0,0,0,0,0,6231,6232,6228,0,
0,0,499,0,0,0,0,0,0,0,0,0,0,0,0,0,497,0,0,
0,0,563,0,0,0,0,0,0,0,0,0,7,262,263,0,561,0,0,
0,0,563,0,0,0,0,0,0,0,0,0,519,0,0,0,561,0,0,
0,0,563,0,0,0,0,0,0,0,0,0,519,0,0,0,561,0,0,
0,0,371,498,498,498,498,498,498,498,498,498,519,0,0,0,561,0,0,
0,0,0,0,0,0,0,0,0,0,0,0,523,0,0,0,561,0,0,
0,0,0,0,0,0,0,0,0,0,0,0,523,6149,6149,0,561,0,0,
0,0,0,0,0,0,0,0,0,0,0,0,331,454,454,454,326,0,0,
0,0,0,0,0,0,0,0,0,0,0,0,0,0,0,0,0,0,0,
0,0,0,0,0,0,0,0,0,0,0,0,0,0,0,0,0,0,0,
0,0,0,0,0,0,0,0,0,0,0,0,0,0,0,0,0,0,0,
0,0,0,0,0,0,0,0,0,0,0,0,0,0,0,0,0,0,0,
0,0,0,0,0,0,0,0,0,0,0,0,0,0,0,0,0,0,0,
0,0,0,0,0,0,0,0,0,0,0,0,0,0,0,0,0,0,0,
0,0,0,0,0,0,0,0,0,0,0,0,0,0,0,0,0,0,0,
0,0,0,0,0,0,0,0,0,0,0,0,0,0,0,0,0,0,0
</data>
 </layer>
 <objectgroup id="7" name="Object Layer 1">
  <object id="1" name="exit-w" x="32" y="1056" width="32" height="64">
   <properties>
    <property name="dest" value="somewhere-district-2"/>
    <property name="destDir" value="l"/>
    <property name="destPoint" value="to-hotel-f1-w"/>
    <property name="destX" type="float" value="7"/>
    <property name="destY" type="float" value="60"/>
   </properties>
  </object>
  <object id="16" name="start" x="480" y="1088">
   <point/>
  </object>
  <object id="17" name="black-powder-frog" x="256" y="192">
   <point/>
  </object>
  <object id="19" name="exit-e" x="544" y="1056" width="32" height="64">
   <properties>
    <property name="dest" value="somewhere-d2-mall"/>
    <property name="destDir" value="r"/>
    <property name="destX" type="float" value="4"/>
    <property name="destY" type="float" value="21"/>
   </properties>
  </object>
  <object id="21" name="floor-up" x="432" y="1298" width="32" height="46">
   <properties>
    <property name="dest" value="somewhere-d2-hotel-f2"/>
    <property name="destDir" value="r"/>
    <property name="destPoint" value="floor-down"/>
   </properties>
  </object>
  <object id="23" x="384" y="1344" width="160" height="32">
   <properties>
    <property name="collision" type="bool" value="true"/>
   </properties>
  </object>
  <object id="24" x="512" y="1120" width="32" height="224">
   <properties>
    <property name="collision" type="bool" value="true"/>
   </properties>
  </object>
  <object id="25" x="384" y="1280" width="32" height="64">
   <properties>
    <property name="collision" type="bool" value="true"/>
   </properties>
  </object>
  <object id="29" x="416" y="1296" width="40" height="2">
   <properties>
    <property name="collision" type="bool" value="true"/>
   </properties>
  </object>
  <object id="3" x="0" y="448" width="32" height="256">
   <properties>
    <property name="collision" type="bool" value="true"/>
   </properties>
  </object>
  <object id="4" x="96" y="1248" width="384" height="32">
   <properties>
    <property name="collision" type="bool" value="true"/>
   </properties>
  </object>
  <object id="5" x="64" y="704" width="32" height="352">
   <properties>
    <property name="collision" type="bool" value="true"/>
   </properties>
  </object>
  <object id="6" x="512" y="128" width="32" height="928">
   <properties>
    <property name="collision" type="bool" value="true"/>
   </properties>
  </object>
  <object id="9" x="96" y="416" width="320" height="32">
   <properties>
    <property name="collision" type="bool" value="true"/>
   </properties>
  </object>
  <object id="14" x="160" y="576" width="128" height="32">
   <properties>
    <property name="collision" type="bool" value="true"/>
   </properties>
  </object>
  <object id="15" x="64" y="128" width="32" height="352">
   <properties>
    <property name="collision" type="bool" value="true"/>
   </properties>
  </object>
  <object id="18" x="96" y="96" width="416" height="32">
   <properties>
    <property name="collision" type="bool" value="true"/>
   </properties>
  </object>
  <object id="30" x="64" y="1120" width="32" height="160">
   <properties>
    <property name="collision" type="bool" value="true"/>
   </properties>
  </object>
 </objectgroup>
</map>
