<?xml version="1.0" encoding="UTF-8"?>
<map version="1.11" tiledversion="1.11.2" orientation="orthogonal" renderorder="right-down" width="7" height="43" tilewidth="32" tileheight="32" infinite="0" nextlayerid="10" nextobjectid="35">
 <tileset firstgid="1" source="../Assorted_LPC/lpc-walls/walls.tsx"/>
 <tileset firstgid="6145" source="../[A]LightShadow_pipo.tsx"/>
 <tileset firstgid="6233" source="../Assorted_LPC/lpc-floors/floors.tsx"/>
 <tileset firstgid="8281" source="../Assorted_LPC/lpc_objectspack/Objects/Furniture/Countertops.tsx"/>
 <tileset firstgid="8317" source="../[Base]BaseChip_pipo.tsx"/>
 <tileset firstgid="9317" source="../Assorted_LPC/wooden_stairs/[LPC]WoodenStairs.tsx"/>
 <tileset firstgid="10913" source="../[Town]VictorianMarket_LPC.tsx"/>
 <layer id="1" name="bg" width="7" height="43">
  <data encoding="csv">
0,0,0,0,0,0,0,
0,5130,5130,5130,0,0,0,
0,5194,5194,5194,0,0,0,
0,5258,5258,5258,0,0,0,
0,7489,7489,7489,0,0,0,
0,0,7487,7489,0,0,0,
0,0,7489,7487,0,0,0,
0,0,7489,7489,0,0,0,
7489,0,7489,7489,5137,0,0,
7489,7489,7489,7489,5201,0,0,
7489,7489,7487,7487,5265,0,0,
0,5267,7489,7489,7489,7489,0,
7489,7489,7487,7489,7489,7489,0,
0,0,7489,7489,7489,7489,0,
0,0,7489,7489,0,0,0,
0,0,7489,7489,0,0,0,
0,0,7487,7489,0,0,0,
0,0,7489,7489,0,0,0,
0,0,7489,7489,0,0,0,
0,0,7489,7487,0,0,0,
0,5139,7489,7489,0,0,0,
0,5203,7487,7489,0,0,0,
7489,7489,7489,7489,0,0,0,
7489,7489,7489,7489,0,0,0,
0,5203,7489,7489,0,0,0,
0,5267,7489,7487,0,0,0,
7489,7489,7489,7489,0,0,0,
0,0,7489,7489,0,0,0,
0,0,7489,7487,0,0,0,
0,0,7489,7489,0,0,0,
0,5139,7489,7489,0,0,0,
0,5203,7487,7489,5137,0,0,
0,5267,7489,7489,5201,0,0,
7489,7489,7489,7487,5265,0,0,
0,0,7489,7489,7489,6228,0,
0,0,7487,7489,7489,6228,0,
0,0,7489,7489,0,0,0,
0,4221,4223,7489,0,0,0,
0,4285,4287,7522,0,0,0,
0,4349,4351,7426,0,0,0,
0,4221,4223,7426,0,0,0,
0,0,0,0,0,0,0,
0,0,0,0,0,0,0
</data>
 </layer>
 <layer id="6" name="ground details" width="7" height="43">
  <data encoding="csv">
0,0,0,0,0,0,0,
0,0,0,0,0,0,0,
0,0,0,0,0,0,0,
0,0,0,0,0,0,0,
0,0,0,0,0,0,0,
0,0,0,0,0,0,0,
0,0,0,0,0,0,0,
0,0,0,0,0,0,0,
0,0,0,0,0,0,0,
0,0,0,0,0,0,0,
0,0,0,0,0,0,0,
0,0,6320,0,0,0,0,
0,0,6352,0,0,0,0,
0,0,6384,0,0,0,0,
0,0,0,0,0,0,0,
0,0,0,0,0,0,0,
0,0,0,0,0,0,0,
0,0,0,0,0,0,0,
0,0,0,0,0,0,0,
0,0,0,0,0,0,0,
0,0,0,0,0,0,0,
0,0,0,0,0,0,0,
0,0,7154,0,0,0,0,
0,0,7186,0,0,0,0,
0,0,0,0,0,0,0,
0,0,6634,0,0,0,0,
0,0,6672,0,0,0,0,
0,0,6698,0,0,0,0,
0,0,0,0,0,0,0,
0,0,0,0,0,0,0,
0,0,0,0,0,0,0,
0,0,0,0,0,0,0,
0,0,6480,0,0,0,0,
0,0,6512,0,0,0,0,
0,0,6544,0,0,0,0,
0,0,0,0,0,0,0,
0,0,0,0,0,0,0,
0,0,0,0,0,0,0,
0,0,0,0,0,0,0,
0,0,0,0,0,0,0,
0,0,9621,0,0,0,0,
0,0,0,0,0,0,0,
0,0,0,0,0,0,0
</data>
 </layer>
 <layer id="9" name="mid" width="7" height="43">
  <properties>
   <property name="z" type="int" value="0"/>
  </properties>
  <data encoding="csv">
0,0,0,0,0,0,0,
0,0,0,0,0,0,0,
0,0,0,0,0,0,0,
0,0,0,0,0,0,0,
0,0,0,0,0,0,0,
0,11191,0,0,0,0,0,
0,0,0,0,0,0,0,
0,0,0,0,0,0,0,
0,0,0,0,0,0,0,
0,5139,0,0,0,0,0,
0,0,0,0,0,0,0,
0,0,0,0,0,0,0,
0,0,0,0,0,0,0,
0,0,0,0,0,0,0,
0,0,0,0,0,0,0,
0,0,0,0,0,0,0,
0,0,0,0,0,0,0,
0,0,0,0,0,0,0,
0,0,0,0,0,0,0,
0,0,0,0,0,0,0,
0,5139,0,0,0,0,0,
0,0,0,0,0,0,0,
0,0,0,0,0,0,0,
0,5139,0,0,0,0,0,
0,0,0,0,0,0,0,
0,0,0,0,0,0,0,
0,0,0,0,0,0,0,
0,0,0,0,0,0,0,
0,0,0,0,0,0,0,
0,0,0,0,0,0,0,
0,5139,0,0,0,0,0,
0,0,0,0,0,0,0,
0,0,0,0,0,0,0,
0,0,0,0,0,0,0,
0,0,0,0,0,0,0,
0,0,0,0,0,0,0,
0,0,0,0,0,0,0,
0,6152,0,0,0,0,0,
0,6152,9624,0,0,0,0,
0,6152,9662,0,0,0,0,
0,6152,9617,0,0,0,0,
0,0,0,0,0,0,0,
0,0,0,0,0,0,0
</data>
 </layer>
 <layer id="4" name="shadows" width="7" height="43">
  <data encoding="csv">
0,0,0,0,0,0,0,
0,0,6152,0,0,0,0,
0,0,6152,0,0,0,0,
0,0,6152,0,0,0,0,
0,0,6174,6176,0,0,0,
0,0,0,6184,0,0,0,
0,0,6182,6184,0,0,0,
0,0,6179,6184,0,0,0,
6159,0,0,6184,6159,0,0,
6159,6154,6187,6184,6159,0,0,
6159,0,6182,6184,6159,0,0,
0,0,6179,6184,0,0,0,
0,0,0,6184,0,0,0,
0,0,6187,6184,0,0,0,
0,0,6182,6184,0,0,0,
0,0,6182,6184,0,0,0,
0,0,6182,6184,0,0,0,
0,0,6182,6184,0,0,0,
0,0,6182,6184,0,0,0,
0,0,6182,6184,0,0,0,
0,6154,6182,6184,0,0,0,
0,0,6182,6184,0,0,0,
0,0,6179,6184,0,0,0,
0,6154,0,6184,0,0,0,
0,0,6187,6184,0,0,0,
0,0,6179,6184,0,0,0,
0,0,0,6184,0,0,0,
0,0,6187,6184,0,0,0,
0,0,6182,6184,0,0,0,
0,0,6182,6184,0,0,0,
0,6154,6182,6184,0,0,0,
0,0,6182,6184,6159,0,0,
0,0,6179,6184,6159,0,0,
0,0,0,6184,6159,0,0,
0,0,6187,6184,0,0,0,
0,0,6182,6184,0,0,0,
0,0,0,6184,0,0,0,
0,0,0,6184,0,0,0,
0,9623,0,6200,0,0,0,
0,9661,0,6159,0,0,0,
0,0,0,6159,0,0,0,
0,0,0,0,0,0,0,
0,0,0,0,0,0,0
</data>
 </layer>
 <layer id="2" name="foreground" width="7" height="43">
  <properties>
   <property name="z" type="int" value="1"/>
  </properties>
  <data encoding="csv">
514,391,582,582,390,514,514,
514,519,0,0,517,514,514,
514,519,0,0,517,514,514,
514,519,0,0,517,514,514,
514,519,0,0,517,514,514,
514,519,0,0,517,514,514,
514,519,0,0,517,514,514,
514,519,0,0,517,514,514,
391,583,0,0,517,514,514,
519,0,0,0,517,514,514,
327,455,0,0,517,514,514,
514,519,0,0,517,514,514,
514,519,0,0,517,514,514,
514,519,0,0,517,514,514,
514,519,0,0,517,514,514,
514,519,0,0,517,514,514,
514,519,0,0,517,514,514,
514,519,0,0,517,514,514,
514,519,0,0,517,514,514,
391,583,0,0,517,514,514,
519,0,0,0,517,514,514,
327,455,0,0,517,514,514,
391,583,0,0,517,514,514,
519,0,0,0,517,514,514,
327,455,0,0,517,514,514,
514,519,0,0,517,514,514,
514,519,0,0,517,514,514,
514,519,0,0,517,514,514,
514,519,0,0,517,514,514,
391,583,0,0,517,514,514,
519,0,0,0,517,514,514,
327,455,0,0,517,514,514,
514,519,0,0,517,514,514,
514,519,0,0,517,514,514,
514,519,0,0,517,514,514,
514,519,6149,0,517,514,514,
391,71,263,0,517,514,514,
519,0,0,0,517,514,514,
519,9577,0,0,517,514,514,
523,9615,9620,0,517,514,514,
523,6149,6149,0,517,514,514,
331,454,454,454,326,514,514,
514,514,514,514,514,514,514
</data>
 </layer>
 <objectgroup id="7" name="Object Layer 1">
  <object id="1" name="to-loud-room" x="0" y="384" width="32" height="32">
   <properties>
    <property name="dest" value="somewhere-d2-hotel-room-loud"/>
    <property name="destDir" value="l"/>
    <property name="destPoint" value="exit-e"/>
   </properties>
  </object>
  <object id="16" name="start" x="96" y="1184">
   <point/>
  </object>
  <object id="17" name="innkeeper" x="96" y="192">
   <point/>
  </object>
  <object id="28" name="to-darkness-room" x="0" y="704" width="32" height="64">
   <properties>
    <property name="dest" value="somewhere-d2-hotel-room-darkness"/>
    <property name="destDir" value="l"/>
    <property name="destPoint" value="exit-e"/>
   </properties>
  </object>
  <object id="29" name="to-dreamouse-room" x="0" y="832" width="32" height="32">
   <properties>
    <property name="dest" value="somewhere-d2-hotel-room-dreamhouse"/>
    <property name="destDir" value="l"/>
    <property name="destPoint" value="exit-e"/>
   </properties>
  </object>
  <object id="30" name="to-neighbor-room" x="0" y="1056" width="32" height="32">
   <properties>
    <property name="dest" value="somewhere-d2-hotel-room-kindly-neighbor"/>
    <property name="destDir" value="l"/>
    <property name="destPoint" value="exit-e"/>
   </properties>
  </object>
  <object id="31" name="floor-up" x="32" y="1240" width="32" height="32">
   <properties>
    <property name="dest" value="somewhere-d2-hotel-f4"/>
    <property name="destDir" value="r"/>
    <property name="destPoint" value="floor-down"/>
   </properties>
  </object>
  <object id="32" name="floor-down" x="32" y="1280" width="32" height="32">
   <properties>
    <property name="dest" value="somewhere-d2-hotel-f2"/>
    <property name="destDir" value="r"/>
    <property name="destPoint" value="floor-up"/>
   </properties>
  </object>
  <object id="4" x="0" y="1312" width="160" height="32">
   <properties>
    <property name="collision" type="bool" value="true"/>
   </properties>
  </object>
  <object id="18" x="0" y="96" width="128" height="32">
   <properties>
    <property name="collision" type="bool" value="true"/>
   </properties>
  </object>
  <object id="20" x="0" y="128" width="64" height="256">
   <properties>
    <property name="collision" type="bool" value="true"/>
   </properties>
  </object>
  <object id="21" x="0" y="416" width="64" height="288">
   <properties>
    <property name="collision" type="bool" value="true"/>
   </properties>
  </object>
  <object id="22" x="0" y="768" width="64" height="64">
   <properties>
    <property name="collision" type="bool" value="true"/>
   </properties>
  </object>
  <object id="23" x="0" y="864" width="64" height="192">
   <properties>
    <property name="collision" type="bool" value="true"/>
   </properties>
  </object>
  <object id="24" x="0" y="1088" width="64" height="128">
   <properties>
    <property name="collision" type="bool" value="true"/>
   </properties>
  </object>
  <object id="25" x="128" y="96" width="32" height="1216">
   <properties>
    <property name="collision" type="bool" value="true"/>
   </properties>
  </object>
  <object id="27" x="0" y="1216" width="32" height="96">
   <properties>
    <property name="collision" type="bool" value="true"/>
   </properties>
  </object>
  <object id="33" x="64" y="1216" width="32" height="16">
   <properties>
    <property name="collision" type="bool" value="true"/>
   </properties>
  </object>
  <object id="34" x="32" y="1278" width="64" height="2">
   <properties>
    <property name="collision" type="bool" value="true"/>
   </properties>
  </object>
 </objectgroup>
</map>
