<?xml version="1.0" encoding="UTF-8"?>
<map version="1.11" tiledversion="1.11.2" orientation="orthogonal" renderorder="right-down" width="29" height="32" tilewidth="32" tileheight="32" infinite="0" nextlayerid="7" nextobjectid="29">
 <tileset firstgid="1" source="../Assorted_LPC/lpc-bricks-v6/bricks.tsx"/>
 <tileset firstgid="2049" source="../Assorted_LPC/lpc-walls/walls.tsx"/>
 <tileset firstgid="8193" source="../[A]LightShadow_pipo.tsx"/>
 <layer id="1" name="bg" width="29" height="32">
  <data encoding="csv">
0,0,0,0,0,0,0,0,0,0,0,0,0,0,0,0,0,0,0,0,0,0,0,0,0,0,0,0,0,
0,3370,3370,3370,3370,3370,3370,756,3370,3370,3370,3370,3370,3370,0,0,0,0,0,0,0,0,0,0,0,0,0,0,0,
0,3434,3434,3434,3434,3434,3434,756,3434,3434,3434,3434,3434,3434,0,0,0,0,0,0,0,0,0,0,0,0,0,0,0,
0,3498,3498,3498,3498,3498,3498,756,3498,3498,3498,3498,3498,3498,0,0,0,0,0,0,0,0,0,0,0,0,0,0,0,
0,756,756,756,756,756,756,756,756,756,756,756,756,756,0,0,0,0,0,0,0,0,0,0,0,0,0,0,0,
0,756,756,756,756,756,756,756,756,756,756,756,756,756,0,0,0,0,0,0,0,0,0,0,0,0,0,0,0,
0,756,756,756,756,756,756,756,756,756,756,756,756,756,0,0,0,0,0,0,0,0,0,0,0,0,0,0,0,
0,756,756,756,756,756,756,756,756,756,756,756,756,756,0,0,0,0,0,0,0,0,0,0,0,0,0,0,0,
0,756,756,756,756,756,756,756,756,756,756,756,756,756,756,756,756,756,756,756,756,0,756,756,756,756,756,756,0,
0,756,756,756,756,756,756,756,756,756,756,756,756,756,756,756,756,756,756,756,756,0,756,756,756,756,756,756,0,
0,756,756,756,756,756,756,0,756,756,756,756,756,756,756,756,756,756,756,756,756,0,756,756,756,756,756,756,0,
0,756,756,756,756,756,756,0,756,756,756,756,756,756,756,756,756,756,756,756,756,756,756,756,756,756,756,756,0,
0,756,756,756,756,756,756,0,756,756,756,756,756,756,756,756,756,756,756,756,756,756,756,756,756,756,756,756,0,
0,756,756,756,756,756,756,0,756,756,756,756,756,756,756,756,756,756,756,756,756,756,756,756,756,756,756,756,0,
0,756,756,756,756,756,756,0,756,756,756,756,756,756,756,756,756,756,756,756,756,756,756,756,756,756,756,756,0,
0,756,756,756,756,756,756,0,756,756,756,756,756,756,756,756,756,756,756,756,756,0,756,756,756,756,756,756,0,
0,756,756,756,756,756,756,0,756,756,756,756,756,756,756,756,756,756,756,756,756,0,756,756,756,756,756,756,0,
0,756,756,756,756,756,756,0,756,756,756,756,756,756,756,756,756,756,756,756,756,0,756,756,756,756,756,756,0,
0,756,756,756,756,756,756,0,756,756,756,756,756,756,756,756,756,756,756,756,756,0,756,756,756,756,756,756,0,
0,756,756,756,756,756,756,0,756,756,756,756,756,756,756,756,756,756,756,756,756,0,756,756,756,756,756,756,0,
0,756,756,756,756,756,756,0,756,756,756,756,756,756,756,756,756,756,756,756,756,0,756,756,756,756,756,756,0,
0,756,756,756,756,756,756,0,756,756,756,756,756,756,756,756,756,756,756,756,756,0,756,756,756,756,756,756,0,
0,756,756,756,756,756,756,0,756,756,756,756,756,756,756,756,756,756,756,756,756,0,756,756,756,756,756,756,0,
0,756,756,756,756,756,756,0,756,756,756,756,756,756,756,756,756,756,756,756,756,0,756,756,756,756,756,756,0,
0,2986,2986,2986,2986,2986,2986,0,2986,2986,2986,2986,2986,2986,0,756,756,756,756,756,756,0,756,756,756,756,756,756,0,
0,0,0,0,0,0,0,0,0,0,0,0,0,0,0,756,756,756,756,756,756,756,756,756,756,756,756,756,0,
0,0,0,0,0,0,0,0,0,0,0,0,0,0,0,756,756,756,756,756,756,756,756,756,756,756,756,756,0,
0,0,0,0,0,0,0,0,0,0,0,0,0,0,0,756,756,756,756,756,756,0,756,756,756,756,756,756,0,
0,0,0,0,0,0,0,0,0,0,0,0,0,0,0,756,756,756,756,756,756,756,756,756,756,756,756,756,0,
0,0,0,0,0,0,0,0,0,0,0,0,0,0,0,756,756,756,756,756,756,0,756,756,756,756,756,756,0,
0,0,0,0,0,0,0,0,0,0,0,0,0,0,0,756,756,756,756,756,756,0,756,756,756,756,756,756,0,
0,0,0,0,0,0,0,0,0,0,0,0,0,0,0,2986,2986,2986,2986,2986,2986,0,2986,2986,2986,2986,2986,2986,0
</data>
 </layer>
 <layer id="2" name="mid" width="29" height="32">
  <properties>
   <property name="z" type="int" value="0"/>
  </properties>
  <data encoding="csv">
0,0,0,0,0,0,0,0,0,0,0,0,0,0,0,0,0,0,0,0,0,0,0,0,0,0,0,0,0,
0,0,0,0,0,0,0,3370,0,0,0,0,0,0,0,0,0,0,0,0,0,0,0,0,0,0,0,0,0,
0,0,0,0,0,0,0,3434,0,0,0,0,0,0,0,0,0,0,0,0,0,0,0,0,0,0,0,0,0,
0,0,0,0,0,0,0,3498,0,0,0,0,0,0,0,0,0,0,0,0,0,0,0,0,0,0,0,0,0,
0,0,0,0,0,0,0,3372,0,0,0,0,0,0,0,0,0,0,0,0,0,0,0,0,0,0,0,0,0,
0,0,0,0,0,0,0,3436,0,0,0,0,0,0,0,0,0,0,0,0,0,0,0,0,0,0,0,0,0,
0,0,0,0,0,0,0,3500,0,0,0,0,0,0,0,0,0,0,0,0,0,0,0,0,0,0,0,0,0,
0,0,0,0,0,0,0,0,0,0,0,0,0,0,0,0,0,0,0,0,0,0,0,0,0,0,0,0,0,
0,3370,3370,3370,3370,3370,3370,0,3370,3370,3370,3370,3370,3370,3370,3370,3370,3370,3370,3370,3370,3372,3370,3370,3370,3370,3370,3370,0,
0,3435,0,3433,3434,3434,3434,0,3434,3434,3435,0,3433,3434,3372,3434,3434,3434,3434,3434,3434,3436,3434,3434,3434,3434,3434,3434,0,
0,3499,0,3497,3498,3498,3498,0,3498,3498,3499,0,3497,3498,3436,3498,3498,3498,3498,3498,3498,3500,3498,3498,3498,3498,3498,3498,0,
0,0,0,0,0,0,0,0,0,0,0,0,0,0,3500,0,0,0,0,0,0,0,0,0,0,0,0,0,0,
0,0,0,0,0,0,0,0,0,0,0,0,0,0,0,0,0,0,0,0,0,0,0,0,0,0,0,0,0,
0,0,0,0,0,0,0,0,0,0,0,0,0,0,0,0,0,0,0,0,0,0,0,0,0,0,0,0,0,
0,0,0,0,0,0,0,0,0,0,0,0,0,0,0,0,0,0,0,0,0,0,0,0,0,0,0,0,0,
0,3370,3370,3370,3370,3370,3370,0,3370,3370,3370,3370,3370,3370,0,3370,3370,3370,3370,3370,3370,0,3370,3370,3370,3370,3370,3370,0,
0,3434,3434,3435,0,3433,3434,0,3434,3434,3434,3434,3434,3434,0,3434,3434,3434,3434,3434,3434,0,3434,3435,0,3433,3434,3434,0,
0,3498,3498,3499,0,3497,3498,0,3498,3498,3498,3498,3498,3498,0,3498,3498,3498,3498,3498,3498,0,3498,3499,0,3497,3498,3498,0,
0,0,0,0,0,0,0,0,0,0,0,0,0,0,0,0,0,0,0,0,0,0,0,0,0,0,0,0,0,
0,0,0,0,0,0,0,0,0,0,0,0,0,0,3372,0,0,0,0,0,0,0,0,0,0,0,0,0,0,
0,0,0,0,0,0,0,0,0,0,0,0,0,0,3436,0,0,0,0,0,0,0,0,0,0,0,0,0,0,
0,0,0,0,0,0,0,0,0,0,0,0,0,0,3500,0,0,0,0,0,0,0,0,0,0,0,0,0,0,
0,0,0,0,0,0,0,0,0,0,0,0,0,0,0,3370,3370,3370,3370,3370,3370,0,3370,3370,3370,3370,3370,3370,0,
0,0,0,0,0,0,0,0,0,0,0,0,0,0,0,3434,3434,3435,0,3433,3434,0,3434,3434,3435,0,3433,3434,0,
0,0,0,0,0,0,0,0,0,0,0,0,0,0,0,3498,3498,3499,0,3497,3498,0,3498,3498,3499,0,3497,3498,0,
0,0,0,0,0,0,0,0,0,0,0,0,0,0,0,0,0,0,0,0,0,3372,0,0,0,0,0,0,0,
0,0,0,0,0,0,0,0,0,0,0,0,0,0,0,0,0,0,0,0,0,3436,0,0,0,0,0,0,0,
0,0,0,0,0,0,0,0,0,0,0,0,0,0,0,0,0,0,0,0,0,3500,0,0,0,0,0,0,0,
0,0,0,0,0,0,0,0,0,0,0,0,0,0,0,0,0,0,0,0,0,0,0,0,0,0,0,0,0,
0,0,0,0,0,0,0,0,0,0,0,0,0,0,0,0,0,0,0,0,0,0,0,0,0,0,0,0,0,
0,0,0,0,0,0,0,0,0,0,0,0,0,0,0,0,0,0,0,0,0,0,0,0,0,0,0,0,0,
0,0,0,0,0,0,0,0,0,0,0,0,0,0,0,0,0,0,0,0,0,0,0,0,0,0,0,0,0
</data>
 </layer>
 <layer id="3" name="foreground" width="29" height="32">
  <properties>
   <property name="z" type="int" value="3"/>
  </properties>
  <data encoding="csv">
3049,2986,2986,2986,2986,2986,2986,3049,2986,2986,2986,2986,2986,2986,3049,2562,2562,2562,2562,2562,2562,2562,2562,2562,2562,2562,2562,2562,2562,
3052,3370,3370,3370,3370,3370,3370,3052,3370,3370,3370,3370,3370,3370,3052,2562,2562,2562,2562,2562,2562,2562,2562,2562,2562,2562,2562,2562,2562,
3052,0,0,0,0,0,0,3052,0,0,0,0,0,0,3052,2562,2562,2562,2562,2562,2562,2562,2562,2562,2562,2562,2562,2562,2562,
3052,0,0,0,0,0,0,3116,0,0,0,0,0,0,3052,2562,2562,2562,2562,2562,2562,2562,2562,2562,2562,2562,2562,2562,2562,
3052,0,0,0,0,0,0,0,0,0,0,0,0,0,3052,2562,2562,2562,2562,2562,2562,2562,2562,2562,2562,2562,2562,2562,2562,
3052,0,0,0,0,0,0,2988,0,0,0,0,0,0,3052,2562,2562,2562,2562,2562,2562,2562,2562,2562,2562,2562,2562,2562,2562,
3052,0,0,0,0,0,0,3052,0,0,0,0,0,0,3052,2562,2562,2562,2562,2562,2562,2562,2562,2562,2562,2562,2562,2562,2562,
3049,2986,2986,2986,2986,2986,2986,3113,2986,2986,2986,2986,2986,2986,3113,2986,2986,2986,2986,2986,2986,3049,2986,2986,2986,2986,2986,2986,3049,
3052,3370,3370,3370,3370,3370,3370,3052,3370,3370,3370,3370,3370,3370,3116,3370,3370,3370,3370,3370,3370,3370,3370,3370,3370,3370,3370,3370,3052,
3052,0,0,0,0,0,0,3052,0,0,0,0,0,0,0,0,0,0,0,0,0,2988,0,0,0,0,0,0,3052,
3052,0,0,0,0,0,0,3052,0,0,0,0,0,0,2988,0,0,0,0,0,0,3052,0,0,0,0,0,0,3052,
3052,0,0,0,0,0,0,3052,0,0,0,0,0,0,3052,0,0,0,0,0,0,3052,0,0,0,0,0,0,3052,
3052,0,0,0,0,0,0,3052,0,0,0,0,0,0,3052,0,0,0,0,0,0,3052,0,0,0,0,0,0,3052,
3052,0,0,0,0,0,0,3052,0,0,0,0,0,0,3052,0,0,0,0,0,0,3052,0,0,0,0,0,0,3052,
3049,2986,2986,2986,2986,2986,2986,3113,2986,2986,2986,2986,2986,2986,3113,2986,2986,2986,2986,2986,2986,3113,2986,2986,2986,2986,2986,2986,3049,
3052,3370,3370,3370,3370,3370,3370,3052,3370,3370,3370,3370,3370,3370,3052,3370,3370,3370,3370,3370,3370,3052,3370,3370,3370,3370,3370,3370,3052,
3052,0,0,0,0,0,0,3052,0,0,0,0,0,0,3052,0,0,0,0,0,0,3052,0,0,0,0,0,0,3052,
3052,0,0,0,0,0,0,3052,0,0,0,0,0,0,3052,0,0,0,0,0,0,3052,0,0,0,0,0,0,3052,
3052,0,0,0,0,0,0,3052,0,0,0,0,0,0,3116,0,0,0,0,0,0,3052,0,0,0,0,0,0,3052,
3052,0,0,0,0,0,0,3052,0,0,0,0,0,0,0,0,0,0,0,0,0,3052,0,0,0,0,0,0,3052,
3052,0,0,0,0,0,0,3052,0,0,0,0,0,0,2988,0,0,0,0,0,0,3052,0,0,0,0,0,0,3052,
3049,2986,2986,2986,2986,2986,2986,3049,2986,2986,2986,2986,2986,2986,3049,2986,2986,2986,2986,2986,2986,3113,2986,2986,2986,2986,2986,2986,3049,
3372,0,0,0,0,0,0,3370,0,0,0,0,0,0,3052,3370,3370,3370,3370,3370,3370,3052,3370,3370,3370,3370,3370,3370,3052,
3436,0,0,0,0,0,0,3434,0,0,0,0,0,0,3052,0,0,0,0,0,0,3052,0,0,0,0,0,0,3052,
3500,0,0,0,0,0,0,3498,0,0,0,0,0,0,3052,0,0,0,0,0,0,3116,0,0,0,0,0,0,3052,
0,0,0,0,0,0,0,0,0,0,0,0,0,0,3052,0,0,0,0,0,0,0,0,0,0,0,0,0,3052,
0,0,0,0,0,0,0,0,0,0,0,0,0,0,3052,0,0,0,0,0,0,2988,0,0,0,0,0,0,3052,
0,0,0,0,0,0,0,0,0,0,0,0,0,0,3052,0,0,0,0,0,0,3052,0,0,0,0,0,0,3052,
0,0,0,0,0,0,0,0,0,0,0,0,0,0,3049,2986,2986,2986,2986,2986,2986,3049,2986,2986,2986,2986,2986,2986,3049,
0,0,0,0,0,0,0,0,0,0,0,0,0,0,3372,0,0,0,0,0,0,3370,0,0,0,0,0,0,3372,
0,0,0,0,0,0,0,0,0,0,0,0,0,0,3436,0,0,0,0,0,0,3434,0,0,0,0,0,0,3436,
0,0,0,0,0,0,0,0,0,0,0,0,0,0,3500,0,0,0,0,0,0,3498,0,0,0,0,0,0,3500
</data>
 </layer>
 <layer id="4" name="shadows" width="29" height="32">
  <data encoding="csv">
0,0,0,0,0,0,0,0,0,0,0,0,0,0,0,0,0,0,0,0,0,0,0,0,0,0,0,0,0,
0,8230,0,0,0,0,0,0,8230,0,0,0,0,0,0,0,0,0,0,0,0,0,0,0,0,0,0,0,0,
0,8230,0,0,0,0,0,0,8230,0,0,0,0,0,0,0,0,0,0,0,0,0,0,0,0,0,0,0,0,
0,8230,0,0,0,0,0,0,8230,0,0,0,0,0,0,0,0,0,0,0,0,0,0,0,0,0,0,0,0,
0,8202,0,0,0,0,0,0,8202,0,0,0,0,0,0,0,0,0,0,0,0,0,0,0,0,0,0,0,0,
0,8202,0,0,0,0,0,0,8202,0,0,0,0,0,0,0,0,0,0,0,0,0,0,0,0,0,0,0,0,
0,8202,0,0,0,0,0,0,8211,0,0,0,0,0,0,0,0,0,0,0,0,0,0,0,0,0,0,0,0,
0,0,0,0,0,0,0,0,0,0,0,0,0,0,0,0,0,0,0,0,0,0,0,0,0,0,0,0,0,
0,8230,0,0,0,0,0,0,8230,0,0,0,0,0,0,8230,0,0,0,0,0,0,0,0,0,0,0,0,0,
0,8230,8201,0,0,0,0,0,8230,0,0,8201,0,0,0,8230,0,0,0,0,0,0,0,0,0,0,0,0,0,
0,8230,8211,0,0,0,0,0,8230,0,0,8211,0,0,0,8230,0,0,0,0,0,0,0,0,0,0,0,0,0,
0,8202,0,0,0,0,0,0,8202,0,0,0,0,0,0,8211,0,0,0,0,0,0,0,0,0,0,0,0,0,
0,8202,0,0,0,0,0,0,8202,0,0,0,0,0,0,0,0,0,0,0,0,0,8194,0,0,0,0,0,0,
0,8202,0,0,0,0,0,0,8202,0,0,0,0,0,0,8194,0,0,0,0,0,0,8202,0,0,0,0,0,0,
0,0,0,0,0,0,0,0,0,0,0,0,0,0,0,0,0,0,0,0,0,0,0,0,0,0,0,0,0,
0,8230,0,0,0,0,0,0,8230,0,0,0,0,0,0,8230,0,0,0,0,0,0,8230,0,0,0,0,0,0,
0,8230,0,0,8201,0,0,0,8230,0,0,0,0,0,0,8230,0,0,0,0,0,0,8230,0,8201,0,0,0,0,
0,8230,0,0,8211,0,0,0,8230,0,0,0,0,0,0,8230,0,0,0,0,0,0,8230,0,8211,0,0,0,0,
0,8202,0,0,0,0,0,0,8202,0,0,0,0,0,0,8202,0,0,0,0,0,0,8202,0,0,0,0,0,0,
0,8202,0,0,0,0,0,0,8202,0,0,0,0,0,0,8202,0,0,0,0,0,0,8202,0,0,0,0,0,0,
0,8202,0,0,8253,0,0,0,8202,0,0,0,0,0,0,8202,0,0,0,0,0,0,8202,0,0,0,0,0,0,
0,0,0,0,0,0,0,0,0,0,0,0,0,0,0,0,0,0,0,0,0,0,0,0,0,0,0,0,0,
0,8202,0,0,0,0,0,0,8202,0,0,0,0,0,0,8230,0,0,0,0,0,0,8230,0,0,0,0,0,0,
0,8201,8193,8193,8193,8193,8193,0,8201,8193,8193,8193,8193,8193,0,8230,0,0,8201,0,0,0,8230,0,0,8201,0,0,0,
0,0,0,0,0,0,0,0,0,0,0,0,0,0,0,8230,0,0,8211,0,0,0,8230,0,0,8211,0,0,0,
0,0,0,0,0,0,0,0,0,0,0,0,0,0,0,8202,0,0,0,0,0,0,8202,0,0,0,0,0,0,
0,0,0,0,0,0,0,0,0,0,0,0,0,0,0,8202,0,0,0,0,0,0,8202,0,0,0,0,0,0,
0,0,0,0,0,0,0,0,0,0,0,0,0,0,0,8202,0,0,0,0,0,0,8211,0,0,0,0,0,0,
0,0,0,0,0,0,0,0,0,0,0,0,0,0,0,0,0,0,0,0,0,0,0,0,0,0,0,0,0,
0,0,0,0,0,0,0,0,0,0,0,0,0,0,0,8202,0,0,0,0,0,0,8202,0,0,0,0,0,0,
0,0,0,0,0,0,0,0,0,0,0,0,0,0,0,8201,8193,8193,8193,8193,8193,0,8201,8193,8193,8193,8193,8193,0,
0,0,0,0,0,0,0,0,0,0,0,0,0,0,0,0,0,0,0,0,0,0,0,0,0,0,0,0,0
</data>
 </layer>
 <objectgroup id="5" name="Object Layer 1">
  <object id="1" name="start" x="288" y="640">
   <point/>
  </object>
  <object id="28" name="return-to-memory-hub" x="128" y="640" width="32" height="32">
   <properties>
    <property name="dest" value="well-of-memories"/>
    <property name="destDir" value="d"/>
    <property name="destX" type="float" value="11"/>
    <property name="destY" type="float" value="3"/>
   </properties>
  </object>
 </objectgroup>
 <objectgroup id="6" name="collisions">
  <object id="2" x="448" y="992" width="480" height="32">
   <properties>
    <property name="collision" type="bool" value="true"/>
   </properties>
  </object>
  <object id="3" x="896" y="320" width="32" height="672">
   <properties>
    <property name="collision" type="bool" value="true"/>
   </properties>
  </object>
  <object id="4" x="384" y="320" width="512" height="32">
   <properties>
    <property name="collision" type="bool" value="true"/>
   </properties>
  </object>
  <object id="5" x="96" y="320" width="256" height="32">
   <properties>
    <property name="collision" type="bool" value="true"/>
   </properties>
  </object>
  <object id="7" x="32" y="320" width="32" height="32">
   <properties>
    <property name="collision" type="bool" value="true"/>
   </properties>
  </object>
  <object id="8" x="0" y="96" width="32" height="704">
   <properties>
    <property name="collision" type="bool" value="true"/>
   </properties>
  </object>
  <object id="9" x="32" y="768" width="416" height="32">
   <properties>
    <property name="collision" type="bool" value="true"/>
   </properties>
  </object>
  <object id="11" x="224" y="256" width="32" height="512">
   <properties>
    <property name="collision" type="bool" value="true"/>
   </properties>
  </object>
  <object id="12" x="224" y="128" width="32" height="96">
   <properties>
    <property name="collision" type="bool" value="true"/>
   </properties>
  </object>
  <object id="13" x="32" y="96" width="416" height="32">
   <properties>
    <property name="collision" type="bool" value="true"/>
   </properties>
  </object>
  <object id="14" x="448" y="96" width="32" height="288">
   <properties>
    <property name="collision" type="bool" value="true"/>
   </properties>
  </object>
  <object id="15" x="448" y="416" width="32" height="288">
   <properties>
    <property name="collision" type="bool" value="true"/>
   </properties>
  </object>
  <object id="17" x="448" y="736" width="32" height="256">
   <properties>
    <property name="collision" type="bool" value="true"/>
   </properties>
  </object>
  <object id="18" x="672" y="928" width="32" height="64">
   <properties>
    <property name="collision" type="bool" value="true"/>
   </properties>
  </object>
  <object id="19" x="672" y="384" width="32" height="512">
   <properties>
    <property name="collision" type="bool" value="true"/>
   </properties>
  </object>
  <object id="20" x="800" y="544" width="96" height="32">
   <properties>
    <property name="collision" type="bool" value="true"/>
   </properties>
  </object>
  <object id="21" x="832" y="768" width="64" height="32">
   <properties>
    <property name="collision" type="bool" value="true"/>
   </properties>
  </object>
  <object id="22" x="608" y="768" width="192" height="32">
   <properties>
    <property name="collision" type="bool" value="true"/>
   </properties>
  </object>
  <object id="23" x="480" y="768" width="96" height="32">
   <properties>
    <property name="collision" type="bool" value="true"/>
   </properties>
  </object>
  <object id="25" x="160" y="544" width="608" height="32">
   <properties>
    <property name="collision" type="bool" value="true"/>
   </properties>
  </object>
  <object id="26" x="32" y="544" width="96" height="32">
   <properties>
    <property name="collision" type="bool" value="true"/>
   </properties>
  </object>
 </objectgroup>
</map>
