<?xml version="1.0" encoding="UTF-8"?>
<map version="1.11" tiledversion="1.11.2" orientation="orthogonal" renderorder="right-down" width="30" height="30" tilewidth="32" tileheight="32" infinite="0" nextlayerid="10" nextobjectid="23">
 <tileset firstgid="1" source="../Assorted_LPC/lpc-walls/walls.tsx"/>
 <tileset firstgid="6145" source="../[Town]VictorianTenement_LPC.tsx"/>
 <tileset firstgid="9217" source="../Assorted_LPC/lpc-floors/floors.tsx"/>
 <tileset firstgid="11265" source="../Assorted_LPC/lpc-bricks-v6/bricks.tsx"/>
 <tileset firstgid="13313" source="../[A]Wall-Up_pipo.tsx"/>
 <tileset firstgid="13409" source="../[A]LightShadow_pipo.tsx"/>
 <tileset firstgid="13497" source="../[Town]VictorianMansion_LPC.tsx"/>
 <layer id="9" name="experiment" width="30" height="30">
  <data encoding="csv">
9640,9640,9640,9640,9640,9640,9640,9640,9640,9640,9640,9640,9640,9640,9640,9640,9640,9640,9640,9640,9640,9640,9640,9640,9640,9640,9640,9640,9640,9640,
9640,9640,9640,9640,9640,9640,9640,9640,9640,9640,9640,9640,9640,9640,9640,9640,9640,9640,9640,9640,9640,9640,9640,9640,9640,9640,9640,9640,9640,9640,
9640,9640,9640,9640,9640,9640,9640,9640,9640,9640,9640,9640,9640,9640,9640,9640,9640,9640,9640,9640,9640,9640,9640,9640,9640,9640,9640,9640,9640,9640,
9640,9640,9640,9640,9640,9640,9640,9640,9640,9640,9640,9640,9640,9640,9640,9640,9640,9640,9640,9640,9640,9640,9640,9640,9640,9640,9640,9640,9640,9640,
9640,9640,9640,9640,9640,9640,9640,9640,9640,9640,9640,9640,9640,9640,9640,9640,9640,9640,9640,9640,9640,9640,9640,9640,9640,9640,9640,9640,9640,9640,
9640,9640,9640,9640,9640,9640,9640,9640,9640,9640,9640,9640,9640,9640,9640,9640,9640,9640,9640,9640,9640,9640,9640,9640,9640,9640,9640,9640,9640,9640,
9640,9640,9640,9640,9640,9640,9640,9640,9640,9640,9640,9640,9640,9640,9640,9640,9640,9640,9640,9640,9640,9640,9640,9640,9640,9640,9640,9640,9640,9640,
9640,9640,9640,9640,9640,9640,9640,9640,9640,9640,9640,9640,9640,9640,9640,9640,9640,9640,9640,9640,9640,9640,9640,9640,9640,9640,9640,9640,9640,9640,
9640,9640,9640,9640,9640,9640,9640,9640,9640,9640,9640,9640,9640,9640,9640,9640,9640,9640,9640,9640,9640,9640,9640,9640,9640,9640,9640,9640,9640,9640,
9640,9640,9640,9640,9640,9640,9640,9640,9640,9640,9640,9640,9640,9640,9640,9640,9640,9640,9640,9640,9640,9640,9640,9640,9640,9640,9640,9640,9640,9640,
9640,9640,9640,9640,9640,9640,9640,9640,9640,9640,9640,9640,9640,9640,9640,9640,9640,9640,9640,9640,9640,9640,9640,9640,9640,9640,9640,9640,9640,9640,
9640,9640,9640,9640,9640,9640,9640,9640,9640,9640,9640,9640,9640,9640,9640,9640,9640,9640,9640,9640,9640,9640,9640,9640,9640,9640,9640,9640,9640,9640,
9640,9640,9640,9640,9640,9640,9640,9640,9640,9640,9640,9640,9640,9640,9640,9640,9640,9640,9640,9640,9640,9640,9640,9640,9640,9640,9640,9640,9640,9640,
9640,9640,9640,9640,9640,9640,9640,9640,9640,9640,9640,9640,9640,9640,9640,9640,9640,9640,9640,9640,9640,9640,9640,9640,9640,9640,9640,9640,9640,9640,
9640,9640,9640,9640,9640,9640,9640,9640,9640,9640,9640,9640,9640,9640,9640,9640,9640,9640,9640,9640,9640,9640,9640,9640,9640,9640,9640,9640,9640,9640,
9640,9640,9640,9640,9640,9640,9640,9640,9640,9640,9640,9640,9640,9640,9640,9640,9640,9640,9640,9640,9640,9640,9640,9640,9640,9640,9640,9640,9640,9640,
9640,9640,9640,9640,9640,9640,9640,9640,9640,9640,9640,9640,9640,9640,9640,9640,9640,9640,9640,9640,9640,9640,9640,9640,9640,9640,9640,9640,9640,9640,
9640,9640,9640,9640,9640,9640,9640,9640,9640,9640,9640,9640,9640,9640,9640,9640,9640,9640,9640,9640,9640,9640,9640,9640,9640,9640,9640,9640,9640,9640,
9640,9640,9640,9640,9640,9640,9640,9640,9640,9640,9640,9640,9640,9640,9640,9640,9640,9640,9640,9640,9640,9640,9640,9640,9640,9640,9640,9640,9640,9640,
9640,9640,9640,9640,9640,9640,9640,9640,9640,9640,9640,9640,9640,9640,9640,9640,9640,9640,9640,9640,9640,9640,9640,9640,9640,9640,9640,9640,9640,9640,
9640,9640,9640,9640,9640,9640,9640,9640,9640,9640,9640,9640,9640,9640,9640,9640,9640,9640,9640,9640,9640,9640,9640,9640,9640,9640,9640,9640,9640,9640,
9640,9640,9640,9640,9640,9640,9640,9640,9640,9640,9640,9640,9640,9640,9640,9640,9640,9640,9640,9640,9640,9640,9640,9640,9640,9640,9640,9640,9640,9640,
9640,9640,9640,9640,9640,9640,9640,9640,9640,9640,9640,9640,9640,9640,9640,9640,9640,9640,9640,9640,9640,9640,9640,9640,9640,9640,9640,9640,9640,9640,
9640,9640,9640,9640,9640,9640,9640,9640,9640,9640,9640,9640,9640,9640,9640,9640,9640,9640,9640,9640,9640,9640,9640,9640,9640,9640,9640,9640,9640,9640,
9640,9640,9640,9640,9640,9640,9640,9640,9640,9640,9640,9640,9640,9640,9640,9640,9640,9640,9640,9640,9640,9640,9640,9640,9640,9640,9640,9640,9640,9640,
9640,9640,9640,9640,9640,9640,9640,9640,9640,9640,9640,9640,9640,9640,9640,9640,9640,9640,9640,9640,9640,9640,9640,9640,9640,9640,9640,9640,9640,9640,
9640,9640,9640,9640,9640,9640,9640,9640,9640,9640,9640,9640,9640,9640,9640,9640,9640,9640,9640,9640,9640,9640,9640,9640,9640,9640,9640,9640,9640,9640,
9640,9640,9640,9640,9640,9640,9640,9640,9640,9640,9640,9640,9640,9640,9640,9640,9640,9640,9640,9640,9640,9640,9640,9640,9640,9640,9640,9640,9640,9640,
9640,9640,9640,9640,9640,9640,9640,9640,9640,9640,9640,9640,9640,9640,9640,9640,9640,9640,9640,9640,9640,9640,9640,9640,9640,9640,9640,9640,9640,9640,
9640,9640,9640,9640,9640,9640,9640,9640,9640,9640,9640,9640,9640,9640,9640,9640,9640,9640,9640,9640,9640,9640,9640,9640,9640,9640,9640,9640,9640,9640
</data>
 </layer>
 <imagelayer id="6" name="ref">
  <image source="../vtt-maps/The Oasis [30x30].png" width="960" height="960"/>
 </imagelayer>
 <layer id="1" name="bg" width="30" height="30" visible="0">
  <data encoding="csv">
0,0,0,0,0,0,0,0,0,0,0,0,0,0,0,0,0,0,0,0,0,0,0,0,0,0,0,0,0,0,
0,0,0,0,0,0,0,0,0,0,0,0,0,0,0,0,0,0,0,0,0,0,0,0,0,0,0,0,0,0,
0,0,0,0,0,0,0,0,0,0,0,0,0,0,0,0,0,0,0,0,0,0,0,0,0,0,0,0,0,0,
0,0,0,0,0,0,0,0,0,0,0,0,0,0,0,0,0,0,0,0,0,0,0,0,0,0,0,0,0,0,
0,0,0,0,0,0,0,0,0,0,0,0,0,0,0,0,0,0,0,0,0,0,0,0,0,0,0,0,0,0,
0,0,0,0,0,0,0,0,0,0,0,0,0,0,0,0,0,0,0,0,0,0,0,0,0,0,0,0,0,0,
0,0,0,0,0,0,0,0,0,0,0,0,0,0,0,0,0,0,0,0,0,0,0,0,0,0,0,0,0,0,
0,0,0,0,0,0,0,0,0,0,0,0,0,0,0,0,0,0,0,0,0,0,0,0,0,0,0,0,0,0,
0,0,0,0,0,0,0,0,0,0,0,0,0,0,0,0,0,0,0,0,0,0,0,0,0,0,0,0,0,0,
0,0,0,0,0,0,0,0,0,0,0,0,0,0,0,0,0,0,0,0,0,0,0,0,0,0,0,0,0,0,
0,0,0,0,0,0,0,0,0,0,0,0,0,0,0,0,0,0,0,0,0,0,0,0,0,0,0,0,0,0,
0,0,0,0,0,0,0,0,0,0,0,0,0,0,0,0,0,0,0,0,0,0,0,0,0,0,0,0,0,0,
0,0,0,0,0,0,0,0,9601,0,0,0,0,0,0,0,0,0,0,0,0,0,0,0,0,0,0,0,0,0,
0,0,0,0,0,0,0,0,9633,0,0,0,0,0,0,0,0,0,0,0,0,0,0,0,0,0,0,0,0,0,
0,0,0,0,0,0,0,0,9665,0,0,0,0,0,0,0,0,0,0,0,9903,0,0,0,0,0,0,0,0,0,
0,0,0,0,0,0,0,0,0,0,0,0,0,0,0,0,0,0,0,9903,9903,9903,0,0,0,0,0,0,0,0,
0,0,0,0,0,0,0,0,0,0,0,0,0,0,9903,9903,9903,9903,9903,9903,9903,9903,0,0,0,0,0,0,0,0,
0,0,0,0,0,0,0,0,0,0,0,0,0,0,9903,9903,9903,9903,9903,9903,9903,9903,9903,0,0,0,0,0,0,0,
0,0,0,0,0,0,0,0,0,0,0,0,0,0,0,9903,9903,0,9903,9903,9903,9903,9903,0,0,0,0,0,0,0,
0,0,0,0,0,0,0,0,0,0,0,0,0,0,0,9903,9903,0,0,9903,9903,9903,9903,0,0,0,0,0,0,0,
0,0,0,0,0,0,0,0,0,0,0,0,0,0,0,9903,9903,9903,9903,9903,9903,9903,9903,0,0,0,0,0,0,0,
0,0,0,0,0,0,0,0,0,0,0,0,0,0,0,0,0,0,0,9903,9903,9903,9903,9903,0,0,0,0,0,0,
0,0,0,0,0,0,0,0,0,0,0,0,0,0,0,0,0,0,0,9903,9903,9903,9903,9903,0,0,0,0,0,0,
0,0,0,0,0,0,0,0,0,0,0,0,0,0,0,0,0,0,9903,9903,9903,9903,9903,9903,0,0,0,0,0,0,
0,0,0,0,0,0,0,0,0,0,0,9903,9903,9903,9903,9903,9903,9903,9903,9903,9903,9903,9903,0,0,0,0,0,0,0,
0,0,0,0,0,0,0,0,0,0,0,0,0,0,0,0,0,0,0,0,0,0,0,0,0,0,0,0,0,0,
0,0,0,0,0,0,0,0,0,0,0,0,0,0,0,0,0,0,0,0,0,0,0,0,0,0,0,0,0,0,
0,0,0,0,0,0,0,0,0,0,0,0,0,0,0,0,0,0,0,0,0,0,0,0,0,0,0,0,0,0,
0,0,0,0,0,0,0,0,0,0,0,0,0,0,0,0,0,0,0,0,0,0,0,0,0,0,0,0,0,0,
0,0,0,0,0,0,0,0,0,0,0,0,0,0,0,0,0,0,0,0,0,0,0,0,0,0,0,0,0,0
</data>
 </layer>
 <layer id="8" name="bg2" width="30" height="30" visible="0">
  <data encoding="csv">
0,0,0,0,0,0,0,0,0,0,0,0,0,0,0,0,0,0,0,0,0,0,0,0,0,0,0,0,0,0,
0,0,0,0,0,0,0,0,0,0,0,0,0,0,0,0,0,0,0,0,0,0,0,0,0,0,0,0,0,0,
0,0,0,0,0,0,0,0,0,0,0,0,0,0,0,0,0,0,0,0,0,0,0,0,0,0,0,0,0,0,
0,0,0,0,0,0,0,0,0,0,0,0,0,0,0,0,0,0,0,0,0,0,0,0,0,0,0,0,0,0,
0,0,0,0,0,0,0,0,0,0,0,0,0,0,0,0,0,0,0,0,0,0,0,0,0,0,0,0,0,0,
0,0,0,0,0,0,0,0,0,0,0,0,0,0,0,0,0,0,0,0,0,0,0,0,0,0,0,0,0,0,
0,0,0,0,0,0,0,0,0,0,0,0,0,0,0,0,0,0,0,0,0,0,0,0,0,0,0,0,0,0,
0,0,0,0,0,0,0,0,9447,0,0,0,0,0,0,0,0,0,9481,0,0,0,0,0,0,0,0,0,0,0,
0,0,0,0,0,0,0,0,9479,0,0,0,0,0,0,0,0,0,9481,0,0,0,0,0,0,0,0,0,0,0,
0,0,0,0,0,0,0,0,9479,9480,9480,9480,9480,9480,9480,9480,9480,9480,9481,0,0,0,0,0,0,0,0,0,0,0,
0,0,0,0,0,0,0,0,9479,9480,9480,9480,9480,9480,9480,9480,9480,9480,9481,0,0,0,0,0,0,0,0,0,0,0,
0,0,0,0,0,0,0,0,9479,9480,9480,9480,9480,9480,9480,9480,9480,9480,9481,0,0,0,0,0,0,0,0,0,0,0,
0,0,0,0,0,0,0,0,9479,9480,9480,9480,9480,9480,9480,9480,9480,9480,9481,0,0,0,0,0,0,0,0,0,0,0,
0,0,0,0,0,0,0,0,9479,9480,9480,9480,9480,9480,9480,9480,9480,9480,9481,0,0,0,0,0,0,0,0,0,0,0,
0,0,0,0,0,0,0,0,9511,9385,9480,9480,9480,9480,9480,9480,9480,9384,9513,0,0,0,0,0,0,0,0,0,0,0,
0,0,0,0,0,0,0,0,0,9511,9512,9512,9512,9512,9512,9512,9512,9513,0,0,0,0,0,0,0,0,0,0,0,0,
0,0,0,0,0,0,0,0,0,0,0,0,0,0,0,0,0,0,0,0,0,0,0,0,0,0,0,0,0,0,
0,0,0,0,0,0,0,0,0,0,0,0,0,0,0,0,0,0,0,0,0,0,0,0,0,0,0,0,0,0,
0,0,0,0,0,0,0,0,0,0,0,0,0,0,0,0,0,0,0,0,0,0,0,0,0,0,0,0,0,0,
0,0,0,0,0,0,0,0,0,0,0,0,0,0,0,0,0,0,0,0,0,0,0,0,0,0,0,0,0,0,
0,0,0,0,0,0,0,0,0,0,0,0,0,0,0,0,0,0,0,0,0,0,0,0,0,0,0,0,0,0,
0,0,0,0,0,0,0,0,0,0,0,0,0,0,0,0,0,0,0,0,0,0,0,0,0,0,0,0,0,0,
0,0,0,0,0,0,0,0,0,0,0,0,0,0,0,0,0,0,0,0,0,0,0,0,0,0,0,0,0,0,
0,0,0,0,0,0,0,0,0,0,0,0,0,0,0,0,0,0,0,0,0,0,0,0,0,0,0,0,0,0,
0,0,0,0,0,0,0,0,0,0,0,0,0,0,0,0,0,0,0,0,0,0,0,0,0,0,0,0,0,0,
0,0,0,0,0,0,0,0,0,0,0,0,0,0,0,0,0,0,0,0,0,0,0,0,0,0,0,0,0,0,
0,0,0,0,0,0,0,0,0,0,0,0,0,0,0,0,0,0,0,0,0,0,0,0,0,0,0,0,0,0,
0,0,0,0,0,0,0,0,0,0,0,0,0,0,0,0,0,0,0,0,0,0,0,0,0,0,0,0,0,0,
0,0,0,0,0,0,0,0,0,0,0,0,0,0,0,0,0,0,0,0,0,0,0,0,0,0,0,0,0,0,
0,0,0,0,0,0,0,0,0,0,0,0,0,0,0,0,0,0,0,0,0,0,0,0,0,0,0,0,0,0
</data>
 </layer>
 <layer id="2" name="mid" width="30" height="30" visible="0">
  <properties>
   <property name="z" type="int" value="0"/>
  </properties>
  <data encoding="csv">
0,0,0,0,0,0,0,0,0,0,0,0,0,0,0,0,0,0,0,0,0,0,0,0,0,0,0,0,0,0,
0,0,0,0,0,0,0,0,0,0,0,0,0,0,0,0,0,0,0,0,0,0,0,0,0,0,0,0,0,0,
0,0,0,0,0,0,13498,13498,13520,0,0,0,0,0,0,0,0,0,0,0,0,0,0,0,0,0,0,0,0,0,
0,0,0,0,0,0,13530,13530,13552,7272,7272,7272,7272,7272,7272,7272,7272,7272,7273,0,0,0,7375,0,0,0,0,0,0,0,
0,0,0,0,0,0,13562,13562,13584,7304,7304,7304,7304,7304,7304,7304,7304,7304,7305,7271,7272,7273,7407,0,0,0,0,0,0,0,
0,0,0,0,0,7376,7271,7273,13616,7336,7336,7336,7336,7336,7336,7336,7336,7336,7337,7303,7304,7305,7439,0,0,0,0,0,0,0,
0,0,0,0,0,7408,7303,7305,0,0,0,0,0,0,0,0,0,0,0,7335,7336,7337,7471,0,0,0,0,0,0,0,
0,0,0,0,0,7440,7335,7337,0,0,0,0,0,0,0,0,0,0,0,0,7293,0,0,0,0,0,0,0,0,0,
0,0,0,0,0,7472,0,0,0,0,0,0,0,0,0,0,0,0,0,0,7325,0,0,0,0,0,0,0,0,0,
0,0,0,0,7381,0,0,0,0,0,0,0,0,0,0,0,0,0,0,0,7357,0,0,0,0,0,0,0,0,0,
0,0,7272,7272,7273,0,0,0,0,0,0,0,0,0,0,0,0,0,0,0,0,0,0,0,0,0,0,0,0,0,
0,0,7304,7304,7305,0,0,0,0,0,0,0,0,0,0,0,0,0,0,0,0,0,0,0,0,0,0,0,0,0,
0,0,7336,7336,7337,0,0,0,0,0,0,0,0,0,0,0,0,0,0,0,0,0,0,0,0,0,0,0,0,0,
0,0,0,0,0,0,0,0,0,0,0,0,0,0,0,0,0,0,0,0,0,0,0,0,0,0,0,0,0,0,
0,0,0,0,0,0,0,0,0,0,0,0,0,0,0,0,0,0,0,0,0,0,0,0,0,0,0,0,0,0,
0,0,0,0,0,0,0,0,0,0,0,0,0,0,0,0,0,0,0,0,0,0,0,0,0,0,0,0,0,0,
0,0,0,0,0,0,0,0,0,0,0,0,0,0,0,0,0,0,0,0,0,0,0,0,0,0,0,0,0,0,
0,0,0,0,0,0,0,0,0,0,0,0,0,0,0,0,0,0,0,0,0,0,0,0,0,0,0,0,0,0,
0,0,0,0,0,0,0,0,0,0,0,0,0,0,0,0,0,0,0,0,0,0,0,0,0,0,0,0,0,0,
0,0,0,0,0,0,0,0,0,0,0,0,0,0,0,0,0,0,0,0,0,0,0,0,0,0,0,0,0,0,
0,0,0,0,0,0,0,0,0,0,0,0,0,0,0,0,0,0,0,0,0,0,0,0,0,0,0,0,0,0,
0,0,0,0,0,0,0,0,0,0,0,0,0,0,0,0,0,0,0,0,0,0,0,0,0,0,0,0,0,0,
0,0,0,0,0,0,0,0,0,0,0,0,0,0,0,0,0,0,0,0,0,0,0,0,0,0,0,0,0,0,
0,0,0,0,0,0,0,0,0,0,0,0,0,0,0,0,0,0,0,0,0,0,0,0,0,0,0,0,0,0,
0,0,0,0,0,0,0,0,0,0,0,0,0,0,0,0,0,0,0,0,0,0,0,0,0,0,0,0,0,0,
0,0,0,0,0,0,0,0,0,0,0,0,0,0,0,0,0,0,0,0,0,0,0,0,0,0,0,0,0,0,
0,0,0,0,0,0,0,0,0,0,0,0,0,0,0,0,0,0,0,0,0,0,0,0,0,0,0,0,0,0,
0,0,0,0,0,0,0,0,0,0,0,0,0,0,0,0,0,0,0,0,0,0,0,0,0,0,0,0,0,0,
0,0,0,0,0,0,0,0,0,0,0,0,0,0,0,0,0,0,0,0,0,0,0,0,0,0,0,0,0,0,
0,0,0,0,0,0,0,0,0,0,0,0,0,0,0,0,0,0,0,0,0,0,0,0,0,0,0,0,0,0
</data>
 </layer>
 <layer id="3" name="foreground" width="30" height="30">
  <properties>
   <property name="z" type="int" value="1"/>
  </properties>
  <data encoding="csv">
0,0,0,0,0,0,0,0,0,0,0,0,0,0,0,0,0,0,0,0,0,0,0,0,0,0,0,0,0,0,
0,0,0,0,0,0,0,0,0,0,0,0,0,0,0,0,0,0,0,0,0,0,0,0,0,0,0,0,0,0,
0,0,0,0,0,0,0,0,0,0,0,0,0,0,0,0,0,0,0,0,0,0,0,0,0,0,0,0,0,0,
0,0,0,0,0,0,0,0,0,0,0,0,0,0,0,0,0,0,0,0,0,0,0,0,0,0,0,0,0,0,
0,0,0,0,0,0,0,0,0,0,0,0,0,0,0,0,0,0,0,0,0,0,0,0,0,0,0,0,0,0,
0,0,0,0,0,0,0,0,0,0,0,0,0,0,0,0,0,0,0,0,0,0,0,0,0,0,0,0,0,0,
0,0,0,0,0,0,0,0,0,0,0,0,0,0,0,0,0,0,0,0,0,0,0,0,0,0,0,0,0,0,
0,0,0,0,0,0,0,0,0,0,0,0,0,0,0,0,0,0,0,0,0,0,0,0,0,0,0,0,0,0,
0,0,0,0,0,0,0,0,0,0,0,0,0,0,0,0,0,0,0,0,0,0,0,0,0,0,0,0,0,0,
0,0,0,0,0,0,0,0,0,0,0,0,0,0,0,0,0,0,0,0,0,0,0,0,0,0,0,0,0,0,
0,0,0,0,0,0,0,0,0,0,0,0,0,0,0,0,0,0,0,0,0,0,0,0,0,0,0,0,0,0,
0,0,0,0,0,0,0,0,0,0,0,0,0,0,0,0,0,0,0,0,0,0,0,0,0,0,0,0,0,0,
0,0,0,0,0,0,0,0,0,0,0,0,0,0,0,0,0,0,0,0,0,0,0,0,0,0,0,0,0,0,
0,0,0,0,0,0,0,0,0,0,0,0,0,0,0,0,0,0,0,0,0,0,0,0,0,0,0,0,0,0,
0,0,0,0,0,0,0,0,0,0,0,0,0,0,0,0,0,0,0,0,0,0,0,0,0,0,0,0,0,0,
0,0,0,0,0,0,0,0,0,0,0,0,0,0,0,0,0,0,0,0,0,0,0,0,0,0,0,0,0,0,
0,0,0,0,0,0,0,0,0,0,0,0,0,0,0,0,0,0,0,0,0,0,0,0,0,0,0,0,0,0,
0,0,0,0,0,0,0,0,0,0,0,0,0,0,0,0,0,0,0,0,0,0,0,0,0,0,0,0,0,0,
0,0,0,0,0,0,0,0,0,0,0,0,0,0,0,0,0,0,0,0,0,0,0,0,0,0,0,0,0,0,
0,0,0,0,0,0,0,0,0,0,0,0,0,0,0,0,0,0,0,0,0,0,0,0,0,0,0,0,0,0,
0,0,0,0,0,0,0,0,0,0,0,0,0,0,0,0,0,0,0,0,0,0,0,0,0,0,0,0,0,0,
0,0,0,0,0,0,0,0,0,0,0,0,0,0,0,0,0,0,0,0,0,0,0,0,0,0,0,0,0,0,
0,0,0,0,0,0,0,0,0,0,0,0,0,0,0,0,0,0,0,0,0,0,0,0,0,0,0,0,0,0,
0,0,0,0,0,0,0,0,0,0,0,0,0,0,0,0,0,0,0,0,0,0,0,0,0,0,0,0,0,0,
0,0,0,0,0,0,0,0,0,0,0,0,0,0,0,0,0,0,0,0,0,0,0,0,0,0,0,0,0,0,
0,0,0,0,0,0,0,0,0,0,0,0,0,0,0,0,0,0,0,0,0,0,0,0,0,0,0,0,0,0,
0,0,0,0,0,0,0,0,0,0,0,0,0,0,0,0,0,0,0,0,0,0,0,0,0,0,0,0,0,0,
0,0,0,0,0,0,0,0,0,0,0,0,0,0,0,0,0,0,0,0,0,0,0,0,0,0,0,0,0,0,
0,0,0,0,0,0,0,0,0,0,0,0,0,0,0,0,0,0,0,0,0,0,0,0,0,0,0,0,0,0,
0,0,0,0,0,0,0,0,0,0,0,0,0,0,0,0,0,0,0,0,0,0,0,0,0,0,0,0,0,0
</data>
 </layer>
 <objectgroup id="4" name="Object Layer 1">
  <object id="1" name="start" x="432" y="400">
   <point/>
  </object>
  <object id="2" x="416" y="896" width="32" height="32">
   <properties>
    <property name="dest" value=""/>
    <property name="destDir" value="d"/>
    <property name="destX" type="float" value="0"/>
    <property name="destY" type="float" value="0"/>
   </properties>
  </object>
  <object id="5" name="cade" x="544" y="384">
   <point/>
  </object>
 </objectgroup>
 <objectgroup id="7" name="collisions">
  <object id="6" x="32" y="64" width="32" height="832">
   <properties>
    <property name="collision" type="bool" value="true"/>
   </properties>
  </object>
  <object id="8" x="896" y="64" width="32" height="768">
   <properties>
    <property name="collision" type="bool" value="true"/>
   </properties>
  </object>
  <object id="14" x="64" y="32" width="832" height="32">
   <properties>
    <property name="collision" type="bool" value="true"/>
   </properties>
  </object>
  <object id="15" x="768" y="832" width="128" height="32">
   <properties>
    <property name="collision" type="bool" value="true"/>
   </properties>
  </object>
  <object id="16" x="480" y="896" width="256" height="32">
   <properties>
    <property name="collision" type="bool" value="true"/>
   </properties>
  </object>
  <object id="17" x="64" y="896" width="320" height="32">
   <properties>
    <property name="collision" type="bool" value="true"/>
   </properties>
  </object>
  <object id="18" x="288" y="832" width="96" height="32">
   <properties>
    <property name="collision" type="bool" value="true"/>
   </properties>
  </object>
  <object id="19" x="64" y="832" width="192" height="32">
   <properties>
    <property name="collision" type="bool" value="true"/>
   </properties>
  </object>
  <object id="20" x="384" y="800" width="1" height="96">
   <properties>
    <property name="collision" type="bool" value="true"/>
   </properties>
  </object>
  <object id="21" x="480" y="800" width="1" height="96">
   <properties>
    <property name="collision" type="bool" value="true"/>
   </properties>
  </object>
 </objectgroup>
</map>
