<?xml version="1.0" encoding="UTF-8"?>
<map version="1.11" tiledversion="1.11.2" orientation="orthogonal" renderorder="right-down" width="34" height="14" tilewidth="32" tileheight="32" infinite="0" nextlayerid="10" nextobjectid="66">
 <tileset firstgid="1" source="../../Assorted_LPC/lpc-walls/walls.tsx"/>
 <tileset firstgid="6145" source="../../Assorted_LPC/lpc-floors/floors.tsx"/>
 <tileset firstgid="8193" source="../../[A]LightShadow_pipo.tsx"/>
 <tileset firstgid="8281" source="../../custom_tilesets/[Lightship]Whaleship.tsx"/>
 <tileset firstgid="12691" source="../../custom_tilesets/[A]BouncingArrows.tsx"/>
 <layer id="1" name="bg" width="34" height="14">
  <data encoding="csv">
8433,8433,8433,8433,8479,8482,8482,8482,8482,8478,8433,8433,8433,8433,8433,8433,8433,8433,8433,8433,8433,8433,8433,8433,8433,8433,8433,8433,8433,8433,8433,8433,8433,8433,
8433,8479,8482,8482,8483,8309,8306,8306,8307,8432,8433,8433,8433,8433,8433,8433,8433,8433,8433,8433,8433,8433,8433,8433,8433,8433,8433,8433,8433,8433,8433,8433,8433,8433,
8433,8434,8309,8306,8307,8358,8356,8410,8357,8432,8433,8433,8433,8433,8433,8433,8433,8433,8433,8433,8433,8433,8433,8433,8433,8433,8433,8433,8433,8433,8433,8433,8433,8433,
8433,8339,8358,8355,8356,8407,8405,8718,8406,8481,8482,8482,8482,8482,8482,8482,8482,8482,8482,8478,8433,8433,8433,8433,8433,8433,8433,8433,8433,8433,8433,8433,8433,8433,
8433,8438,8407,8404,8405,8718,8666,8666,8666,4933,4935,4934,4933,4935,4934,4933,4935,4934,4935,8481,8530,8433,8433,8433,8433,8433,8433,8433,8433,8433,8433,8433,8433,8433,
8491,8390,8718,8666,8666,8666,8666,8666,8666,4997,4999,6895,4997,4999,6895,4997,4999,6895,4999,4936,8436,8433,8479,8482,8482,8482,8482,8482,8482,8482,8482,8530,8433,8433,
8446,8666,8666,8666,8666,8666,8720,8666,8666,5061,5063,6895,5061,5063,6895,5061,5063,6895,5063,5000,8535,8482,8483,8310,8306,8306,8306,8306,8306,8306,8306,8436,8433,8433,
8442,8397,8865,8666,8666,8666,8718,8666,8666,8465,8463,8463,8463,8463,8463,8463,8463,8463,8466,5064,8435,8310,8306,8359,8355,8355,7814,8355,8355,8355,8355,8436,8433,8433,
8433,8446,8870,8666,8666,8666,8666,8666,8666,8563,8561,8561,8561,8561,8561,8561,8561,8561,8515,6875,8438,8359,8355,8408,8404,8404,7814,8404,8404,8404,8404,8439,8490,8433,
8433,8446,8919,8666,8666,8666,8666,8666,8666,8394,6895,8394,6895,8395,8397,6895,8395,8397,8368,6875,8438,8408,8404,8718,8666,8666,8666,8666,8666,8666,8666,8666,8444,8433,
8433,8446,8764,8666,8666,8666,8666,8666,8666,8342,8396,8348,8396,8441,8442,8396,8441,8446,8417,8391,8353,8718,8666,8666,8666,8395,8396,8396,8396,8396,8396,8396,8441,8433,
8433,8442,8396,8396,8397,8865,8666,8666,8666,8444,8445,8445,8445,8445,8445,8445,8445,8446,8666,8666,8666,8666,8666,8395,8396,8441,8433,8433,8433,8433,8433,8433,8433,8433,
8433,8433,8433,8433,8442,8396,8397,8865,8395,8441,8433,8433,8433,8433,8433,8433,8433,8442,8396,8396,8396,8396,8396,8441,8433,8433,8433,8433,8433,8433,8433,8433,8433,8433,
8433,8433,8433,8433,8433,8433,8442,8396,8441,8433,8433,8433,8433,8433,8433,8433,8433,8433,8433,8433,8433,8433,8433,8433,8433,8433,8433,8433,8433,8433,8433,8433,8433,8433
</data>
 </layer>
 <layer id="4" name="ground shadows &amp; details" width="34" height="14">
  <data encoding="csv">
0,0,0,0,0,0,0,0,0,0,0,0,0,0,0,0,0,0,0,0,0,0,0,0,0,0,0,0,0,0,0,0,0,0,
0,0,0,0,0,0,0,0,0,0,0,0,0,0,0,0,0,0,0,0,0,0,0,0,0,0,0,0,0,0,0,0,0,0,
0,0,0,0,0,0,0,0,0,0,0,0,0,0,0,0,0,0,0,0,0,0,0,0,0,0,0,0,0,0,0,0,0,0,
0,0,0,0,0,0,0,12766,0,0,0,0,0,0,0,0,0,0,0,0,0,0,0,0,0,0,0,0,0,0,0,0,0,0,
0,0,0,0,0,0,0,8615,0,0,0,0,0,0,0,0,0,0,0,0,0,0,0,0,0,0,0,0,0,0,0,0,0,0,
0,0,0,0,8587,8588,0,0,0,0,0,0,0,0,0,0,0,0,0,0,0,0,0,0,0,0,0,0,0,0,0,0,0,0,
0,12696,0,0,8636,8637,0,0,0,0,0,12706,0,0,12766,0,0,12766,0,0,0,0,0,0,0,0,0,0,0,0,0,0,0,0,
0,0,0,0,8685,8686,0,0,0,0,0,0,0,0,0,0,0,0,0,0,0,0,0,0,0,0,0,0,0,0,0,0,0,0,
0,0,12701,0,0,0,0,0,0,0,0,0,0,0,0,0,0,0,8366,12691,0,0,0,0,0,0,12706,0,0,0,0,0,0,0,
0,0,0,0,0,0,0,0,0,0,12701,0,12761,0,0,12761,0,0,0,12691,0,0,0,0,0,0,0,0,0,0,0,12691,0,0,
0,0,0,0,0,0,0,0,0,0,0,0,0,0,0,0,0,0,0,0,0,0,0,0,0,0,0,0,0,0,0,0,0,0,
0,0,0,0,0,0,0,8616,0,0,0,0,0,0,0,0,0,0,0,0,0,0,0,0,0,0,0,0,0,0,0,0,0,0,
0,0,0,0,0,0,0,12761,0,0,0,0,0,0,0,0,0,0,0,0,0,0,0,0,0,0,0,0,0,0,0,0,0,0,
0,0,0,0,0,0,0,0,0,0,0,0,0,0,0,0,0,0,0,0,0,0,0,0,0,0,0,0,0,0,0,0,0,0
</data>
 </layer>
 <layer id="6" name="mid" width="34" height="14">
  <properties>
   <property name="z" type="int" value="0"/>
  </properties>
  <data encoding="csv">
0,0,0,0,0,0,0,0,0,0,0,0,0,0,0,0,0,0,0,0,0,0,0,0,0,0,0,0,0,0,0,0,0,0,
0,0,0,0,0,0,8314,8362,8313,0,0,0,0,0,0,0,0,0,0,0,0,0,0,0,0,0,0,0,0,0,0,0,0,0,
0,0,0,0,0,0,0,0,0,0,0,0,0,0,0,0,0,0,0,0,0,0,0,0,0,0,0,0,0,0,0,0,0,0,
0,0,0,0,0,0,0,0,0,0,0,0,0,0,0,0,0,0,0,0,0,0,0,0,0,0,0,0,0,0,0,0,0,0,
0,0,0,0,0,0,0,0,0,0,0,0,0,0,0,0,0,0,0,0,0,0,0,0,0,0,0,0,0,0,0,0,0,0,
0,0,0,0,8734,8735,0,0,0,0,0,0,0,0,0,0,0,0,0,0,0,0,0,0,0,0,0,0,0,0,0,0,0,0,
0,0,0,0,8783,8784,0,0,0,0,0,0,0,0,0,0,0,0,0,0,0,0,0,0,0,0,0,0,0,0,0,0,0,0,
0,0,0,0,8832,8833,0,0,0,0,0,0,0,0,0,0,0,0,0,0,0,0,0,0,0,0,0,0,0,0,0,0,0,0,
0,0,0,0,0,0,0,0,0,0,0,0,0,0,0,0,0,0,0,0,0,0,0,0,0,0,0,0,0,0,0,0,0,0,
0,0,0,0,0,0,0,0,0,0,0,0,0,0,0,0,0,0,0,0,0,0,0,0,0,0,0,0,0,0,0,0,0,0,
0,0,0,0,0,0,0,0,0,0,0,0,0,0,0,0,0,0,0,0,0,0,0,0,0,0,0,0,0,0,0,0,0,0,
0,0,0,0,0,0,0,0,0,0,0,0,0,0,0,0,0,0,0,0,0,0,0,0,0,0,0,0,0,0,0,0,0,0,
0,0,0,0,0,0,0,0,0,0,0,0,0,0,0,0,0,0,0,0,0,0,0,0,0,0,0,0,0,0,0,0,0,0,
0,0,0,0,0,0,0,0,0,0,0,0,0,0,0,0,0,0,0,0,0,0,0,0,0,0,0,0,0,0,0,0,0,0
</data>
 </layer>
 <layer id="7" name="shadows" width="34" height="14">
  <properties>
   <property name="z" type="int" value="0"/>
  </properties>
  <data encoding="csv">
0,0,0,0,0,0,0,0,0,0,0,0,0,0,0,0,0,0,0,0,0,0,0,0,0,0,0,0,0,0,0,0,0,0,
0,0,0,0,0,0,0,0,0,0,0,0,0,0,0,0,0,0,0,0,0,0,0,0,0,0,0,0,0,0,0,0,0,0,
0,0,0,0,0,0,0,0,0,0,0,0,0,0,0,0,0,0,0,0,0,0,0,0,0,0,0,0,0,0,0,0,0,0,
0,0,0,0,0,0,0,0,0,0,0,0,0,0,0,0,0,0,0,0,0,0,0,0,0,0,0,0,0,0,0,0,0,0,
0,0,0,0,0,0,0,0,0,0,0,0,0,0,0,0,0,0,0,0,0,0,0,0,0,0,0,0,0,0,0,0,0,0,
0,0,0,0,0,0,0,0,0,0,0,0,0,0,0,0,0,0,0,0,0,0,0,0,0,0,0,0,0,0,0,0,0,0,
0,0,0,0,0,0,0,0,0,0,0,0,0,0,0,0,0,0,0,0,0,0,0,0,0,0,0,0,0,0,0,0,0,0,
0,0,0,0,0,0,0,0,0,0,0,0,0,0,0,0,0,0,0,0,0,0,0,0,0,0,0,0,0,0,0,0,0,0,
0,0,0,0,0,0,0,0,0,0,0,0,0,0,0,0,0,0,0,0,0,0,0,0,0,0,0,0,0,0,0,0,0,0,
0,0,0,0,0,0,0,0,0,0,0,0,0,0,0,0,0,0,0,0,0,0,0,0,0,0,0,0,0,0,0,0,0,0,
0,0,0,0,0,0,0,0,0,0,0,0,0,0,0,0,0,0,0,0,0,0,0,0,0,0,0,0,0,0,0,0,0,0,
0,0,0,0,0,0,0,0,0,0,0,0,0,0,0,0,0,0,0,0,0,0,0,0,0,0,0,0,0,0,0,0,0,0,
0,0,0,0,0,0,0,0,0,0,0,0,0,0,0,0,0,0,0,0,0,0,0,0,0,0,0,0,0,0,0,0,0,0,
0,0,0,0,0,0,0,0,0,0,0,0,0,0,0,0,0,0,0,0,0,0,0,0,0,0,0,0,0,0,0,0,0,0
</data>
 </layer>
 <layer id="5" name="foreground" width="34" height="14">
  <properties>
   <property name="z" type="int" value="3"/>
  </properties>
  <data encoding="csv">
0,0,0,0,0,0,0,0,0,0,0,0,0,0,0,0,0,0,0,0,0,0,0,0,0,0,0,0,0,0,0,0,0,0,
0,0,0,0,0,0,0,0,0,0,0,0,0,0,0,0,0,0,0,0,0,0,0,0,0,0,0,0,0,0,0,0,0,0,
0,0,0,0,0,0,0,0,0,0,0,0,0,0,0,0,0,0,0,0,0,0,0,0,0,0,0,0,0,0,0,0,0,0,
0,0,0,0,0,0,0,0,0,0,0,0,0,0,0,0,0,0,0,0,0,0,0,0,0,0,0,0,0,0,0,0,0,0,
0,0,0,0,0,0,0,0,0,0,0,0,0,0,0,0,0,0,0,0,0,0,0,0,0,0,0,0,0,0,0,0,0,0,
0,0,0,0,0,0,0,0,0,0,0,0,0,0,0,0,0,0,0,0,0,0,0,0,0,0,0,0,0,0,0,0,0,0,
0,0,0,0,12706,0,0,0,0,0,0,0,0,0,0,0,0,0,0,0,0,0,0,0,0,0,0,0,0,0,0,0,0,0,
0,0,0,0,0,0,0,0,0,0,0,0,0,0,0,0,0,0,0,0,0,0,0,0,0,0,0,0,0,0,0,0,0,0,
0,0,0,0,0,0,0,0,0,0,0,0,0,0,0,0,0,0,0,0,0,0,0,0,0,0,0,0,0,0,0,0,0,0,
0,0,0,0,0,0,0,0,0,0,0,0,0,0,0,0,0,0,0,0,0,0,0,0,0,0,0,0,0,0,0,0,0,0,
0,0,0,0,0,0,0,0,0,0,0,0,0,0,0,0,0,0,0,0,0,0,0,0,0,0,0,0,0,0,0,0,0,0,
0,0,0,0,0,0,0,0,0,0,0,0,0,0,0,0,0,0,0,0,0,0,0,0,0,0,0,0,0,0,0,0,0,0,
0,0,0,0,0,0,0,0,0,0,0,0,0,0,0,0,0,0,0,0,0,0,0,0,0,0,0,0,0,0,0,0,0,0,
0,0,0,0,0,0,0,0,0,0,0,0,0,0,0,0,0,0,0,0,0,0,0,0,0,0,0,0,0,0,0,0,0,0
</data>
 </layer>
 <objectgroup id="9" name="Object Layer 1">
  <object id="25" name="start" x="320" y="256">
   <point/>
  </object>
  <object id="2" x="32" y="228" width="32" height="124">
   <properties>
    <property name="collision" type="bool" value="true"/>
   </properties>
  </object>
  <object id="3" x="64" y="64" width="96" height="96">
   <properties>
    <property name="collision" type="bool" value="true"/>
   </properties>
  </object>
  <object id="4" x="160" y="96" width="64" height="32">
   <properties>
    <property name="collision" type="bool" value="true"/>
   </properties>
  </object>
  <object id="5" x="288" y="128" width="320" height="64">
   <properties>
    <property name="collision" type="bool" value="true"/>
   </properties>
  </object>
  <object id="6" x="640" y="224" width="96" height="96">
   <properties>
    <property name="collision" type="bool" value="true"/>
   </properties>
  </object>
  <object id="7" x="736" y="224" width="288" height="32">
   <properties>
    <property name="collision" type="bool" value="true"/>
   </properties>
  </object>
  <object id="8" x="608" y="320" width="64" height="32">
   <properties>
    <property name="collision" type="bool" value="true"/>
   </properties>
  </object>
  <object id="9" x="1024" y="192" width="32" height="128">
   <properties>
    <property name="collision" type="bool" value="true"/>
   </properties>
  </object>
  <object id="10" x="864" y="256" width="160" height="32">
   <properties>
    <property name="collision" type="bool" value="true"/>
   </properties>
  </object>
  <object id="11" x="800" y="320" width="256" height="32">
   <properties>
    <property name="collision" type="bool" value="true"/>
   </properties>
  </object>
  <object id="12" x="736" y="352" width="64" height="32">
   <properties>
    <property name="collision" type="bool" value="true"/>
   </properties>
  </object>
  <object id="13" x="256" y="384" width="480" height="64">
   <properties>
    <property name="collision" type="bool" value="true"/>
   </properties>
  </object>
  <object id="14" x="32" y="352" width="128" height="96">
   <properties>
    <property name="collision" type="bool" value="true"/>
   </properties>
  </object>
  <object id="21" x="0" y="128" width="32" height="256">
   <properties>
    <property name="collision" type="bool" value="true"/>
   </properties>
  </object>
  <object id="22" name="floor-up" x="144" y="224" width="32" height="28">
   <properties>
    <property name="dest" value="vehicle-brightside-f5"/>
    <property name="destDir" value="r"/>
    <property name="destPoint" value="floor-down"/>
    <property name="landDir" value="l"/>
   </properties>
  </object>
  <object id="23" name="floor-down" x="72" y="280" width="16" height="16">
   <properties>
    <property name="dest" value="vehicle-brightside-f3"/>
    <property name="destDir" value="d"/>
    <property name="destPoint" value="floor-up"/>
   </properties>
  </object>
  <object id="24" x="160" y="384" width="64" height="32">
   <properties>
    <property name="collision" type="bool" value="true"/>
   </properties>
  </object>
  <object id="26" name="teleport-menu" x="224" y="96">
   <point/>
  </object>
  <object id="27" name="to-bar" x="32" y="192" width="16" height="36">
   <properties>
    <property name="dest" value="brightside-bar"/>
    <property name="destDir" value="l"/>
    <property name="destPoint" value="exit-w"/>
   </properties>
  </object>
  <object id="28" x="128" y="254" width="64" height="2">
   <properties>
    <property name="collision" type="bool" value="true"/>
   </properties>
  </object>
  <object id="29" x="32" y="128" width="32" height="64">
   <properties>
    <property name="collision" type="bool" value="true"/>
   </properties>
  </object>
  <object id="30" name="to-dining-room" x="624" y="256" width="16" height="64">
   <properties>
    <property name="dest" value="brightside-dining"/>
    <property name="destDir" value="r"/>
    <property name="destPoint" value="exit-w"/>
   </properties>
  </object>
  <object id="31" name="to-pantry" x="1008" y="288" width="16" height="32">
   <properties>
    <property name="dest" value="brightside-kitchen"/>
    <property name="destDir" value="r"/>
    <property name="destPoint" value="exit-e"/>
   </properties>
  </object>
  <object id="32" name="to-kitchen" x="832" y="256" width="32" height="16">
   <properties>
    <property name="dest" value="brightside-kitchen"/>
    <property name="destDir" value="u"/>
    <property name="destPoint" value="exit-s"/>
   </properties>
  </object>
  <object id="33" x="608" y="160" width="32" height="96">
   <properties>
    <property name="collision" type="bool" value="true"/>
   </properties>
  </object>
  <object id="34" x="736" y="256" width="96" height="32">
   <properties>
    <property name="collision" type="bool" value="true"/>
   </properties>
  </object>
  <object id="35" name="Todd Jenkins" x="416" y="256">
   <point/>
  </object>
  <object id="36" name="to-room-1" x="320" y="304" width="32" height="16">
   <properties>
    <property name="dest" value="brightside-f4-room1"/>
    <property name="destDir" value="u"/>
    <property name="destPoint" value="exit"/>
    <property name="landDir" value="u"/>
   </properties>
  </object>
  <object id="38" x="288" y="320" width="288" height="64">
   <properties>
    <property name="collision" type="bool" value="true"/>
   </properties>
  </object>
  <object id="39" x="256" y="96" width="32" height="32">
   <properties>
    <property name="collision" type="bool" value="true"/>
   </properties>
  </object>
  <object id="40" x="512" y="288" width="64" height="32">
   <properties>
    <property name="collision" type="bool" value="true"/>
   </properties>
  </object>
  <object id="41" x="416" y="288" width="64" height="32">
   <properties>
    <property name="collision" type="bool" value="true"/>
   </properties>
  </object>
  <object id="42" x="480" y="192" width="64" height="32">
   <properties>
    <property name="collision" type="bool" value="true"/>
   </properties>
  </object>
  <object id="43" x="384" y="192" width="64" height="32">
   <properties>
    <property name="collision" type="bool" value="true"/>
   </properties>
  </object>
  <object id="44" x="288" y="192" width="64" height="32">
   <properties>
    <property name="collision" type="bool" value="true"/>
   </properties>
  </object>
  <object id="45" x="576" y="192" width="32" height="32">
   <properties>
    <property name="collision" type="bool" value="true"/>
   </properties>
  </object>
  <object id="46" x="288" y="288" width="32" height="32">
   <properties>
    <property name="collision" type="bool" value="true"/>
   </properties>
  </object>
  <object id="47" x="352" y="288" width="32" height="32">
   <properties>
    <property name="collision" type="bool" value="true"/>
   </properties>
  </object>
  <object id="48" x="160" y="32" width="128" height="64">
   <properties>
    <property name="collision" type="bool" value="true"/>
   </properties>
  </object>
  <object id="49" x="160" y="416" width="96" height="32">
   <properties>
    <property name="collision" type="bool" value="true"/>
   </properties>
  </object>
  <object id="50" name="to-room-2" x="384" y="304" width="32" height="16">
   <properties>
    <property name="dest" value="brightside-f4-room2"/>
    <property name="destDir" value="u"/>
    <property name="destPoint" value="exit"/>
   </properties>
  </object>
  <object id="51" name="to-room-3" x="480" y="304" width="32" height="16">
   <properties>
    <property name="dest" value="brightside-f4-room3"/>
    <property name="destDir" value="u"/>
    <property name="destPoint" value="exit"/>
   </properties>
  </object>
  <object id="52" name="to-room-4" x="352" y="192" width="32" height="16">
   <properties>
    <property name="dest" value="brightside-f4-room4"/>
    <property name="destDir" value="u"/>
    <property name="destPoint" value="exit"/>
   </properties>
  </object>
  <object id="53" name="to-room-5" x="448" y="192" width="32" height="16">
   <properties>
    <property name="dest" value="brightside-f4-room5"/>
    <property name="destDir" value="u"/>
    <property name="destPoint" value="exit"/>
   </properties>
  </object>
  <object id="54" name="to-room-6" x="544" y="192" width="32" height="16">
   <properties>
    <property name="dest" value="brightside-f4-room6"/>
    <property name="destDir" value="u"/>
    <property name="destPoint" value="exit"/>
   </properties>
  </object>
  <object id="55" name="character-change-1" x="160" y="320">
   <point/>
  </object>
  <object id="56" name="character-change-2" x="192" y="352">
   <point/>
  </object>
  <object id="59" name="character-change-3" x="224" y="352">
   <point/>
  </object>
  <object id="60" name="character-change-4" x="256" y="320">
   <point/>
  </object>
  <object id="61" x="128" y="214" width="64" height="2">
   <properties>
    <property name="collision" type="bool" value="true"/>
   </properties>
  </object>
  <object id="62" x="176" y="216" width="16" height="38">
   <properties>
    <property name="collision" type="bool" value="true"/>
   </properties>
  </object>
  <object id="63" x="64" y="256" width="32" height="4">
   <properties>
    <property name="collision" type="bool" value="true"/>
   </properties>
  </object>
  <object id="64" x="94" y="256" width="2" height="60">
   <properties>
    <property name="collision" type="bool" value="true"/>
   </properties>
  </object>
  <object id="65" x="160" y="64" width="128" height="32">
   <properties>
    <property name="collision" type="bool" value="true"/>
   </properties>
  </object>
 </objectgroup>
 <imagelayer id="2" name="ref" visible="0" opacity="0.5" offsetx="-320" offsety="64">
  <image source="../../vtt-maps/whaleship-blank-f4.webp" width="1568" height="384"/>
 </imagelayer>
</map>
