<?xml version="1.0" encoding="UTF-8"?>
<map version="1.11" tiledversion="1.11.2" orientation="orthogonal" renderorder="right-down" width="21" height="9" tilewidth="32" tileheight="32" infinite="0" nextlayerid="10" nextobjectid="38">
 <tileset firstgid="1" source="../../Assorted_LPC/lpc-walls/walls.tsx"/>
 <tileset firstgid="6145" source="../../Assorted_LPC/lpc-floors/floors.tsx"/>
 <tileset firstgid="8193" source="../../[A]LightShadow_pipo.tsx"/>
 <tileset firstgid="8281" source="../../custom_tilesets/[Lightship]Whaleship.tsx"/>
 <tileset firstgid="12691" source="../../Assorted_LPC/wooden_stairs/[LPC]WoodenStairs.tsx"/>
 <tileset firstgid="14287" source="../../custom_tilesets/[A]BouncingArrows.tsx"/>
 <layer id="1" name="bg" width="21" height="9">
  <data encoding="csv">
8479,8482,8482,8482,8482,8482,8482,8482,8482,8482,8482,8482,8482,8482,8482,8482,8482,8482,8482,8482,8478,
8434,8309,8306,8306,8306,8306,8306,8306,8306,8306,8306,8306,8306,8306,8306,8306,8306,8306,8306,8307,8432,
8339,8358,8355,8355,8355,8355,8355,8355,8355,8355,8355,8355,8355,8355,8355,8355,8355,8355,8355,8356,8432,
8438,8407,8404,8404,8404,8404,8404,8404,8404,8404,8404,8404,8404,8404,8404,8404,8404,8404,8404,8405,8432,
8438,8364,8414,8414,8414,8414,8414,8414,8414,8414,8414,8414,8414,8414,8414,8414,8414,8365,7401,7399,8432,
8289,8397,7401,8395,8397,7401,8395,8397,7401,8395,8397,7401,8395,8397,7401,8395,8396,8397,7399,7401,8290,
8433,8442,8396,8441,8442,8396,8441,8442,8396,8441,8442,8396,8441,8442,8396,8539,8494,8495,7401,7401,8436,
8433,8433,8433,8433,8433,8433,8433,8433,8433,8433,8433,8433,8433,8433,8433,8446,8726,8727,7399,7399,8436,
8433,8433,8433,8433,8433,8433,8433,8433,8433,8433,8433,8433,8433,8433,8433,8442,8396,8396,8396,8396,8338
</data>
 </layer>
 <layer id="4" name="ground shadows &amp; details" width="21" height="9">
  <data encoding="csv">
0,0,0,0,0,0,0,0,0,0,0,0,0,0,0,0,0,0,0,0,0,
0,0,0,0,0,0,0,0,0,0,0,0,0,0,0,0,0,0,0,0,0,
0,0,0,9016,0,0,9016,0,0,9016,0,0,9016,0,0,9016,0,0,9016,0,0,
0,0,0,0,0,0,0,0,0,0,0,0,0,0,0,0,0,0,0,0,0,
0,0,0,0,0,0,0,0,0,0,0,0,0,0,0,0,0,0,0,0,0,
0,0,14297,0,0,14357,0,0,14357,0,0,14357,0,0,14357,0,0,0,0,0,0,
0,0,0,0,0,0,0,0,0,0,0,0,0,0,0,0,0,0,0,0,0,
0,0,0,0,0,0,0,0,0,0,0,0,0,0,0,0,14297,0,0,0,0,
0,0,0,0,0,0,0,0,0,0,0,0,0,0,0,0,0,0,0,0,0
</data>
 </layer>
 <layer id="6" name="mid" width="21" height="9">
  <properties>
   <property name="z" type="int" value="0"/>
  </properties>
  <data encoding="csv">
0,0,0,0,0,0,0,0,0,0,0,0,0,0,0,0,0,0,0,0,0,
0,0,0,0,0,0,0,0,0,0,0,0,0,0,0,0,0,0,0,0,0,
0,0,0,0,0,0,0,0,0,0,0,0,0,0,0,0,0,0,0,0,0,
0,0,0,0,0,0,0,0,0,0,0,0,0,0,0,0,0,0,0,0,0,
0,0,0,0,0,0,0,0,0,0,0,0,0,0,0,0,0,0,0,0,0,
0,0,0,0,0,0,0,0,0,0,0,0,0,0,0,0,0,0,0,0,0,
0,0,0,0,0,0,0,0,0,0,0,0,0,0,0,0,0,0,0,0,0,
0,0,0,0,0,0,0,0,0,0,0,0,0,0,0,0,0,0,0,0,0,
0,0,0,0,0,0,0,0,0,0,0,0,0,0,0,0,0,0,0,0,0
</data>
 </layer>
 <layer id="7" name="shadows" width="21" height="9">
  <properties>
   <property name="z" type="int" value="0"/>
  </properties>
  <data encoding="csv">
0,0,0,0,0,0,0,0,0,0,0,0,0,0,0,0,0,0,0,0,0,
0,0,0,0,0,0,0,0,0,0,0,0,0,0,0,0,0,0,0,0,0,
0,0,0,0,0,0,0,0,0,0,0,0,0,0,0,0,0,0,0,0,0,
0,0,0,0,0,0,0,0,0,0,0,0,0,0,0,0,0,0,0,0,0,
0,0,0,0,0,0,0,0,0,0,0,0,0,0,0,0,0,0,0,0,0,
0,0,0,0,0,0,0,0,0,0,0,0,0,0,0,0,0,0,0,0,0,
0,0,0,0,0,0,0,0,0,0,0,0,0,0,0,0,0,0,0,0,0,
0,0,0,0,0,0,0,0,0,0,0,0,0,0,0,0,0,0,0,0,0,
0,0,0,0,0,0,0,0,0,0,0,0,0,0,0,0,0,0,0,0,0
</data>
 </layer>
 <layer id="5" name="foreground" width="21" height="9">
  <properties>
   <property name="z" type="int" value="3"/>
  </properties>
  <data encoding="csv">
0,0,0,0,0,0,0,0,0,0,0,0,0,0,0,0,0,0,0,0,0,
0,0,0,0,0,0,0,0,0,0,0,0,0,0,0,0,0,0,0,0,0,
0,0,0,0,0,0,0,0,0,0,0,0,0,0,0,0,0,0,0,0,0,
0,0,0,0,0,0,0,0,0,0,0,0,0,0,0,0,0,0,0,0,0,
0,0,0,0,0,0,0,0,0,0,0,0,0,0,0,0,0,0,0,0,0,
0,0,0,0,0,0,0,0,0,0,0,0,0,0,0,0,0,0,0,0,0,
0,0,0,0,0,0,0,0,0,0,0,0,0,0,0,0,0,0,0,0,0,
0,0,0,0,0,0,0,0,0,0,0,0,0,0,0,0,0,0,0,0,0,
0,0,0,0,0,0,0,0,0,0,0,0,0,0,0,0,0,0,0,0,0
</data>
 </layer>
 <objectgroup id="9" name="Object Layer 1">
  <object id="5" x="32" y="96" width="608" height="32">
   <properties>
    <property name="collision" type="bool" value="true"/>
   </properties>
  </object>
  <object id="6" x="384" y="160" width="64" height="32">
   <properties>
    <property name="collision" type="bool" value="true"/>
   </properties>
  </object>
  <object id="9" x="640" y="128" width="32" height="128">
   <properties>
    <property name="collision" type="bool" value="true"/>
   </properties>
  </object>
  <object id="23" name="to-room-4" x="352" y="184" width="32" height="32">
   <properties>
    <property name="dest" value="whaleship-f6-room4"/>
    <property name="destDir" value="u"/>
    <property name="destPoint" value="exit"/>
   </properties>
  </object>
  <object id="25" x="32" y="256" width="608" height="32">
   <properties>
    <property name="collision" type="bool" value="true"/>
   </properties>
  </object>
  <object id="26" name="to-room-5" x="448" y="184" width="32" height="32">
   <properties>
    <property name="dest" value="whaleship-f6-room5"/>
    <property name="destDir" value="u"/>
    <property name="destPoint" value="exit"/>
   </properties>
  </object>
  <object id="27" name="floor-down" x="512" y="224" width="32" height="32">
   <properties>
    <property name="dest" value="vehicle-brightside-f5"/>
    <property name="destDir" value="l"/>
    <property name="destPoint" value="floor-up"/>
   </properties>
  </object>
  <object id="28" name="to-room-3" x="256" y="184" width="32" height="32">
   <properties>
    <property name="dest" value="whaleship-f6-room3"/>
    <property name="destDir" value="u"/>
    <property name="destPoint" value="exit"/>
   </properties>
  </object>
  <object id="29" name="to-room-2" x="160" y="184" width="32" height="32">
   <properties>
    <property name="dest" value="whaleship-f6-room2"/>
    <property name="destDir" value="u"/>
    <property name="destPoint" value="exit"/>
   </properties>
  </object>
  <object id="30" name="to-room-1" x="64" y="184" width="32" height="32">
   <properties>
    <property name="dest" value="brightside-f6-room1"/>
    <property name="destDir" value="u"/>
    <property name="destPoint" value="exit"/>
   </properties>
  </object>
  <object id="31" x="0" y="128" width="32" height="128">
   <properties>
    <property name="collision" type="bool" value="true"/>
   </properties>
  </object>
  <object id="32" x="288" y="160" width="64" height="32">
   <properties>
    <property name="collision" type="bool" value="true"/>
   </properties>
  </object>
  <object id="33" x="192" y="160" width="64" height="32">
   <properties>
    <property name="collision" type="bool" value="true"/>
   </properties>
  </object>
  <object id="34" x="96" y="160" width="64" height="32">
   <properties>
    <property name="collision" type="bool" value="true"/>
   </properties>
  </object>
  <object id="35" x="32" y="160" width="32" height="32">
   <properties>
    <property name="collision" type="bool" value="true"/>
   </properties>
  </object>
  <object id="36" x="480" y="160" width="96" height="64">
   <properties>
    <property name="collision" type="bool" value="true"/>
   </properties>
  </object>
  <object id="37" x="480" y="224" width="32" height="32">
   <properties>
    <property name="collision" type="bool" value="true"/>
   </properties>
  </object>
 </objectgroup>
 <imagelayer id="2" name="ref" visible="0" opacity="0.5" offsetx="-608" offsety="0">
  <image source="../../vtt-maps/whaleship-blank-f6.webp" width="1568" height="384"/>
 </imagelayer>
</map>
