<?xml version="1.0" encoding="UTF-8"?>
<map version="1.11" tiledversion="1.11.2" orientation="orthogonal" renderorder="right-down" width="33" height="15" tilewidth="32" tileheight="32" infinite="0" nextlayerid="10" nextobjectid="104">
 <tileset firstgid="1" source="../../Assorted_LPC/lpc-walls/walls.tsx"/>
 <tileset firstgid="6145" source="../../Assorted_LPC/lpc-floors/floors.tsx"/>
 <tileset firstgid="8193" source="../../[A]LightShadow_pipo.tsx"/>
 <tileset firstgid="8281" source="../../custom_tilesets/[Lightship]Whaleship.tsx"/>
 <tileset firstgid="12691" source="../../Assorted_LPC/wooden_stairs/[LPC]WoodenStairs.tsx"/>
 <tileset firstgid="14287" source="../../custom_tilesets/[A]BouncingArrows.tsx"/>
 <layer id="1" name="bg" width="33" height="15">
  <data encoding="csv">
8433,8433,8433,8433,8433,8433,8433,8433,8433,8433,8433,8433,8479,8482,8482,8482,8482,8482,8482,8482,8482,8482,8482,8482,8482,8478,8433,8433,8433,8433,8433,8433,8433,
8433,8479,8482,8482,8482,8482,8482,8482,8482,8482,8482,8482,8483,8309,8306,8306,8306,8306,8306,8306,8306,8306,8306,8306,8307,8481,8482,8482,8482,8478,8433,8433,8433,
8433,8434,8309,8306,8306,8306,8306,8306,8306,8306,8306,8306,8307,8358,8355,8355,8355,8355,8355,8355,8355,8355,8355,8355,8356,8305,8306,8306,8307,8481,8482,8530,8433,
8433,8434,8358,8355,8355,8355,8355,8355,8355,8355,8355,8355,8356,8407,8404,8404,8404,8404,8404,8404,8404,8404,8404,8404,8405,8354,8355,8355,8356,8305,8306,8436,8433,
8433,8434,8407,8404,8404,8404,8404,8404,8404,8404,8404,8404,8405,8326,8315,8315,8315,8315,8315,8315,8315,8315,8315,8315,8315,8403,8404,8404,8405,8354,8355,8436,8433,
8433,8434,7432,7432,7432,7432,7432,7432,7432,7432,7432,7432,7400,8315,8315,8315,8315,8315,8315,8315,8315,8315,8315,8315,8315,8315,8315,8315,8315,8403,8404,8436,8433,
8433,8339,7432,7432,7432,7432,7432,7432,7432,7432,7432,7432,7400,8315,8315,8315,8315,8315,8315,8315,8315,8315,8315,8315,8315,8315,8315,8315,8315,8315,8315,8444,8433,
8433,8438,7432,7432,7432,7432,7432,7432,7432,7432,7432,7432,7400,8315,8315,8315,8315,8315,8315,8315,8315,8315,8315,8315,8315,8315,8315,8315,8315,8315,8315,8444,8433,
8433,8438,7432,7432,7432,7432,7432,7432,7432,7432,7432,7432,7400,8315,8315,8315,8315,8315,8315,8315,8315,8315,8315,8315,8315,8315,8315,8315,8315,8395,8396,8441,8433,
8433,8289,8396,8396,8396,8396,8396,8396,8396,8396,8396,8396,8397,8473,8315,8315,8315,8315,8315,8315,8315,8315,8315,8315,8315,8395,8396,8396,8396,8441,8433,8433,8433,
8433,8433,8433,8433,8433,8433,8433,8433,8433,8433,8433,8433,8442,8396,8396,8396,8396,8396,8396,8396,8396,8396,8396,8396,8396,8441,8433,8433,8433,8433,8433,8433,8433,
8433,8433,8433,8433,8433,8433,8433,8433,8433,8433,8433,8433,8433,8433,8433,8433,8433,8433,8433,8433,8433,8433,8433,8433,8433,8433,8433,8433,8433,8433,8433,8433,8433,
8433,8433,8433,8433,8433,8433,8433,8433,8433,8433,8433,8433,8433,8433,8433,8433,8433,8433,8433,8433,8433,8433,8433,8433,8433,8433,8433,8433,8433,8433,8433,8433,8433,
8433,8433,8433,8433,8433,8433,8433,8433,8433,8433,8433,8433,8433,8433,8433,8433,8433,8433,8433,8433,8433,8433,8433,8433,8433,8433,8433,8433,8433,8433,8433,8433,8433,
8433,8433,8433,8433,8433,8433,8433,8433,8433,8433,8433,8433,8433,8433,8433,8433,8433,8433,8433,8433,8433,8433,8433,8433,8433,8433,8433,8433,8433,8433,8433,8433,8433
</data>
 </layer>
 <layer id="4" name="ground shadows &amp; details" width="33" height="15">
  <data encoding="csv">
0,0,0,0,0,0,0,0,0,0,0,0,0,0,0,0,0,0,0,0,0,0,0,0,0,0,0,0,0,0,0,0,0,
0,0,0,0,0,0,0,0,0,0,0,0,0,0,0,0,0,0,0,0,0,0,0,0,0,0,0,0,0,0,0,0,0,
0,0,0,0,0,0,0,0,0,0,0,0,0,0,0,8581,8582,0,0,0,0,0,0,0,0,0,0,0,0,0,0,0,0,
0,0,0,0,0,0,0,0,0,0,0,0,0,0,0,8630,8631,0,0,0,0,0,0,0,0,0,0,0,0,0,0,0,0,
0,0,0,0,0,0,0,0,0,0,0,0,0,0,0,8679,8680,0,0,0,0,0,0,0,0,0,0,0,0,0,0,0,0,
0,0,0,0,0,0,0,0,0,0,0,0,0,0,0,0,0,0,0,0,0,0,0,0,0,0,0,0,0,0,0,0,0,
0,0,0,0,0,0,0,0,0,0,0,0,0,0,0,0,0,0,0,0,0,0,0,0,0,0,0,0,0,0,0,0,0,
0,0,0,0,0,0,0,0,0,0,0,0,0,0,0,0,0,0,0,0,0,0,0,0,0,0,0,0,0,0,0,0,0,
0,0,0,0,0,0,0,0,0,0,0,0,0,0,0,0,0,0,0,0,0,0,0,0,0,0,0,0,0,0,0,0,0,
0,0,0,0,0,0,0,0,0,0,0,0,0,0,0,0,0,0,0,0,0,0,0,0,0,0,0,0,0,0,0,0,0,
0,0,0,0,0,0,0,0,0,0,0,0,0,0,0,0,0,0,0,0,0,0,0,0,0,0,0,0,0,0,0,0,0,
0,0,0,0,0,0,0,0,0,0,0,0,0,0,0,0,0,0,0,0,0,0,0,0,0,0,0,0,0,0,0,0,0,
0,0,0,0,0,0,0,0,0,0,0,0,0,0,0,0,0,0,0,0,0,0,0,0,0,0,0,0,0,0,0,0,0,
0,0,0,0,0,0,0,0,0,0,0,0,0,0,0,0,0,0,0,0,0,0,0,0,0,0,0,0,0,0,0,0,0,
0,0,0,0,0,0,0,0,0,0,0,0,0,0,0,0,0,0,0,0,0,0,0,0,0,0,0,0,0,0,0,0,0
</data>
 </layer>
 <layer id="6" name="mid" width="33" height="15">
  <properties>
   <property name="z" type="int" value="0"/>
  </properties>
  <data encoding="csv">
0,0,0,0,0,0,0,0,0,0,0,0,0,0,0,0,0,0,0,0,0,0,0,0,0,0,0,0,0,0,0,0,0,
0,0,0,0,0,0,0,0,0,0,0,0,0,0,0,0,0,0,0,0,0,0,0,0,0,0,0,0,0,0,0,0,0,
0,0,0,0,0,0,0,0,0,0,0,0,0,0,0,8736,8737,0,0,0,0,0,0,0,0,0,0,0,0,0,0,0,0,
0,0,0,0,0,0,0,0,0,0,0,0,0,0,0,8785,8786,0,0,0,0,0,0,0,0,0,0,0,0,0,0,0,0,
0,0,0,0,0,0,0,0,0,0,0,0,0,0,0,8834,8835,0,0,0,0,0,0,0,0,0,0,0,0,0,0,0,0,
0,0,0,0,0,0,0,0,0,0,0,0,0,0,0,0,0,0,0,0,0,0,0,0,0,0,0,0,0,0,0,0,0,
0,0,0,0,0,0,0,0,0,0,0,0,0,0,0,0,0,0,0,0,0,0,0,0,0,0,0,0,0,0,0,0,0,
0,0,0,0,0,0,0,0,0,0,0,0,0,0,0,0,0,0,0,0,0,0,0,0,0,0,0,0,0,0,0,0,0,
0,0,0,0,0,0,0,0,0,0,0,0,0,0,0,0,0,0,0,0,0,0,0,0,0,0,0,0,0,0,0,0,0,
0,0,0,0,0,0,0,0,0,0,0,0,0,0,0,0,0,0,0,0,0,0,0,0,0,0,0,0,0,0,0,0,0,
0,0,0,0,0,0,0,0,0,0,0,0,0,0,0,0,0,0,0,0,0,0,0,0,0,0,0,0,0,0,0,0,0,
0,0,0,0,0,0,0,0,0,0,0,0,0,0,0,0,0,0,0,0,0,0,0,0,0,0,0,0,0,0,0,0,0,
0,0,0,0,0,0,0,0,0,0,0,0,0,0,0,0,0,0,0,0,0,0,0,0,0,0,0,0,0,0,0,0,0,
0,0,0,0,0,0,0,0,0,0,0,0,0,0,0,0,0,0,0,0,0,0,0,0,0,0,0,0,0,0,0,0,0,
0,0,0,0,0,0,0,0,0,0,0,0,0,0,0,0,0,0,0,0,0,0,0,0,0,0,0,0,0,0,0,0,0
</data>
 </layer>
 <layer id="7" name="shadows" width="33" height="15">
  <properties>
   <property name="z" type="int" value="0"/>
  </properties>
  <data encoding="csv">
0,0,0,0,0,0,0,0,0,0,0,0,0,0,0,0,0,0,0,0,0,0,0,0,0,0,0,0,0,0,0,0,0,
0,0,0,0,0,0,0,0,0,0,0,0,0,0,0,0,0,0,0,0,0,0,0,0,0,0,0,0,0,0,0,0,0,
0,0,0,0,0,0,0,0,0,0,0,0,0,0,0,0,0,0,0,0,0,0,0,0,0,0,0,0,0,0,0,0,0,
0,0,0,0,0,0,0,0,0,0,0,0,0,0,0,0,0,0,0,0,0,0,0,0,0,0,0,0,0,0,0,0,0,
0,0,0,0,0,0,0,0,0,0,0,0,0,0,0,0,0,0,0,0,0,0,0,0,0,0,0,0,0,0,0,0,0,
0,0,0,0,0,0,0,0,0,0,0,0,0,0,0,0,0,0,0,0,0,0,0,0,0,0,0,0,0,0,0,0,0,
0,0,0,0,0,0,0,0,0,0,0,0,0,0,0,0,0,0,0,0,0,0,0,0,0,0,0,0,0,0,0,0,0,
0,0,0,0,0,0,0,0,0,0,0,0,0,0,0,0,0,0,0,0,0,0,0,0,0,0,0,0,0,0,0,0,0,
0,0,0,0,0,0,0,0,0,0,0,0,0,0,0,0,0,0,0,0,0,0,0,0,0,0,0,0,0,0,0,0,0,
0,0,0,0,0,0,0,0,0,0,0,0,0,0,0,0,0,0,0,0,0,0,0,0,0,0,0,0,0,0,0,0,0,
0,0,0,0,0,0,0,0,0,0,0,0,0,0,0,0,0,0,0,0,0,0,0,0,0,0,0,0,0,0,0,0,0,
0,0,0,0,0,0,0,0,0,0,0,0,0,0,0,0,0,0,0,0,0,0,0,0,0,0,0,0,0,0,0,0,0,
0,0,0,0,0,0,0,0,0,0,0,0,0,0,0,0,0,0,0,0,0,0,0,0,0,0,0,0,0,0,0,0,0,
0,0,0,0,0,0,0,0,0,0,0,0,0,0,0,0,0,0,0,0,0,0,0,0,0,0,0,0,0,0,0,0,0,
0,0,0,0,0,0,0,0,0,0,0,0,0,0,0,0,0,0,0,0,0,0,0,0,0,0,0,0,0,0,0,0,0
</data>
 </layer>
 <layer id="5" name="foreground" width="33" height="15">
  <properties>
   <property name="z" type="int" value="3"/>
  </properties>
  <data encoding="csv">
0,0,0,0,0,0,0,0,0,0,0,0,0,0,0,0,0,0,0,0,0,0,0,0,0,0,0,0,0,0,0,0,0,
0,0,0,0,0,0,0,0,0,0,0,0,0,0,0,0,0,0,0,0,0,0,0,0,0,0,0,0,0,0,0,0,0,
0,0,0,0,0,0,0,0,0,0,0,0,0,0,0,0,0,0,0,0,0,0,0,0,0,0,0,0,0,0,0,0,0,
0,0,0,0,0,0,0,0,0,0,0,0,0,0,0,0,14302,0,0,0,0,0,0,0,0,0,0,0,0,0,0,0,0,
0,0,0,0,0,0,0,0,0,0,0,0,0,0,0,0,0,0,0,0,0,0,0,0,0,0,0,0,0,0,0,0,0,
0,0,0,0,0,0,0,0,0,0,0,0,0,0,0,0,0,0,0,0,0,0,0,0,0,0,0,0,0,0,0,0,0,
0,0,0,0,0,0,0,0,0,0,0,0,0,0,0,0,0,0,0,0,0,0,0,0,0,0,0,0,0,0,0,0,0,
0,0,0,0,0,0,0,0,0,0,0,0,0,0,0,0,0,0,0,0,0,0,0,0,0,0,0,0,0,0,0,0,0,
0,0,0,0,0,0,0,0,0,0,0,0,0,0,0,0,0,0,0,0,0,0,0,0,0,0,0,0,0,0,0,0,0,
0,0,0,0,0,0,0,0,0,0,0,0,0,0,0,0,0,0,0,0,0,0,0,0,0,0,0,0,0,0,0,0,0,
0,0,0,0,0,0,0,0,0,0,0,0,0,0,0,0,0,0,0,0,0,0,0,0,0,0,0,0,0,0,0,0,0,
0,0,0,0,0,0,0,0,0,0,0,0,0,0,0,0,0,0,0,0,0,0,0,0,0,0,0,0,0,0,0,0,0,
0,0,0,0,0,0,0,0,0,0,0,0,0,0,0,0,0,0,0,0,0,0,0,0,0,0,0,0,0,0,0,0,0,
0,0,0,0,0,0,0,0,0,0,0,0,0,0,0,0,0,0,0,0,0,0,0,0,0,0,0,0,0,0,0,0,0,
0,0,0,0,0,0,0,0,0,0,0,0,0,0,0,0,0,0,0,0,0,0,0,0,0,0,0,0,0,0,0,0,0
</data>
 </layer>
 <objectgroup id="9" name="Object Layer 1">
  <object id="38" name="floor-up" x="496" y="128" width="32" height="32">
   <properties>
    <property name="dest" value="vehicle-brightside-f2"/>
    <property name="destDir" value="l"/>
    <property name="destPoint" value="floor-down"/>
   </properties>
  </object>
  <object id="69" x="544" y="96" width="256" height="32">
   <properties>
    <property name="collision" type="bool" value="true"/>
   </properties>
  </object>
  <object id="90" x="64" y="128" width="352" height="32">
   <properties>
    <property name="collision" type="bool" value="true"/>
   </properties>
  </object>
  <object id="91" x="416" y="96" width="64" height="32">
   <properties>
    <property name="collision" type="bool" value="true"/>
   </properties>
  </object>
  <object id="92" x="800" y="128" width="128" height="32">
   <properties>
    <property name="collision" type="bool" value="true"/>
   </properties>
  </object>
  <object id="93" x="928" y="160" width="64" height="32">
   <properties>
    <property name="collision" type="bool" value="true"/>
   </properties>
  </object>
  <object id="94" x="992" y="192" width="32" height="64">
   <properties>
    <property name="collision" type="bool" value="true"/>
   </properties>
  </object>
  <object id="95" x="928" y="256" width="64" height="32">
   <properties>
    <property name="collision" type="bool" value="true"/>
   </properties>
  </object>
  <object id="97" x="800" y="288" width="128" height="32">
   <properties>
    <property name="collision" type="bool" value="true"/>
   </properties>
  </object>
  <object id="98" x="64" y="288" width="352" height="32">
   <properties>
    <property name="collision" type="bool" value="true"/>
   </properties>
  </object>
  <object id="99" x="416" y="320" width="384" height="32">
   <properties>
    <property name="collision" type="bool" value="true"/>
   </properties>
  </object>
  <object id="100" x="480" y="64" width="64" height="32">
   <properties>
    <property name="collision" type="bool" value="true"/>
   </properties>
  </object>
  <object id="101" x="480" y="96" width="8" height="64">
   <properties>
    <property name="collision" type="bool" value="true"/>
   </properties>
  </object>
  <object id="102" x="480" y="160" width="64" height="1">
   <properties>
    <property name="collision" type="bool" value="true"/>
   </properties>
  </object>
  <object id="103" x="32" y="128" width="32" height="192">
   <properties>
    <property name="collision" type="bool" value="true"/>
   </properties>
  </object>
 </objectgroup>
 <imagelayer id="2" name="ref" visible="0" opacity="0.5" offsetx="-64" offsety="32">
  <image source="../../vtt-maps/whaleship-blank-f1.webp" width="1568" height="384"/>
 </imagelayer>
</map>
