<?xml version="1.0" encoding="UTF-8"?>
<map version="1.11" tiledversion="1.11.2" orientation="orthogonal" renderorder="right-down" width="14" height="14" tilewidth="32" tileheight="32" infinite="0" nextlayerid="10" nextobjectid="37">
 <tileset firstgid="1" source="../../Assorted_LPC/lpc-walls/walls.tsx"/>
 <tileset firstgid="6145" source="../../Assorted_LPC/lpc-floors/floors.tsx"/>
 <tileset firstgid="8193" source="../../[A]LightShadow_pipo.tsx"/>
 <tileset firstgid="8281" source="../../custom_tilesets/[Lightship]Whaleship.tsx"/>
 <tileset firstgid="12691" source="../../custom_tilesets/[A]BouncingArrows.tsx"/>
 <tileset firstgid="12811" source="../../Assorted_LPC/lpc_objectspack/Objects/Furniture/Countertops.tsx"/>
 <layer id="1" name="bg" width="14" height="14">
  <data encoding="csv">
8433,8433,8433,8433,8433,8433,8433,8433,8433,8433,8433,8433,8433,8433,
8479,8482,8482,8482,8482,8482,8482,8482,8482,8482,8482,8482,8478,8433,
8434,8457,8453,8453,8453,8453,8453,8453,457,458,458,459,8432,8433,
8434,8506,8502,8502,8502,8502,8502,8502,585,586,586,587,8432,8433,
8434,7592,8551,8551,8551,8551,8551,8551,8452,8453,8453,8454,8290,8433,
8434,7592,7592,7361,7361,7361,7361,7361,8501,8502,8502,8503,8436,8433,
8434,7592,7592,7361,7361,7361,7361,7361,8550,8551,8551,8552,8439,8490,
8434,7592,7592,7361,7361,7361,7361,7361,7361,7361,7361,7361,7361,8444,
8339,7592,7592,7361,7361,7361,7361,7361,7361,7361,7361,7361,8395,8441,
8438,7592,5059,7361,7361,7361,7361,7361,7361,7361,7361,7361,8444,8433,
8438,5060,7361,7361,7361,7361,7361,7361,7361,7361,7361,7361,8444,8433,
8289,8396,8396,8396,8396,8396,8396,8396,8396,8396,8396,8396,8441,8433,
8433,8433,8433,8433,8433,8433,8433,8433,8433,8433,8433,8433,8433,8433,
8433,8433,8433,8433,8433,8433,8433,8433,8433,8433,8433,8433,8433,8433
</data>
 </layer>
 <layer id="4" name="ground shadows &amp; details" width="14" height="14">
  <data encoding="csv">
0,0,0,0,0,0,0,0,0,0,0,0,0,0,
0,0,0,0,0,0,0,0,0,0,0,0,0,0,
0,0,0,0,0,0,0,0,0,0,0,0,0,0,
0,0,0,0,0,0,0,0,0,0,0,0,0,0,
0,0,8631,0,0,0,0,0,0,0,0,0,6080,0,
0,0,0,0,0,0,0,0,0,0,0,0,6080,0,
0,0,0,0,0,0,0,0,0,0,0,0,6080,0,
0,0,0,0,0,0,0,0,0,0,0,0,12691,0,
0,0,0,0,0,0,12821,12839,12839,12839,12839,12840,6080,0,
0,0,8635,0,0,0,12829,12845,12845,12845,12845,12845,6080,0,
0,0,8684,0,0,0,12835,0,12838,12839,12839,12840,6080,0,
0,0,0,0,0,0,0,0,0,0,0,0,0,0,
0,0,0,0,0,0,0,0,0,0,0,0,0,0,
0,0,0,0,0,0,0,0,0,0,0,0,0,0
</data>
 </layer>
 <layer id="6" name="mid" width="14" height="14">
  <properties>
   <property name="z" type="int" value="0"/>
  </properties>
  <data encoding="csv">
0,0,0,0,0,0,0,0,0,0,0,0,0,0,
0,0,0,0,0,0,0,0,0,0,0,0,0,0,
0,0,0,0,0,0,0,0,0,0,0,0,0,0,
0,0,0,0,0,0,0,0,0,0,0,0,0,0,
0,0,0,0,0,0,0,0,0,0,0,0,0,0,
0,0,0,0,0,0,0,0,0,0,0,0,0,0,
0,0,0,0,0,0,0,0,0,0,0,0,0,0,
0,0,0,0,0,0,0,0,0,0,0,0,0,0,
0,0,0,0,0,0,0,0,0,0,0,0,0,0,
0,0,0,0,0,0,0,12842,12842,12843,12841,12841,0,0,
0,5060,0,0,0,0,0,0,0,0,0,0,0,0,
0,0,0,0,0,0,0,0,0,0,0,0,0,0,
0,0,0,0,0,0,0,0,0,0,0,0,0,0,
0,0,0,0,0,0,0,0,0,0,0,0,0,0
</data>
 </layer>
 <layer id="7" name="shadows" width="14" height="14">
  <properties>
   <property name="z" type="int" value="0"/>
  </properties>
  <data encoding="csv">
0,0,0,0,0,0,0,0,0,0,0,0,0,0,
0,0,0,0,0,0,0,0,0,0,0,0,0,0,
0,0,0,0,0,0,0,0,0,0,0,0,0,0,
0,0,0,0,0,0,0,0,0,0,0,0,0,0,
0,0,0,0,0,0,0,0,0,0,0,0,0,0,
0,0,0,0,0,0,0,0,0,0,0,0,0,0,
0,0,0,0,0,0,0,0,0,0,0,0,0,0,
0,0,0,0,0,0,0,0,0,0,0,0,0,0,
0,0,0,0,0,0,0,0,0,0,0,0,0,0,
0,0,0,0,0,0,0,0,0,0,0,0,0,0,
0,0,0,0,0,0,0,0,0,0,0,0,0,0,
0,0,0,0,0,0,0,0,0,0,0,0,0,0,
0,0,0,0,0,0,0,0,0,0,0,0,0,0,
0,0,0,0,0,0,0,0,0,0,0,0,0,0
</data>
 </layer>
 <layer id="5" name="foreground" width="14" height="14">
  <properties>
   <property name="z" type="int" value="3"/>
  </properties>
  <data encoding="csv">
0,0,0,0,0,0,0,0,0,0,0,0,0,0,
0,0,0,0,0,0,0,0,0,0,0,0,0,0,
0,0,0,0,0,0,0,0,0,0,0,0,0,0,
0,0,0,0,0,0,0,0,0,0,0,0,0,0,
0,0,0,0,0,0,0,0,0,0,0,0,0,0,
0,0,0,0,0,0,0,0,0,0,0,0,0,0,
0,0,0,0,0,0,0,0,0,0,0,0,0,0,
0,0,0,0,0,0,0,0,0,0,0,0,0,0,
0,0,0,0,0,0,0,0,0,0,0,0,0,0,
0,0,0,0,0,0,0,0,0,0,0,0,0,0,
0,0,0,0,0,0,0,0,0,0,0,0,0,0,
0,0,0,0,0,0,0,0,0,0,0,0,0,0,
0,0,0,0,0,0,0,0,0,0,0,0,0,0,
0,0,0,0,0,0,0,0,0,0,0,0,0,0
</data>
 </layer>
 <objectgroup id="9" name="Object Layer 1">
  <object id="25" name="start" x="304" y="240">
   <point/>
  </object>
  <object id="1" x="32" y="96" width="224" height="32">
   <properties>
    <property name="collision" type="bool" value="true"/>
   </properties>
  </object>
  <object id="2" x="256" y="128" width="128" height="96">
   <properties>
    <property name="collision" type="bool" value="true"/>
   </properties>
  </object>
  <object id="3" x="384" y="128" width="64" height="96">
   <properties>
    <property name="collision" type="bool" value="true"/>
   </properties>
  </object>
  <object id="14" x="32" y="352" width="416" height="32">
   <properties>
    <property name="collision" type="bool" value="true"/>
   </properties>
  </object>
  <object id="21" x="0" y="128" width="32" height="256">
   <properties>
    <property name="collision" type="bool" value="true"/>
   </properties>
  </object>
  <object id="23" name="exit-w" x="400" y="224" width="32" height="32">
   <properties>
    <property name="dest" value="vehicle-brightside-f4"/>
    <property name="destDir" value="r"/>
    <property name="destPoint" value="to-bar"/>
    <property name="landDir" value="l"/>
   </properties>
  </object>
  <object id="27" x="384" y="256" width="64" height="96">
   <properties>
    <property name="collision" type="bool" value="true"/>
   </properties>
  </object>
  <object id="28" x="432" y="224" width="16" height="32">
   <properties>
    <property name="collision" type="bool" value="true"/>
   </properties>
  </object>
  <object id="29" name="character-change-1" x="128" y="160">
   <point/>
  </object>
  <object id="30" name="character-change-2" x="160" y="160">
   <point/>
  </object>
  <object id="31" name="character-change-3" x="192" y="160">
   <point/>
  </object>
  <object id="32" name="character-change-4" x="224" y="160">
   <point/>
  </object>
  <object id="33" x="128" y="128" width="128" height="32">
   <properties>
    <property name="collision" type="bool" value="true"/>
   </properties>
  </object>
  <object id="34" x="256" y="336" width="128" height="16">
   <properties>
    <property name="collision" type="bool" value="true"/>
   </properties>
  </object>
  <object id="35" x="224" y="280" width="160" height="24">
   <properties>
    <property name="collision" type="bool" value="true"/>
   </properties>
  </object>
  <object id="36" x="200" y="280" width="24" height="56">
   <properties>
    <property name="collision" type="bool" value="true"/>
   </properties>
  </object>
 </objectgroup>
 <imagelayer id="2" name="ref" visible="0" opacity="0.5" offsetx="0" offsety="64">
  <image source="../../vtt-maps/whaleship-blank-f4.webp" width="1568" height="384"/>
 </imagelayer>
</map>
