<?xml version="1.0" encoding="UTF-8"?>
<map version="1.11" tiledversion="1.11.2" orientation="orthogonal" renderorder="right-down" width="7" height="15" tilewidth="32" tileheight="32" infinite="0" nextlayerid="10" nextobjectid="90">
 <tileset firstgid="1" source="../../Assorted_LPC/lpc-walls/walls.tsx"/>
 <tileset firstgid="6145" source="../../Assorted_LPC/lpc-floors/floors.tsx"/>
 <tileset firstgid="8193" source="../../[A]LightShadow_pipo.tsx"/>
 <tileset firstgid="8281" source="../../custom_tilesets/[Lightship]Whaleship.tsx"/>
 <tileset firstgid="12691" source="../../Assorted_LPC/wooden_stairs/[LPC]WoodenStairs.tsx"/>
 <tileset firstgid="14287" source="../../custom_tilesets/[A]BouncingArrows.tsx"/>
 <layer id="1" name="bg" width="7" height="15">
  <data encoding="csv">
8433,8479,8482,8482,8482,8478,8445,
8433,8434,8309,8306,8307,8432,8445,
8433,8434,8358,8355,8356,8290,8445,
8433,8434,8407,8404,8405,8436,8445,
8433,8339,8315,8777,8778,8436,8445,
8433,8438,8315,8391,8392,8298,8445,
8433,8438,8315,8373,8373,8444,8445,
8433,8446,8315,8395,8396,8441,8433,
8433,8285,8315,8286,8433,8433,8433,
8433,8434,8315,8432,8433,8433,8433,
8433,8339,8315,8290,8433,8433,8433,
8433,8438,8315,8436,8433,8433,8433,
8491,8390,7353,8439,8490,8433,8433,
8446,7353,7385,7353,8444,8433,8433,
8442,8396,8396,8396,8441,8433,8433
</data>
 </layer>
 <layer id="4" name="ground shadows &amp; details" width="7" height="15">
  <data encoding="csv">
0,0,0,0,0,0,0,
0,0,0,0,0,0,0,
0,0,0,0,0,0,0,
0,0,0,0,0,0,0,
0,0,0,8583,8584,0,0,
0,0,0,8632,8633,0,0,
0,0,0,8681,8682,0,0,
0,0,0,0,0,0,0,
0,0,0,0,0,0,0,
0,0,0,0,0,0,0,
0,0,0,0,0,0,0,
0,0,8239,0,0,0,0,
0,0,8223,0,0,0,0,
0,0,0,0,0,0,0,
0,0,0,0,0,0,0
</data>
 </layer>
 <layer id="6" name="mid" width="7" height="15">
  <properties>
   <property name="z" type="int" value="0"/>
  </properties>
  <data encoding="csv">
0,0,0,0,0,0,0,
0,0,0,0,0,0,0,
0,0,0,0,0,0,0,
0,0,0,0,0,0,0,
0,0,0,0,0,0,0,
0,0,0,0,0,0,0,
0,0,0,0,0,0,0,
0,0,0,0,0,0,0,
0,0,0,0,0,0,0,
0,0,0,0,0,0,0,
0,0,0,0,0,0,0,
0,0,0,0,0,0,0,
0,0,0,0,0,0,0,
0,0,0,0,0,0,0,
0,0,0,0,0,0,0
</data>
 </layer>
 <layer id="7" name="shadows" width="7" height="15">
  <properties>
   <property name="z" type="int" value="0"/>
  </properties>
  <data encoding="csv">
0,0,0,0,0,0,0,
0,0,0,0,0,0,0,
0,0,0,0,0,0,0,
0,0,0,0,0,0,0,
0,0,0,0,0,0,0,
0,0,0,0,0,0,0,
0,0,0,0,0,0,0,
0,0,0,0,0,0,0,
0,0,0,0,0,0,0,
0,0,0,0,0,0,0,
0,0,0,0,0,0,0,
0,0,0,0,0,0,0,
0,0,0,0,0,0,0,
0,0,0,0,0,0,0,
0,0,0,0,0,0,0
</data>
 </layer>
 <layer id="5" name="foreground" width="7" height="15">
  <properties>
   <property name="z" type="int" value="3"/>
  </properties>
  <data encoding="csv">
0,0,0,0,0,0,0,
0,0,0,0,0,0,0,
0,0,0,0,0,0,0,
0,0,0,0,0,8531,0,
0,0,0,14297,0,8432,0,
0,0,0,0,0,8290,0,
0,0,0,14302,0,8436,0,
0,0,0,0,0,8338,0,
0,0,8380,0,0,0,0,
0,0,8312,0,0,0,0,
0,0,8206,0,0,0,0,
0,0,0,0,0,0,0,
0,0,0,0,0,0,0,
0,14292,0,14287,0,0,0,
0,0,0,0,0,0,0
</data>
 </layer>
 <objectgroup id="9" name="Object Layer 1">
  <object id="38" name="floor-up" x="112" y="192" width="32" height="32">
   <properties>
    <property name="dest" value="vehicle-brightside-f3"/>
    <property name="destDir" value="r"/>
    <property name="destPoint" value="floor-down"/>
   </properties>
  </object>
  <object id="27" name="floor-down" x="112" y="128" width="32" height="32">
   <properties>
    <property name="dest" value="vehicle-brightside-f1"/>
    <property name="destDir" value="r"/>
    <property name="destPoint" value="floor-up"/>
   </properties>
  </object>
  <object id="42" x="0" y="448" width="160" height="32">
   <properties>
    <property name="collision" type="bool" value="true"/>
   </properties>
  </object>
  <object id="63" name="to-engine-room" x="120" y="416" width="32" height="32">
   <properties>
    <property name="dest" value="brightside-engine-room"/>
    <property name="destDir" value="r"/>
    <property name="destPoint" value="exit-w"/>
   </properties>
  </object>
  <object id="66" x="160" y="128" width="32" height="96">
   <properties>
    <property name="collision" type="bool" value="true"/>
   </properties>
  </object>
  <object id="68" x="0" y="128" width="64" height="288">
   <properties>
    <property name="collision" type="bool" value="true"/>
   </properties>
  </object>
  <object id="69" x="32" y="96" width="160" height="32">
   <properties>
    <property name="collision" type="bool" value="true"/>
   </properties>
  </object>
  <object id="83" name="to-bridge" x="8" y="416" width="32" height="32">
   <properties>
    <property name="dest" value="brightside-bridge"/>
    <property name="destPoint" value="exit-e"/>
    <property name="landDir" value="r"/>
   </properties>
  </object>
  <object id="85" x="96" y="224" width="96" height="64">
   <properties>
    <property name="collision" type="bool" value="true"/>
   </properties>
  </object>
  <object id="86" x="96" y="288" width="64" height="128">
   <properties>
    <property name="collision" type="bool" value="true"/>
   </properties>
  </object>
  <object id="87" x="96" y="160" width="64" height="32">
   <properties>
    <property name="collision" type="bool" value="true"/>
   </properties>
  </object>
  <object id="88" x="152" y="416" width="32" height="32">
   <properties>
    <property name="collision" type="bool" value="true"/>
   </properties>
  </object>
  <object id="89" x="0" y="416" width="8" height="32">
   <properties>
    <property name="collision" type="bool" value="true"/>
   </properties>
  </object>
 </objectgroup>
 <imagelayer id="2" name="ref" visible="0" opacity="0.5" offsetx="-448" offsety="96">
  <image source="../../vtt-maps/whaleship-blank-f2.webp" width="1568" height="384"/>
 </imagelayer>
</map>
